/* XPM */
static char * okmap_xpm[] = {
"323 323 2 1",
" 	c #3EFF00",
".	c #FF0000",
"                                                                                                                                                                                                                                                                                                                                   ",
"                                                                                                                                                ...................................                                                                                                                                                ",
"                                                                                                                                        ........                . .                ........                                                                                                                                        ",
"                                                                                                                                   .....                       .   .                       .....                                                                                                                                   ",
"                                                                                                                              .....                           .     .                           .....                                                                                                                              ",
"                                                                                                                          ....                               .       .                               ....                                                                                                                          ",
"                                                                                                                      ....                                  .         .                                  ....                                                                                                                      ",
"                                                                                                                   ...                                     .           .                                     ...                                                                                                                   ",
"                                                                                                               ....                                       .             .                                       ....                                                                                                               ",
"                                                                                                            ...                                          .               .                                          ...                                                                                                            ",
"                                                                                                          ..                                            .                 .                                            ..                                                                                                          ",
"                                                                                                       ...                                             .                   .                                             ...                                                                                                       ",
"                                                                                                     ..                                         .......                     .......                                         ..                                                                                                     ",
"                                                                                                  ...                                    .......     .                       .     .......                                    ...                                                                                                  ",
"                                                                                                ..                                  .....           .                         .           .....                                  ..                                                                                                ",
"                                                                                              ..                               .....               .                           .               .....                               ..                                                                                              ",
"                                                                                            ..                             ....                   .                             .                   ....                             ..                                                                                            ",
"                                                                                         ...                           ....                      .                               .                      ....                           ...                                                                                         ",
"                                                                                        .                           ...                         .                                 .                         ...                           .                                                                                        ",
"                                                                                      ..                         ...                           .                                   .                           ...                         ..                                                                                      ",
"                                                                                    ..                        ...                             .                                     .                             ...                        ..                                                                                    ",
"                                                                                  ..                        ..                               .                                       .                               ..                        ..                                                                                  ",
"                                                                                ..                       ...                                .                                         .                                ...                       ..                                                                                ",
"                                                                               .                       ..                                  .                                           .                                  ..                       .                                                                               ",
"                                                                             ..                     ...                                   .                                             .                                   ...                     ..                                                                             ",
"                                                                           ..                     ..                                     .                                               .                                     ..                     ..                                                                           ",
"                                                                          .                     ..                                      .                                                 .                                      ..                     .                                                                          ",
"                                                                        ..                    ..                                       .                                                   .                                       ..                    ..                                                                        ",
"                                                                       .                    ..                                        .                                                     .                                        ..                    .                                                                       ",
"                                                                     ..                   ..                                         .                                                       .                                         ..                   ..                                                                     ",
"                                                                    .                   ..                                          .                                                         .                                          ..                   .                                                                    ",
"                                                                   .                   .                                           .                                                           .                                           .                   .                                                                   ",
"                                                                 ..                  ..                                           .                                                             .                                           ..                  ..                                                                 ",
"                                                                .                  ..                                            .                                                               .                                            ..                  .                                                                ",
"                                                               .                  .                                             .                                                                 .                                             .                  .                                                               ",
"                                                             ..                 ..                                             .                                                                   .                                             ..                 ..                                                             ",
"                                                            .                  .                                              .                                                                     .                                              .                  .                                                            ",
"                                                           .                 ..                                              .                                                                       .                                              ..                 .                                                           ",
"                                                          .                 .                                              ..                                                                         ..                                              .                 .                                                          ",
"                                                        ..                ..                                            ...                                                                             ...                                            ..                ..                                                        ",
"                                                       .                 .                                           ...                                                                                   ...                                           .                 .                                                       ",
"                                                      .                ..                                         ...                                                                                         ...                                         ..                .                                                      ",
"                                                     .                .                                         ..                                                                                               ..                                         .                .                                                     ",
"                                                    .                .                                       ...                                                                                                   ...                                       .                .                                                    ",
"                                                   .                .                                      ..                                                                                                         ..                                      .                .                                                   ",
"                                                  .               ..                                     ..                                                                                                             ..                                     ..               .                                                  ",
"                                                 .               .                                     ..                                                                                                                 ..                                     .               .                                                 ",
"                                                .               .                                    ..                                                                                                                     ..                                    .               .                                                ",
"                                               .               .                                   ..                                                                                                                         ..                                   .               .                                               ",
"                                              .               .                                  ..                                                                                                                             ..                                  .               .                                              ",
"                                             .               .                                  .                                                                                                                                 .                                  .               .                                             ",
"                                            .               .                                 ..                                                                                                                                   ..                                 .               .                                            ",
"                                           .              ..                                 .                                                                                                                                       .                                 ..              .                                           ",
"                                          .              .                                 ..                                                                                                                                         ..                                 .              .                                          ",
"                                         .              .                                ..                                                                                                                                             ..                                .              .                                         ",
"                                        .              .                                .                                                                                                                                                 .                                .              .                                        ",
"                                       .              .                                .                                                                                                                                                   .                                .              .                                       ",
"                                       .             .                               ..                                                                                                                                                     ..                               .             .                                       ",
"                                      .             .                               .                                                                                                                                                         .                               .             .                                      ",
"                                     .              .                              .                                                                                                                                                           .                              .              .                                     ",
"                                    .              .                             ..                                                                                                                                                             ..                             .              .                                    ",
"                                   .              .                             .                                                                                                                                                                 .                             .              .                                   ",
"                                   .             .                             .                                                                                                                                                                   .                             .             .                                   ",
"                                  .             .                             .                                                                                                                                                                     .                             .             .                                  ",
"                                 .             .                            ..                                                                                                                                                                       ..                            .             .                                 ",
"                                .             .                            .                                                                                                                                                                           .                            .             .                                ",
"                                .            .                            .                                                                                                                                                                             .                            .            .                                ",
"                               .             .                           .                                                                                                                                                                               .                           .             .                               ",
"                              .             .                           .                                                                                                                                                                                 .                           .             .                              ",
"                             .             .                           .                                                                                                                                                                                   .                           .             .                             ",
"                             .            .                           .                                                                                                                                                                                     .                           .            .                             ",
"                            .            .                           .                                                                                                                                                                                       .                           .            .                            ",
"                           .             .                          .                                                                                                                                                                                         .                          .             .                           ",
"                           .            .                          .                                                                                                                                                                                           .                          .            .                           ",
"                          .            .                          .                                                                                                                                                                                             .                          .            .                          ",
"                         .             .                         .                                                                                                                                                                                               .                         .             .                         ",
"                         .            .                         .                                                                                                                                                                                                 .                         .            .                         ",
"                        .            .                          .                                                                                                                                                                                                 .                          .            .                        ",
"                        .            .                         .                                                                                                                                                                                                   .                         .            .                        ",
"                       .            .                         .                                                                                                                                                                                                     .                         .            .                       ",
"                      .            .                         .                                                                                                                                                                                                       .                         .            .                      ",
"                      .            .                        .                                                                                                                                                                                                         .                        .            .                      ",
"                     .            .                         .                                                                                                                                                                                                         .                         .            .                     ",
"                     .           .                         .                                                                                                                                                                                                           .                         .           .                     ",
"                    .            .                        .                                                                                                                                                                                                             .                        .            .                    ",
"                    .           .                        .                                                                                                                                                                                                               .                        .           .                    ",
"                   .            .                        .                                                                                                                                                                                                               .                        .            .                   ",
"                   .           .                        .                                                                                                                                                                                                                 .                        .           .                   ",
"                  .           .                        .                                                                                                                                                                                                                   .                        .           .                  ",
"                 .            .                       .                                                                                                                                                                                                                     .                       .            .                 ",
"                 .           .                        .                                                                                                                                                                                                                     .                        .           .                 ",
"                 .           .                       .                                                                                                                                                                                                                       .                       .           .                 ",
"                .           .                        .                                                                                                                                                                                                                       .                        .           .                ",
"                .           .                       .                                                                                                                                                                                                                         .                       .           .                ",
"               .           .                       .                                                                                                                                                                                                                           .                       .           .               ",
"               .           .                       .                                                                                                                                                                                                                           .                       .           .               ",
"              .           .                       .                                                                                                                                                                                                                             .                       .           .              ",
"              .           .                      .                                                                                                                                                                                                                               .                      .           .              ",
"             .           .                       .                                                                                                                                                                                                                               .                       .           .             ",
"             .           .                      .                                                                                                                                                                                                                                 .                      .           .             ",
"             .          .                       .                                                                                                                                                                                                                                 .                       .          .             ",
"            .           .                      .                                                                                                                                                                                                                                   .                      .           .            ",
"            .           .                      .                                                                                                                                                                                                                                   .                      .           .            ",
"           .           .                      .                                                                                                                                                                                                                                     .                      .           .           ",
"           .           .                      .                                                                                                                                                                                                                                     .                      .           .           ",
"           .          .                      .                                                                                                                                                                                                                                       .                      .          .           ",
"          .           .                      .                                                                                                                                                                                                                                       .                      .           .          ",
"          .           .                     .                                                                                                                                                                                                                                         .                     .           .          ",
"         .           .                      .                                                                                                                                                                                                                                         .                      .           .         ",
"         .           .                     .                                                                                                                                                                                                                                           .                     .           .         ",
"         .          .                      .                                                                                                                                                                                                                                           .                      .          .         ",
"        .           .                      .                                                                                                                                                                                                                                           .                      .           .        ",
"        .           .                     .                                                                                                                                                                                                                                             .                     .           .        ",
"        .          .                      .                                                                                                                                                                                                                                             .                      .          .        ",
"        .          .                     .                                                                                                                                                                                                                                               .                     .          .        ",
"       .           .                     .                                                                                                                                                                                                                                               .                     .           .       ",
"       .          .                      .                                                                                                                                                                                                                                               .                      .          .       ",
"       .          .                     .                                                                                                                                                                                                                                                 .                     .          .       ",
"      .           .                     .                                                                                                                                                                                                                                                 .                     .           .      ",
"      .          .                      .                                                                                                                                                                                                                                                 .                      .          .      ",
"      .          .                     .                                                                                                                                                                                                                                                   .                     .          .      ",
"      .          .                     .                                                                                                                                                                                                                                                   .                     .          .      ",
"     .           .                     .                                                                                                                                                                                                                                                   .                     .           .     ",
"     .          .                     .                                                                                                                                                                                                                                                     .                     .          .     ",
"     .          .                     .                                                                                                                                                                                                                                                     .                     .          .     ",
"     .          .                    .                                                                                                                                                                                                                                                       .                    .          .     ",
"    .           .                   .                                                                                                                                                                                                                                                         .                   .           .    ",
"    .          .                   .                                                                                                                                                                                                                                                           .                   .          .    ",
"    .          .                  .                                                                                                                                                                                                                                                             .                  .          .    ",
"    .          .                 .                                                                                                                                                                                                                                                               .                 .          .    ",
"    .          .                .                                                                                                                                                                                                                                                                 .                .          .    ",
"   .           .               .                                                                                                                                                                                                                                                                   .               .           .   ",
"   .          .               .                                                                                                                                                                                                                                                                     .               .          .   ",
"   .          .              .                                                                                                                                                                                                                                                                       .              .          .   ",
"   .          .             .                                                                                                                                                                                                                                                                         .             .          .   ",
"   .          .            .                                                                                                                                                                                                                                                                           .            .          .   ",
"  .           .           .                                                                                                                                                                                                                                                                             .           .           .  ",
"  .          .           .                                                                                                                                                                                                                                                                               .           .          .  ",
"  .          .          .                                                                                                                                                                                                                                                                                 .          .          .  ",
"  .          .         .                                                                                                                                                                                                                                                                                   .         .          .  ",
"  .          .        .                                                                                                                                                                                                                                                                                     .        .          .  ",
"  .          .       .                                                                                                                                                                                                                                                                                       .       .          .  ",
"  .          .      .                                                                                                                                                                                                                                                                                         .      .          .  ",
"  .          .     .                                                                                                                                                                                                                                                                                           .     .          .  ",
" .          .     .                                                                                                                                                                                                                                                                                             .     .          . ",
" .          .    .                                                                                                                                                                                                                                                                                               .    .          . ",
" .          .   .                                                                                                                                                                                                                                                                                                 .   .          . ",
" .          .  .                                                                                                                                                                                                                                                                                                   .  .          . ",
" .          . .                                                                                                                                                                                                                                                                                                     . .          . ",
" .          ..                                                                                                                                                                                                                                                                                                       ..          . ",
" .          .                                                                                                                                                                                                                                                                                                         .          . ",
" .         .                                                                                                                                                                                                                                                                                                           .         . ",
" .        .                                                                                                                                                                                                                                                                                                             .        . ",
" .       .                                                                                                                                                                                                                                                                                                               .       . ",
" .      .                                                                                                                                                                                                                                                                                                                 .      . ",
" .     .                                                                                                                                                                                                                                                                                                                   .     . ",
" .    .                                                                                                                                                                                                                                                                                                                     .    . ",
" .   .                                                                                                                                                                                                                                                                                                                       .   . ",
" .  .                                                                                                                                                                                                                                                                                                                         .  . ",
" . .                                                                                                                                                                                                                                                                                                                           . . ",
" ..                                                                                                                                                                                                                                                                                                                             .. ",
" .                                                                                                                                                                                                                                                                                                                               . ",
" ..                                                                                                                                                                                                                                                                                                                             .. ",
" . .                                                                                                                                                                                                                                                                                                                           . . ",
" .  .                                                                                                                                                                                                                                                                                                                         .  . ",
" .   .                                                                                                                                                                                                                                                                                                                       .   . ",
" .    .                                                                                                                                                                                                                                                                                                                     .    . ",
" .     .                                                                                                                                                                                                                                                                                                                   .     . ",
" .      .                                                                                                                                                                                                                                                                                                                 .      . ",
" .       .                                                                                                                                                                                                                                                                                                               .       . ",
" .        .                                                                                                                                                                                                                                                                                                             .        . ",
" .         .                                                                                                                                                                                                                                                                                                           .         . ",
" .          .                                                                                                                                                                                                                                                                                                         .          . ",
" .          ..                                                                                                                                                                                                                                                                                                       ..          . ",
" .          . .                                                                                                                                                                                                                                                                                                     . .          . ",
" .          .  .                                                                                                                                                                                                                                                                                                   .  .          . ",
" .          .   .                                                                                                                                                                                                                                                                                                 .   .          . ",
" .          .    .                                                                                                                                                                                                                                                                                               .    .          . ",
" .          .     .                                                                                                                                                                                                                                                                                             .     .          . ",
"  .          .     .                                                                                                                                                                                                                                                                                           .     .          .  ",
"  .          .      .                                                                                                                                                                                                                                                                                         .      .          .  ",
"  .          .       .                                                                                                                                                                                                                                                                                       .       .          .  ",
"  .          .        .                                                                                                                                                                                                                                                                                     .        .          .  ",
"  .          .         .                                                                                                                                                                                                                                                                                   .         .          .  ",
"  .          .          .                                                                                                                                                                                                                                                                                 .          .          .  ",
"  .          .           .                                                                                                                                                                                                                                                                               .           .          .  ",
"  .           .           .                                                                                                                                                                                                                                                                             .           .           .  ",
"   .          .            .                                                                                                                                                                                                                                                                           .            .          .   ",
"   .          .             .                                                                                                                                                                                                                                                                         .             .          .   ",
"   .          .              .                                                                                                                                                                                                                                                                       .              .          .   ",
"   .          .               .                                                                                                                                                                                                                                                                     .               .          .   ",
"   .           .               .                                                                                                                                                                                                                                                                   .               .           .   ",
"    .          .                .                                                                                                                                                                                                                                                                 .                .          .    ",
"    .          .                 .                                                                                                                                                                                                                                                               .                 .          .    ",
"    .          .                  .                                                                                                                                                                                                                                                             .                  .          .    ",
"    .          .                   .                                                                                                                                                                                                                                                           .                   .          .    ",
"    .           .                   .                                                                                                                                                                                                                                                         .                   .           .    ",
"     .          .                    .                                                                                                                                                                                                                                                       .                    .          .     ",
"     .          .                     .                                                                                                                                                                                                                                                     .                     .          .     ",
"     .          .                     .                                                                                                                                                                                                                                                     .                     .          .     ",
"     .           .                     .                                                                                                                                                                                                                                                   .                     .           .     ",
"      .          .                     .                                                                                                                                                                                                                                                   .                     .          .      ",
"      .          .                     .                                                                                                                                                                                                                                                   .                     .          .      ",
"      .          .                      .                                                                                                                                                                                                                                                 .                      .          .      ",
"      .           .                     .                                                                                                                                                                                                                                                 .                     .           .      ",
"       .          .                     .                                                                                                                                                                                                                                                 .                     .          .       ",
"       .          .                      .                                                                                                                                                                                                                                               .                      .          .       ",
"       .           .                     .                                                                                                                                                                                                                                               .                     .           .       ",
"        .          .                     .                                                                                                                                                                                                                                               .                     .          .        ",
"        .          .                      .                                                                                                                                                                                                                                             .                      .          .        ",
"        .           .                     .                                                                                                                                                                                                                                             .                     .           .        ",
"        .           .                      .                                                                                                                                                                                                                                           .                      .           .        ",
"         .          .                      .                                                                                                                                                                                                                                           .                      .          .         ",
"         .           .                     .                                                                                                                                                                                                                                           .                     .           .         ",
"         .           .                      .                                                                                                                                                                                                                                         .                      .           .         ",
"          .           .                     .                                                                                                                                                                                                                                         .                     .           .          ",
"          .           .                      .                                                                                                                                                                                                                                       .                      .           .          ",
"           .          .                      .                                                                                                                                                                                                                                       .                      .          .           ",
"           .           .                      .                                                                                                                                                                                                                                     .                      .           .           ",
"           .           .                      .                                                                                                                                                                                                                                     .                      .           .           ",
"            .           .                      .                                                                                                                                                                                                                                   .                      .           .            ",
"            .           .                      .                                                                                                                                                                                                                                   .                      .           .            ",
"             .          .                       .                                                                                                                                                                                                                                 .                       .          .             ",
"             .           .                      .                                                                                                                                                                                                                                 .                      .           .             ",
"             .           .                       .                                                                                                                                                                                                                               .                       .           .             ",
"              .           .                      .                                                                                                                                                                                                                               .                      .           .              ",
"              .           .                       .                                                                                                                                                                                                                             .                       .           .              ",
"               .           .                       .                                                                                                                                                                                                                           .                       .           .               ",
"               .           .                       .                                                                                                                                                                                                                           .                       .           .               ",
"                .           .                       .                                                                                                                                                                                                                         .                       .           .                ",
"                .           .                        .                                                                                                                                                                                                                       .                        .           .                ",
"                 .           .                       .                                                                                                                                                                                                                       .                       .           .                 ",
"                 .           .                        .                                                                                                                                                                                                                     .                        .           .                 ",
"                 .            .                       .                                                                                                                                                                                                                     .                       .            .                 ",
"                  .           .                        .                                                                                                                                                                                                                   .                        .           .                  ",
"                   .           .                        .                                                                                                                                                                                                                 .                        .           .                   ",
"                   .            .                        .                                                                                                                                                                                                               .                        .            .                   ",
"                    .           .                        .                                                                                                                                                                                                               .                        .           .                    ",
"                    .            .                        .                                                                                                                                                                                                             .                        .            .                    ",
"                     .           .                         .                                                                                                                                                                                                           .                         .           .                     ",
"                     .            .                         .                                                                                                                                                                                                         .                         .            .                     ",
"                      .            .                        .                                                                                                                                                                                                         .                        .            .                      ",
"                      .            .                         .                                                                                                                                                                                                       .                         .            .                      ",
"                       .            .                         .                                                                                                                                                                                                     .                         .            .                       ",
"                        .            .                         .                                                                                                                                                                                                   .                         .            .                        ",
"                        .            .                          .                                                                                                                                                                                                 .                          .            .                        ",
"                         .            .                         .                                                                                                                                                                                                 .                         .            .                         ",
"                         .             .                         .                                                                                                                                                                                               .                         .             .                         ",
"                          .            .                          .                                                                                                                                                                                             .                          .            .                          ",
"                           .            .                          .                                                                                                                                                                                           .                          .            .                           ",
"                           .             .                          .                                                                                                                                                                                         .                          .             .                           ",
"                            .            .                           .                                                                                                                                                                                       .                           .            .                            ",
"                             .            .                           .                                                                                                                                                                                     .                           .            .                             ",
"                             .             .                           .                                                                                                                                                                                   .                           .             .                             ",
"                              .             .                           .                                                                                                                                                                                 .                           .             .                              ",
"                               .             .                           .                                                                                                                                                                               .                           .             .                               ",
"                                .            .                            .                                                                                                                                                                             .                            .            .                                ",
"                                .             .                            .                                                                                                                                                                           .                            .             .                                ",
"                                 .             .                            ..                                                                                                                                                                       ..                            .             .                                 ",
"                                  .             .                             .                                                                                                                                                                     .                             .             .                                  ",
"                                   .             .                             .                                                                                                                                                                   .                             .             .                                   ",
"                                   .              .                             .                                                                                                                                                                 .                             .              .                                   ",
"                                    .              .                             ..                                                                                                                                                             ..                             .              .                                    ",
"                                     .              .                              .                                                                                                                                                           .                              .              .                                     ",
"                                      .             .                               .                                                                                                                                                         .                               .             .                                      ",
"                                       .             .                               ..                                                                                                                                                     ..                               .             .                                       ",
"                                       .              .                                .                                                                                                                                                   .                                .              .                                       ",
"                                        .              .                                .                                                                                                                                                 .                                .              .                                        ",
"                                         .              .                                ..                                                                                                                                             ..                                .              .                                         ",
"                                          .              .                                 ..                                                                                                                                         ..                                 .              .                                          ",
"                                           .              ..                                 .                                                                                                                                       .                                 ..              .                                           ",
"                                            .               .                                 ..                                                                                                                                   ..                                 .               .                                            ",
"                                             .               .                                  .                                                                                                                                 .                                  .               .                                             ",
"                                              .               .                                  ..                                                                                                                             ..                                  .               .                                              ",
"                                               .               .                                   ..                                                                                                                         ..                                   .               .                                               ",
"                                                .               .                                    ..                                                                                                                     ..                                    .               .                                                ",
"                                                 .               .                                     ..                                                                                                                 ..                                     .               .                                                 ",
"                                                  .               ..                                     ..                                                                                                             ..                                     ..               .                                                  ",
"                                                   .                .                                      ..                                                                                                         ..                                      .                .                                                   ",
"                                                    .                .                                       ...                                                                                                   ...                                       .                .                                                    ",
"                                                     .                .                                         ..                                                                                               ..                                         .                .                                                     ",
"                                                      .                ..                                         ...                                                                                         ...                                         ..                .                                                      ",
"                                                       .                 .                                           ...                                                                                   ...                                           .                 .                                                       ",
"                                                        ..                ..                                            ...                                                                             ...                                            ..                ..                                                        ",
"                                                          .                 .                                              ..                                                                         ..                                              .                 .                                                          ",
"                                                           .                 ..                                              .                                                                       .                                              ..                 .                                                           ",
"                                                            .                  .                                              .                                                                     .                                              .                  .                                                            ",
"                                                             ..                 ..                                             .                                                                   .                                             ..                 ..                                                             ",
"                                                               .                  .                                             .                                                                 .                                             .                  .                                                               ",
"                                                                .                  ..                                            .                                                               .                                            ..                  .                                                                ",
"                                                                 ..                  ..                                           .                                                             .                                           ..                  ..                                                                 ",
"                                                                   .                   .                                           .                                                           .                                           .                   .                                                                   ",
"                                                                    .                   ..                                          .                                                         .                                          ..                   .                                                                    ",
"                                                                     ..                   ..                                         .                                                       .                                         ..                   ..                                                                     ",
"                                                                       .                    ..                                        .                                                     .                                        ..                    .                                                                       ",
"                                                                        ..                    ..                                       .                                                   .                                       ..                    ..                                                                        ",
"                                                                          .                     ..                                      .                                                 .                                      ..                     .                                                                          ",
"                                                                           ..                     ..                                     .                                               .                                     ..                     ..                                                                           ",
"                                                                             ..                     ...                                   .                                             .                                   ...                     ..                                                                             ",
"                                                                               .                       ..                                  .                                           .                                  ..                       .                                                                               ",
"                                                                                ..                       ...                                .                                         .                                ...                       ..                                                                                ",
"                                                                                  ..                        ..                               .                                       .                               ..                        ..                                                                                  ",
"                                                                                    ..                        ...                             .                                     .                             ...                        ..                                                                                    ",
"                                                                                      ..                         ...                           .                                   .                           ...                         ..                                                                                      ",
"                                                                                        .                           ...                         .                                 .                         ...                           .                                                                                        ",
"                                                                                         ...                           ....                      .                               .                      ....                           ...                                                                                         ",
"                                                                                            ..                             ....                   .                             .                   ....                             ..                                                                                            ",
"                                                                                              ..                               .....               .                           .               .....                               ..                                                                                              ",
"                                                                                                ..                                  .....           .                         .           .....                                  ..                                                                                                ",
"                                                                                                  ...                                    .......     .                       .     .......                                    ...                                                                                                  ",
"                                                                                                     ..                                         .......                     .......                                         ..                                                                                                     ",
"                                                                                                       ...                                             .                   .                                             ...                                                                                                       ",
"                                                                                                          ..                                            .                 .                                            ..                                                                                                          ",
"                                                                                                            ...                                          .               .                                          ...                                                                                                            ",
"                                                                                                               ....                                       .             .                                       ....                                                                                                               ",
"                                                                                                                   ...                                     .           .                                     ...                                                                                                                   ",
"                                                                                                                      ....                                  .         .                                  ....                                                                                                                      ",
"                                                                                                                          ....                               .       .                               ....                                                                                                                          ",
"                                                                                                                              .....                           .     .                           .....                                                                                                                              ",
"                                                                                                                                   .....                       .   .                       .....                                                                                                                                   ",
"                                                                                                                                        ........                . .                ........                                                                                                                                        ",
"                                                                                                                                                ...................................                                                                                                                                                ",
"                                                                                                                                                                                                                                                                                                                                   "};
