/* XPM */
static char * minimap_character_xpm[] = {
"64 64 2 1",
" 	c #CC0DCC",
".	c #000000",
"                               ..                               ",
"                              ....                              ",
"                              ....                              ",
"                             ......                             ",
"                             ......                             ",
"                            ........                            ",
"                            ........                            ",
"                           ..........                           ",
"                           ..........                           ",
"                          ............                          ",
"                          ............                          ",
"                         ..............                         ",
"                         ..............                         ",
"                        ................                        ",
"                        ................                        ",
"                       ..................                       ",
"                       ..................                       ",
"                      ....................                      ",
"                      ....................                      ",
"                     ......................                     ",
"                     ......................                     ",
"                    ........................                    ",
"                    ........................                    ",
"                   ..........................                   ",
"                   ..........................                   ",
"                  ............................                  ",
"                  ............................                  ",
"                 ..............................                 ",
"                 ..............................                 ",
"                ................................                ",
"                ................................                ",
"               ..................................               ",
"               ..................................               ",
"              ....................................              ",
"              ....................................              ",
"             ......................................             ",
"             ......................................             ",
"            ........................................            ",
"            ........................................            ",
"           ..........................................           ",
"           ..........................................           ",
"          ............................................          ",
"          ............................................          ",
"         ..............................................         ",
"         ..............................................         ",
"        ......................    ......................        ",
"        .....................      .....................        ",
"       ....................          ....................       ",
"       ...................            ...................       ",
"      ..................                ..................      ",
"      .................                  .................      ",
"     ................                      ................     ",
"     ...............                        ...............     ",
"    ..............                            ..............    ",
"    .............                              .............    ",
"   ............                                  ............   ",
"   ...........                                    ...........   ",
"  ..........                                        ..........  ",
"  .........                                          .........  ",
" ........                                              ........ ",
" .......                                                ....... ",
"......                                                    ......",
".....                                                      .....",
" ..                                                          .. "};
