/* XPM */
static char *_5c0a26e26464fc2dd61ebdb9b3b979576piPoFjCvzwaqOj[] = {
/* columns rows colors chars-per-pixel */
"48 48 82 1 ",
"  c None",
". c #130E1E",
"X c #14101F",
"o c #161121",
"O c #181424",
"+ c #1A1628",
"@ c #1C192B",
"# c #1F1D32",
"$ c #201D31",
"% c #222136",
"& c #23223A",
"* c #2A283F",
"= c #262741",
"- c #272842",
"; c #2B2B43",
": c #2B2D4A",
"> c #302F47",
", c #2E314F",
"< c #323047",
"1 c #333249",
"2 c #3D3B4E",
"3 c #2F3352",
"4 c #333553",
"5 c #383955",
"6 c #323759",
"7 c #35395B",
"8 c #3A3C5A",
"9 c #363D61",
"0 c #393F64",
"q c #3C4164",
"w c #3B436A",
"e c #3E4771",
"r c #3F4872",
"t c #444665",
"y c #464866",
"u c #40476E",
"i c #474969",
"p c #414A74",
"a c #4A4F74",
"s c #464E79",
"d c #4D5072",
"f c #4C547D",
"g c #525471",
"h c #5D5F79",
"j c #67677F",
"k c #4D5680",
"l c #4F5882",
"z c #535A83",
"x c #5C5F80",
"c c #5D6182",
"v c #5B628B",
"b c #5D6691",
"n c #606487",
"m c #696A81",
"M c #60658B",
"N c #656C96",
"B c #686F97",
"V c #676E98",
"C c #686F99",
"Z c #697097",
"A c #6A719B",
"S c #757A9C",
"D c #757CA2",
"F c #787EA4",
"G c #7980A4",
"H c #7A81A8",
"J c #8388A6",
"K c #878CAF",
"L c #898EAF",
"P c #8F93AD",
"I c #898EB1",
"U c #8C91B3",
"Y c #9396B0",
"T c #9598B1",
"R c #969BBA",
"E c #989DBB",
"W c #9DA2BE",
"Q c #9FA3C0",
"! c #A3A7C2",
"~ c #A5A9C3",
"^ c #A8ACC7",
"/ c #A8ADC8",
/* pixels */
"             X.....................             ",
"             @@@@@@@@@@@@@$$@@@O@@@             ",
"            %*>>2222222522222221<;*%            ",
"           @;8yghjjjmmjmjjjmjjjjgi8;@           ",
"          O%2aMSJPTTTTYYYYYYTTPJSMa1$+          ",
"         $&<tvDIE!~^~~^~~^~~^^QWIDnt<&$         ",
"        $;5ihSIR!~^^^^^^^^^^/^~!EISci5;$        ",
"       O$4aMSIR!!!!~~~~~~~~~~!!!!ELSMd5$O       ",
"      $%>inDIE!~~!!!!~!!~!!!!!!~~!RKDMt>%$      ",
"     $;4yhSIEE~~~!!!!!!!!!!!!!!~~~QRIShy4;$     ",
"    O&5dnSLE!!!~!!!!!!!!!!!!!!!!!!!!EKSMg4&O    ",
"   @%<iMDLE!~!!!!!!!!!!!~!!!!!!!!!!~!RIDMi<%@   ",
"  %>2tcSIE!!~!!!!!!~!!!!!!!!!!!!!!~~~QRISxi4;&  ",
".@*8dnSIEQ!!~!!!!!!!!!!!!!!~!~!!!!!~!!QRPSng8*@X",
".@;tvDLE!~!!!!!!!!!!~!!!!!!!!!!!!!!!!!!!RKSvt;@.",
".@;iMHUQ~~~!!!!!!!!!!!!!!!!!!!!!!!!!!~^~QRHMy;@.",
"X@;ybHUQ~~~!!!!!!!~!!!!!!~!!!!!!!!!!!~~~QUHNi;@X",
"X@;yvDUE!~!!!!!!!!!!!!!!!!!~!!~!!!!!!!!!EIDvt;@.",
"X@*qzAHURW!!~~!~!!!!!!!!!!!!!!!!!!~!~!WRUHAzq;+o",
"X+&8fvAGKRW!~~!!~!!!~!!!!!!!!!!!!!~~~WTKGAvd7&+o",
"X@&4wkvCDLR!~~!!!!~!!!!!!!!!!~!!!!~!!RLDCvkw6%+o",
"oO%3wslvVGPRWW!~~!!!!!!!!!!!!!!~~!!WRUGVvlsw3&+o",
"O+%3wsskvZDKRW~~~!!!!!!!!!~!!!!~~!WRLDZvlfrw3&+o",
"o+%3wrssfvCDKR!~!!!!!!!~!~!!!!!!~!RLDBvfspre3%+o",
"o+&3wrrpsfvVFURQW!~~!!!!!!!!!~!!QRIDBvfsrpp03=+o",
"o+&3wrrrpskvZDLRW~~~~~~~~~!~~~!WRIGAvksprrpw3$+o",
"o+%3ersrppsfvZDKR!~~~~!~~!!!~~!WKDCzfspppspw3$+o",
"o+&3wrsrprrsfvBFPRWWWWWWWWWWWWTPFVblspeprrre3=+o",
"o+&3wrrrrerpskvBGKUUUUUIUUUUUULGCbkssrrrrrr03&+o",
"o+&3wrrsperppsfvBDFGFFFFDFFFGGDZzksprrrrrkre3&+o",
"o+&3errrepprrpskvVAAAAAAAAAAAABvlsrrrrrrrrre3&+o",
"o+&3esrspprpeepkvNVAVNVVVVVVCVNvksrrrrrsrrre3&+X",
"o+#6wppprpprrrpkvNVVVVVVVVVCVVVvkperrrrrrsr09&+o",
"o+&3weprprrprrskvNVAVAVACCCCAAVzksrrrsrsrre03#+o",
"O+#,60wrprrprrpkvNACVAVVCCCCAVNvkprrrrrrr0093$+o",
"  #&=,9wpsprrrpkvNCAAVAVCCCCAVNvksrrrrsse9,==#  ",
"   +#&30pprprrskvNVACCCCCCCCCCNvkprrppsr03&#+   ",
"    +#:70wrrrrpkvNAVCCCCCCCCCAVvkprrrr006:#O    ",
"     @&-37wpprskvVCACCCCCCCCACVvkprps093-&#     ",
"      @#&3wrrrpkvVAACCCCCCCCCAVvkspre03&#@      ",
"       +#-60wepkbVCAAAAAAAAAAAVvlsewq6-#O       ",
"        +&:39wplbCAAAAAAAAAAAACblp093:&@        ",
"         ##&:0pzMCAAACCAAAAAAABMlp9:&##         ",
"          O#-6wszMMMNbMMbMbMMNvfsw6=#O          ",
"           +%:67qyyyyyyyiiiiiiyt74:%+           ",
"            #$%*;;>;>>;>;;;>;;;;=&$#            ",
"             ++++@@@+@@@@@@@@@@++++             ",
"             ooO.o.......XXXX..oOXO             "
};
