/* XPM */
static char *_707b20276e541d98c240f934d8df8dd7yLZqnUi1MW3RLAi[] = {
/* columns rows colors chars-per-pixel */
"48 48 142 2 ",
"   c None",
".  c #1B0A06",
"X  c #1E0E0B",
"o  c #1F100C",
"O  c #1E1214",
"+  c #1B161E",
"@  c #210F0A",
"#  c #24130E",
"$  c #28160F",
"%  c #251511",
"&  c #281710",
"*  c #261917",
"=  c #2B1A12",
"-  c #21171B",
";  c #2B1C19",
":  c #331E14",
">  c #362115",
",  c #35261F",
"<  c #3C261A",
"1  c #3E281D",
"2  c #1A1621",
"3  c #1B1825",
"4  c #16192C",
"5  c #191B2D",
"6  c #171C31",
"7  c #1D1F30",
"8  c #1D2236",
"9  c #1F243A",
"0  c #362720",
"q  c #372820",
"w  c #3F2C23",
"e  c #33292B",
"r  c #262634",
"t  c #20263D",
"y  c #242A3C",
"u  c #302C37",
"i  c #3C3131",
"p  c #37323B",
"a  c #3D363B",
"s  c #472E1E",
"d  c #432E23",
"f  c #453127",
"g  c #4E3424",
"h  c #45342C",
"j  c #493428",
"k  c #503522",
"l  c #593C26",
"z  c #523A2C",
"x  c #5B3E2A",
"c  c #413A3F",
"v  c #4C3F3C",
"b  c #533D32",
"n  c #5D402C",
"m  c #4D413E",
"M  c #5D4332",
"N  c #54433C",
"B  c #5C4739",
"V  c #5F493D",
"C  c #6A492F",
"Z  c #644731",
"A  c #6C4C33",
"S  c #634A3A",
"D  c #6D4E38",
"F  c #6E513B",
"G  c #72533C",
"H  c #242B40",
"J  c #2C3144",
"K  c #32374C",
"L  c #3A3D51",
"P  c #453E42",
"I  c #37425D",
"U  c #3B445C",
"Y  c #3D4660",
"T  c #3F4A67",
"R  c #4B4244",
"E  c #564745",
"W  c #574845",
"Q  c #5B4B45",
"!  c #554A4A",
"~  c #594B4A",
"^  c #4F4A52",
"/  c #45495E",
"(  c #554E50",
")  c #5A5157",
"_  c #634D42",
"`  c #655045",
"'  c #6A574B",
"]  c #6D594D",
"[  c #70584A",
"{  c #655854",
"}  c #6C5B53",
"|  c #725E55",
" . c #7E6A5E",
".. c #4F5368",
"X. c #525366",
"o. c #53576C",
"O. c #575B6F",
"+. c #5E5D6D",
"@. c #495674",
"#. c #5E5F70",
"$. c #535E7D",
"%. c #695E60",
"&. c #5F6072",
"*. c #57617F",
"=. c #6D6A6D",
"-. c #706969",
";. c #7B716E",
":. c #616274",
">. c #6A6672",
",. c #6D6F7E",
"<. c #7C7371",
"1. c #7C7A7E",
"2. c #816D60",
"3. c #505F80",
"4. c #536080",
"5. c #59678A",
"6. c #5A688B",
"7. c #626E8D",
"8. c #777681",
"9. c #636F90",
"0. c #657192",
"q. c #697594",
"w. c #67779D",
"e. c #69799F",
"r. c #6C7BA1",
"t. c #86858A",
"y. c #8B898C",
"u. c #938C8A",
"i. c #96908F",
"p. c #8C8D94",
"a. c #908D91",
"s. c #8F9198",
"d. c #818CA5",
"f. c #8796B3",
"g. c #9FA3AB",
"h. c #9DA6B7",
"j. c #A2A5AC",
"k. c #A5ABB3",
"l. c #ABB2BB",
"z. c #A6B2C7",
"x. c #AEB7C3",
"c. c #ADB6C3",
/* pixels */
"                                                                                                ",
"                                                                                                ",
"                                                                                                ",
"                                                                                                ",
"                                                                                                ",
"                                                                                                ",
"                                                                                                ",
"                                                                                                ",
"                                                                                                ",
"                    . . . . . X X X X X X X X X X X X X X X X X X . . . . .                     ",
"                  * ; ; ; * * % % $ $ % % % % % % % % % % $ $ % % * ; ; ; * ;                   ",
"                i R ! ! ! ! m h 1 < < 1 < < 1 < < < 1 < < < < 1 h m ! ! ! ! R i                 ",
"              * R =.t.p.p.t.;.' M l l x x n x n n x n x x l l M ' ;.t.p.p.t.=.R *               ",
"            X ; R 1.j.l.l.j.u. .F C A A A A A A A A A A A A C F  .u.g.l.l.g.1.E ; @             ",
"          = : w N -.t.s.s.y.<.] Z x l n n n n l n n n x n x l M ] <.y.s.s.t.-.N d : =           ",
"        $ > g l B E ! ( ! ! R h 1 < 1 1 1 1 1 1 1 1 < < s < < w h m ^ ( ( ! N N l g > $         ",
"      X % < l A x s ; * ; ; * $ % % $ $ % % $ % $ # % % $ % % % % = ; * * ; s n Z n < $ X       ",
"      X % 1 n A n < X . . . . X X X X X X X X o o X X X X X X X o . . . . # > n A n < % X       ",
"      X % 1 n A n < # . . X X X X o X o X X o X o X o o X X o o o X . . . o < n A n 1 % X       ",
"      X % < l A n 1 $ X X # o # # o # o # o # # o # o # # # o # o # # # o $ 1 n A l < % X       ",
"      X % 1 n A l < # . X X X o X X X # X X o o o o o X X o o o o X . . . @ < n A n < % X       ",
"      X # 1 n A n < . . . . . X o X X X o X o X o X X X X X o X o . X . . @ < n A n 1 % X       ",
"      X $ < l A n d ; ; * * ; % % # # $ % $ $ % # % $ $ # $ % % % * * ; % ; d n A l < $ X       ",
"      X $ > z Z S Q ! ! ! E v f w < < < < < < < < 1 < < < < < 1 f m ! ( ! ! Q S Z z > % X       ",
"      X % : s n ] ;.t.p.p.t.;.[ M l l l l n n n n x n l l l l M ] ;.t.p.p.t.;.] l s : # X       ",
"      X # = s z | y.k.x.l.k.u.2.G A A A F A A D A A A F G A A G 2.a.k.x.l.k.t. .z s = # X       ",
"      X # $ : j { t.h.z.z.k.p.;.F D ]  .} ` S B B V ` ]  .[ F G  .a.h.z.z.h.t.{ j > & # #       ",
"      # # $ : w W 7.d.f.f.d.8.} S _ } >.+.^ c a a P ^ +.:.{ _ S } 8.d.f.f.d.,.! w : # # #       ",
"      o # $ = , P #.q.r.r.q.:.~ b ~ :.7.$.U J y r J U $.7.&.Q b ~ :.q.r.r.q.#.R 0 = $ # @       ",
"      o X $ = , P o.9.r.w.7.+.E b ! :.7.3.I y 8 8 H I 3.7.&.~ b E #.7.w.e.7.o.P 0 = # # O       ",
"    + o # $ = , P o.9.w.w.0.#.E b W :.7.4.I H 8 8 y I $.7.:.~ b E #.0.w.w.9.O.P , & # # O +     ",
"  5 + O # $ = , P #.9.r.w.q.#.E b Q :.7.4.Y J y H J Y 3.7.:.W b W #.0.w.r.0.O.P , = # # % + 5   ",
"  5 2 O o # = , m O.7.e.e.0.:.Q b ~ &.9.6.@./ L Y Y @.5.9.:.~ b W &.9.r.e.0.O.P < & # # % 2 5   ",
"  5 2 O # # = , R O.0.e.e.0.+.E b ~ :.0.0.6.3.3.3.3.5.0.w.#.! b W &.9.r.e.0.O.P < = # % O 2 5   ",
"  5 2 O # $ = 0 m O.7.e.e.0.+.W b W %.7.0.0.9.9.9.9.0.0.7.%.E b W &.0.r.e.0.O.P 0 = # @ O 2 5   ",
"  5 + O # # = 1 L o.0.e.e.0.:.! b P ) #.:.:.:.:.:.:.:.*.&.) b b W &.9.r.e.0.O.P 0 = # # O 2 5   ",
"  5 + O # $ = , R O.0.e.e.0.:.Q z z N W ( ~ ~ ~ ~ ~ ~ ~ ~ v z z ~ &.9.r.r.9.O.P , & # # O + 5   ",
"  5 2 O # # = 0 P O.0.e.e.0.:.! z k k z z z z z z b z z z z k z ~ &.9.r.r.9.+.c , & $ # O 2 5   ",
"  5 3 + O # $ ; a O.0.e.e.q.&.~ z k k k k k k k k k k k k k k z ~ :.9.r.r.9.O.c , $ % - + 3 5   ",
"6 6 4 3 2 - # ; a o.0.r.e.q.:.~ z k k k k k k k k k k k k k k k ~ :.q.r.r.9.o.K ; # O + 2 5 6 6 ",
"        4 + O * p ..9.e.q.0.&.! z g k k g g k g g g g g g g k z ! #.9.r.w.7.X.p * O + 4         ",
"        4 2 O - u / 4.6.5.4.X.R h d d f f h f f f f f f f f f h R X.4.6.6.$./ u + O 2 6         ",
"          4 3 3 r K Y T T Y L p e e e e e e e e e e e e e e e e J L Y / T U K r 3 2 4           ",
"            4 5 6 8 9 9 t 8 9 8 5 r 5 7 7 7 7 8 8 8 7 5 r 5 5 7 7 t 8 t t t 9 6 4 5             ",
"                                                                                                ",
"                      6                                                 4                       ",
"                      6 6 6 6 6 6 6 6 6 6 6 6 6 6 6 6 6 6 6 6 6 6 6 6 6 6                       ",
"                      6 6 6 6 6 6 6 6 6 6 6 6 6 6 6 6 6 6 6 6 6 6 6 6 6 6                       "
};
