/* XPM */
static char *b05c7a32c8414daa9162febcfc796c5cP8ArPoziPrs7Xe4G[] = {
/* columns rows colors chars-per-pixel */
"16 16 13 1 ",
"  c None",
". c #302C2E",
"X c #7A444A",
"o c #585374",
"O c #A05B53",
"+ c #BF7958",
"@ c #EEA160",
"# c #7F7CA1",
"$ c #8585A7",
"% c #FFC08B",
"& c #A2ADC1",
"* c #C3C3D9",
"= c #D9E9FF",
/* pixels */
"                ",
"                ",
"  ...      ...  ",
" ..$........$.. ",
".+.&.++++++.&.+.",
".%.=.%%%%%%.=.%.",
".%.=.%%%%%%.=.%.",
".@.*.@@@@@@.*.@.",
".+.*.++&&++.*.+.",
".O.&.O&==&O.&.O.",
".O.&.O#..#O.&.O.",
"...#..#..#..#...",
".X.o.XXooXX.o.X.",
".O.#.OO++OO.#.O.",
".+.#.OO++OO.#.+.",
" .............. "
};
