/* XPM */
static char *e67c29aeb469495f9871b25f38ec0be5gDdufcm8zQJfzRc5[] = {
/* columns rows colors chars-per-pixel */
"16 16 91 1 ",
"  c None",
". c #302C2E",
"X c #312D2F",
"o c #322D2F",
"O c #302D30",
"+ c #312D30",
"@ c #322E32",
"# c #352E30",
"$ c #362E30",
"% c #372F30",
"& c #362E32",
"* c #312E36",
"= c #343033",
"- c #363033",
"; c #363236",
": c #373437",
"> c #383030",
", c #383130",
"< c #3B3132",
"1 c #3F3233",
"2 c #3E3432",
"3 c #3F3432",
"4 c #3A3336",
"5 c #3B3336",
"6 c #3B3437",
"7 c #3C3436",
"8 c #3C3437",
"9 c #373339",
"0 c #36323B",
"q c #393538",
"w c #393639",
"e c #3D3638",
"r c #3A373C",
"t c #3F383A",
"y c #3C393C",
"u c #3C3A3E",
"i c #3F3B3F",
"p c #393540",
"a c #3F3B47",
"s c #37354A",
"d c #38364B",
"f c #38364C",
"g c #39374C",
"h c #45425F",
"j c #7C4C47",
"k c #464360",
"l c #464361",
"z c #4C4865",
"x c #565370",
"c c #545179",
"v c #58557D",
"b c #58567D",
"n c #59567E",
"m c #59567F",
"M c #696972",
"N c #64617F",
"B c #8A4E49",
"V c #92524C",
"C c #94564F",
"Z c #975850",
"A c #9C5A51",
"S c #AB6C53",
"D c #AB6E52",
"F c #B87456",
"G c #BC7554",
"H c #BD7758",
"J c #8E707A",
"K c #AD7C68",
"L c #5B5980",
"P c #656280",
"I c #6B6788",
"U c #737090",
"Y c #777495",
"T c #777496",
"R c #7D7F99",
"E c #987881",
"W c #8B8FAA",
"Q c #8F96AB",
"! c #989EB3",
"~ c #96A0B1",
"^ c #97A1B4",
"/ c #AAABBD",
"( c #C79B8B",
") c #A8AFC1",
"_ c #AFB9D5",
"` c #ADB8D6",
"' c #AEBAD6",
"] c #B0BAD7",
"[ c #B2BCD8",
"{ c #B7C3D6",
"} c #BECDE2",
/* pixels */
"    iX2tu2Xi    ",
"  1q/tK))Ki/q1  ",
" #Ce!u!{{!u~eC# ",
" #j6QrY*=YqQ8j# ",
" X*0NpPaaPpP0*X ",
" Xgdsgszzsfsgg@ ",
" @shlllhllllhs. ",
" @xvvLvLvvLvvx@ ",
" ;WLvvvvvvvvLW; ",
" 6^vccccccccv^: ",
" q}[]]````[_[}q ",
" ;JMRME((EMRMJ; ",
" #B#I#VGGV#I#B# ",
" >SeY8AGHA8YeS> ",
" >D8U5ZFFZ5U8D> ",
"  1X9X833>X9X2  "
};
