/* XPM */
static char * CC_xpm[] = {
"16 16 27 1",
" 	c #499B49",
".	c #489A49",
"+	c #59A24B",
"@	c #62A64D",
"#	c #4D9D4A",
"$	c #479A49",
"%	c #99BD54",
"&	c #C7D05A",
"*	c #62A64C",
"=	c #439948",
"-	c #302C2E",
";	c #9ABF54",
">	c #DECA50",
",	c #F7CB4C",
"'	c #BBC754",
")	c #77B050",
"!	c #8585A7",
"~	c #BF7958",
"{	c #A2ADC1",
"]	c #FFC08B",
"^	c #D9E9FF",
"/	c #EEA160",
"(	c #C3C3D9",
"_	c #A05B53",
":	c #7F7CA1",
"<	c #7A444A",
"[	c #585374",
"      .+@#$     ",
"     .$%&*=     ",
"  ---+;>,')---  ",
" --!--------!-- ",
"-~-{-~~~~~~-{-~-",
"-]-^-]]]]]]-^-]-",
"-]-^-]]]]]]-^-]-",
"-/-(-//////-(-/-",
"-~-(-~~{{~~-(-~-",
"-_-{-_{^^{_-{-_-",
"-_-{-_:--:_-{-_-",
"---:--:--:--:---",
"-<-[-<<[[<<-[-<-",
"-_-:-__~~__-:-_-",
"-~-:-__~~__-:-~-",
" -------------- "};
