/* XPM */
static char * CO_xpm[] = {
"16 16 72 1",
" 	c #499B49",
".	c #3F3B3F",
"+	c #312D2F",
"@	c #3E3432",
"#	c #3F383A",
"$	c #3C3A3E",
"%	c #3F3233",
"&	c #393538",
"*	c #AAABBD",
"=	c #AD7C68",
"-	c #A8AFC1",
";	c #352E30",
">	c #94564F",
",	c #3D3638",
"'	c #989EB3",
")	c #B7C3D6",
"!	c #96A0B1",
"~	c #7C4C47",
"{	c #3B3437",
"]	c #8F96AB",
"^	c #3A373C",
"/	c #777495",
"(	c #312E36",
"_	c #343033",
":	c #3C3437",
"<	c #36323B",
"[	c #64617F",
"}	c #393540",
"|	c #656280",
"1	c #3F3B47",
"2	c #39374C",
"3	c #38364B",
"4	c #37354A",
"5	c #4C4865",
"6	c #38364C",
"7	c #322E32",
"8	c #45425F",
"9	c #464361",
"0	c #302C2E",
"a	c #565370",
"b	c #58557D",
"c	c #5B5980",
"d	c #363236",
"e	c #8B8FAA",
"f	c #97A1B4",
"g	c #545179",
"h	c #373437",
"i	c #BECDE2",
"j	c #B2BCD8",
"k	c #B0BAD7",
"l	c #ADB8D6",
"m	c #AFB9D5",
"n	c #8E707A",
"o	c #696972",
"p	c #7D7F99",
"q	c #987881",
"r	c #C79B8B",
"s	c #8A4E49",
"t	c #6B6788",
"u	c #92524C",
"v	c #BC7554",
"w	c #383030",
"x	c #AB6C53",
"y	c #9C5A51",
"z	c #BD7758",
"A	c #AB6E52",
"B	c #737090",
"C	c #3B3336",
"D	c #975850",
"E	c #B87456",
"F	c #373339",
"G	c #3F3432",
"    .+@#$@+.    ",
"  %&*#=--=.*&%  ",
" ;>,'$'))'$!,>; ",
" ;~{]^/(_/&]:~; ",
" +(<[}|11|}|<(+ ",
" +2342455464227 ",
" 74899989999840 ",
" 7abbcbcbbcbba7 ",
" decbbbbbbbbced ",
" {fbggggggggbfh ",
" &ijkklllljmji& ",
" dnopoqrrqopond ",
" ;s;t;uvvu;t;s; ",
" wx,/:yvzy:/,xw ",
" wA:BCDEEDCB:Aw ",
"  %+F+:GGw+F+@  "};
