/* XPM */
static char * P_xpm[] = {
"48 48 68 1",
" 	c #499B49",
".	c #14182E",
"+	c #3A3F5E",
"@	c #3C3131",
"#	c #261917",
"$	c #4B4244",
"%	c #FFC2A1",
"&	c #1E0E0B",
"*	c #2B1C19",
"=	c #564745",
"-	c #210F0A",
";	c #2B1A12",
">	c #331E14",
",	c #3F2C23",
"'	c #54433C",
")	c #432E23",
"!	c #28160F",
"~	c #362115",
"{	c #4E3424",
"]	c #593C26",
"^	c #5C4739",
"/	c #251511",
"(	c #3C261A",
"_	c #6C4C33",
":	c #5B3E2A",
"<	c #5D402C",
"[	c #644731",
"}	c #3E281D",
"|	c #2B2B45",
"1	c #24130E",
"2	c #472E1E",
"3	c #6D594D",
"4	c #BD6A62",
"5	c #523A2C",
"6	c #725E55",
"7	c #7E6A5E",
"8	c #493428",
"9	c #655854",
"0	c #281710",
"a	c #574845",
"b	c #554A4A",
"c	c #1F100C",
"d	c #35261F",
"e	c #453E42",
"f	c #362720",
"g	c #1E1214",
"h	c #1B161E",
"i	c #DFE0E8",
"j	c #52333F",
"k	c #8F4D57",
"l	c #191B2D",
"m	c #1A1621",
"n	c #1B1825",
"o	c #479648",
"p	c #171C31",
"q	c #16192C",
"r	c #21171B",
"s	c #4C6885",
"t	c #4FA4B8",
"u	c #489948",
"v	c #262634",
"w	c #32374C",
"x	c #3D4660",
"y	c #3F4A67",
"z	c #3B445C",
"A	c #1D2236",
"B	c #1F243A",
"C	c #20263D",
"               ..................               ",
"               ..................               ",
"               ..................               ",
"            ...++++++++++++++++++...            ",
"            ...++++++++++++++++++...            ",
"            ...++++++++++++++++++...            ",
"         ...++++++++++++++++++++++++...         ",
"         ...++++++++++++++++++++++++...         ",
"         ...++++++++++++++++++++++++...         ",
"         ...++++++++++++++++++++++++...         ",
"         ...++++++++++++++++++++++++...         ",
"        @...++++++++++++++++++++++++...@        ",
"       #$...+++%%%++++++++++++%%%+++...$#       ",
"      &*$...+++%%%++++++++++++%%%+++...=*-      ",
"     ;>,'...+++%%%++++++++++++%%%+++...')>;     ",
"    !~{]^...+++%%%%%%%%%%%%%%%%%%+++...']{~!    ",
"   &/(]_:...+++%%%%%%%%%%%%%%%%%%+++...<[<(!&   ",
"   &/}<_<...+++%%%%%%%%%%%%%%%%%%+++...<_<(/&   ",
"   &/}...%%%+++||||||%%%%%%||||||+++%%%...}/&   ",
"   &/(...%%%+++||||||%%%%%%||||||+++%%%...(/&   ",
"   &/}...%%%+++||||||%%%%%%||||||+++%%%...(/&   ",
"   &1}...%%%+++%%%...%%%%%%...%%%+++%%%...}/&   ",
"   &!(...%%%+++%%%...%%%%%%...%%%+++%%%...(!&   ",
"   &!~...%%%+++%%%...%%%%%%...%%%+++%%%...~/&   ",
"   &/>2<3...444%%%...444444...%%%444...3]2>1&   ",
"   &1;256...444%%%...444444...%%%444...752;1&   ",
"   &1!>89...444%%%...444444...%%%444...98~011   ",
"   11!>,a......444%%%%%%%%%%%%444......b,>111   ",
"   c1!;de......444%%%%%%%%%%%%444......$f;!1-   ",
"   c&!;de......444%%%%%%%%%%%%444......ef;11g   ",
"  hc1!...%%%iiijjjkkk444444kkkjjjiii%%%...11gh  ",
" lhg1!...%%%iiijjjkkk444444kkkjjjiii%%%...11/hl ",
" lmgc1...%%%iiijjjkkk444444kkkjjjiii%%%...11/ml ",
" lm...%%%444...jjjkkkiiiiiikkkjjj...444%%%...ml ",
" lm...%%%444...jjjkkkiiiiiikkkjjj...444%%%...ml ",
" lh...%%%444...jjjkkkiiiiiikkkjjj...444%%%...ml ",
" lh...%%%%%%...kkkkkkiiiiiikkkkkk...%%%%%%...hl ",
" lm...%%%%%%...kkkkkkiiiiiikkkkkk...%%%%%%...ml ",
" ln...%%%%%%...kkkkkkiiiiiikkkkkk...%%%%%%...nl ",
"opqnmr............sssttttttsss............ghmlpu",
"    qh............sssttttttsss............hq    ",
"    qm............sssttttttsss............mp    ",
"     qnnvwxy...444444......444444...yzwvnmq     ",
"      qlpABB...444444......444444...CCBpql      ",
"            ...444444......444444...            ",
"               ......      ......               ",
"               ......      ......               ",
"               ......      ......               "};
