/* XPM */
static char * N4_xpm[] = {
"48 48 171 2",
"  	c #499B49",
". 	c #1C192B",
"+ 	c #201D31",
"@ 	c #181424",
"# 	c #222136",
"$ 	c #2A283F",
"% 	c #302F47",
"& 	c #3D3B4E",
"* 	c #783648",
"= 	c #FB0509",
"- 	c #FF0000",
"; 	c #E2101D",
"> 	c #2B2B43",
", 	c #3A3C5A",
"' 	c #464866",
") 	c #525471",
"! 	c #5D5F79",
"~ 	c #67677F",
"{ 	c #6B6A81",
"] 	c #E8333F",
"^ 	c #E21B2C",
"/ 	c #4A4F74",
"( 	c #60658B",
"_ 	c #757A9C",
": 	c #8388A6",
"< 	c #8F93AD",
"[ 	c #9598B1",
"} 	c #CE7387",
"| 	c #E3263B",
"1 	c #333249",
"2 	c #1A1628",
"3 	c #23223A",
"4 	c #323047",
"5 	c #444665",
"6 	c #5B628B",
"7 	c #757CA2",
"8 	c #898EB1",
"9 	c #989DBB",
"0 	c #A3A7C2",
"a 	c #A5A9C3",
"b 	c #B9A0B9",
"c 	c #FD1F26",
"d 	c #E53245",
"e 	c #383955",
"f 	c #474969",
"g 	c #969BBA",
"h 	c #A9ABC6",
"i 	c #EF5665",
"j 	c #E73E51",
"k 	c #5D6182",
"l 	c #333553",
"m 	c #D37F94",
"n 	c #E9495C",
"o 	c #4D5072",
"p 	c #606487",
"q 	c #B59BB4",
"r 	c #FC1F26",
"s 	c #EB5062",
"t 	c #878CAF",
"u 	c #A6A8C2",
"v 	c #EE5361",
"w 	c #EC5565",
"x 	c #898EAF",
"y 	c #ED5766",
"z 	c #FA2B34",
"A 	c #FC252C",
"B 	c #A4A6C1",
"C 	c #CC879D",
"D 	c #F8343E",
"E 	c #ED5867",
"F 	c #9FA3C0",
"G 	c #5C5F80",
"H 	c #E95E6E",
"I 	c #FB2A32",
"J 	c #B09FB9",
"K 	c #7A81A8",
"L 	c #8C91B3",
"M 	c #CD869C",
"N 	c #A8ACC7",
"O 	c #5D6691",
"P 	c #E95D6E",
"Q 	c #656C96",
"R 	c #FD1D23",
"S 	c #B09EB8",
"T 	c #3C4164",
"U 	c #535A83",
"V 	c #6A719B",
"W 	c #9DA2BE",
"X 	c #4C547D",
"Y 	c #7980A4",
"Z 	c #D17B90",
"` 	c #EA5D6D",
" .	c #35395B",
"..	c #3B436A",
"+.	c #4D5680",
"@.	c #686F99",
"#.	c #A384A2",
"$.	c #FD1A21",
"%.	c #B2A0B9",
"&.	c #323759",
"*.	c #2F3352",
"=.	c #464E79",
"-.	c #4F5882",
";.	c #696E97",
">.	c #EA3E51",
",.	c #CD859B",
"'.	c #676E98",
").	c #BE4969",
"!.	c #EC5464",
"~.	c #697097",
"{.	c #3F4872",
"].	c #7D4870",
"^.	c #FC0913",
"/.	c #FB2930",
"(.	c #B19EB8",
"_.	c #686F97",
":.	c #414A74",
"<.	c #3E4771",
"[.	c #444872",
"}.	c #E62138",
"|.	c #CC8299",
"1.	c #E9495D",
"2.	c #393F64",
"3.	c #262741",
"4.	c #B83555",
"5.	c #E64D60",
"6.	c #F9353F",
"7.	c #E74155",
"8.	c #7A4269",
"9.	c #FC0812",
"0.	c #FA1823",
"a.	c #8F7599",
"b.	c #E5384F",
"c.	c #40436A",
"d.	c #E62037",
"e.	c #B54D6E",
"f.	c #787EA4",
"g.	c #F8333D",
"h.	c #E5334B",
"i.	c #96395B",
"j.	c #E02740",
"k.	c #F72C39",
"l.	c #E32A41",
"m.	c #9B385A",
"n.	c #FA0B18",
"o.	c #71466D",
"p.	c #F72533",
"q.	c #E3253D",
"r.	c #9C3B60",
"s.	c #1F1D32",
"t.	c #363D61",
"u.	c #2E314F",
"v.	c #992E4B",
"w.	c #972036",
"x.	c #971729",
"y.	c #961121",
"z.	c #2B2D4A",
"A.	c #272842",
"B.	c #F6202F",
"C.	c #E32239",
"D.	c #E3233B",
"E.	c #F62130",
"F.	c #E32139",
"G.	c #E21D32",
"H.	c #E21C30",
"I.	c #F61D2C",
"J.	c #E2192C",
"K.	c #F5121E",
"L.	c #E21323",
"M.	c #F50710",
"N.	c #E10A15",
"                                                                                                ",
"                          . . . . . . . . . . . . . + + . . . @ . . .                           ",
"                        # $ % % & & & & & * = - - - - - - - - - - - ; #                         ",
"                      . > , ' ) ! ~ ~ ~ { ] - - - - - - - - - - - - ^ > .                       ",
"                    @ # & / ( _ : < [ [ } - - - - - - - - - - - - - | 1 + 2                     ",
"                  + 3 4 5 6 7 8 9 0 a b c - - - - - - - - - - - - - d 5 4 3 +                   ",
"                + > e f ! _ 8 g 0 a h i - - - - - - - - - - - - - - j k f e > +                 ",
"              @ + l / ( _ 8 g 0 0 0 m - - - - - - - - - - - - - - - n _ ( o e + @               ",
"            + # % f p 7 8 9 0 a a q r - - - - - - - - - - - - - - - s t 7 ( 5 % # +             ",
"          + > l ' ! _ 8 9 9 a a u v - - - - - - - - - - - - - - - - w g 8 _ ! ' l > +           ",
"        @ 3 e o p _ x 9 0 0 0 a m - - - - - - - - - - - - - - - - - y 0 9 t _ ( ) l 3 @         ",
"      . # 4 f ( 7 x 9 0 a 0 0 q r - - - - - - z A - - - - - - - - - y a 0 g 8 7 ( f 4 # .       ",
"    # % & 5 k _ 8 9 0 0 a 0 B v - - - - - - - C D - - - - - - - - - E a a F g 8 _ G f l > 3     ",
"  . $ , o p _ 8 9 F 0 0 a 0 m - - - - - - - H 0 D - - - - - - - - - y a 0 0 F g < _ p ) , $ .   ",
"  . > 5 6 7 x 9 0 a 0 0 0 q r - - - - - - I J 0 D - - - - - - - - - y 0 0 0 0 0 g t _ 6 5 > .   ",
"  . > f ( K L F a a a 0 B v - - - - - - - M 0 0 D - - - - - - - - - y 0 0 a N a F g K ( ' > .   ",
"  . > ' O K L F a a a 0 m - - - - - - - P 0 0 0 D - - - - - - - - - y 0 0 a a a F L K Q f > .   ",
"  . > ' 6 7 L 9 0 a 0 q R - - - - - - I S 0 0 0 D - - - - - - - - - y 0 0 0 0 0 9 8 7 6 5 > .   ",
"  . $ T U V K L g W B v - - - - - - - M 0 0 0 0 D - - - - - - - - - E 0 a 0 W g L K V U T > 2   ",
"  2 3 , X 6 V Y t g Z - - - - - - - ` 0 a 0 0 0 D - - - - - - - - - E a a W [ t Y V 6 o  .3 2   ",
"  . 3 l ..+.6 @.7 #.$.- - - - - - I %.0 0 0 0 0 D - - - - - - - - - E 0 0 g x 7 @.6 +...&.# 2   ",
"  @ # *...=.-.6 ;.>.- - - - - - - ,.0 0 0 0 0 0 D - - - - - - - - - y W g L Y '.6 -.=...*.3 2   ",
"  2 # *...=.=.+.).- - - - - - - ` 0 0 0 0 0 0 0 D - - - - - - - - - !.g x 7 ~.6 -.X {...*.3 2   ",
"  2 # *...{.=.].^.- - - - - - /.(.0 0 0 0 0 0 a D - - - - - - - - - s x 7 _.6 X =.:.{.<.*.# 2   ",
"  2 3 *...{.[.}.- - - - - - - |.W 0 a a 0 0 0 0 D - - - - - - - - - 1.7 _.6 X =.{.:.:.2.*.3.2   ",
"  2 3 *...{.4.- - - - - - - 5.g W a a a a a a a 6.- - - - - - - - - 7.V 6 +.=.:.{.{.:...*.+ 2   ",
"  2 # *.<.8.9.- - - - - - 0.a.t g 0 a a a a 0 a 6.- - - - - - - - - b.U X =.:.:.:.=.:...*.+ 2   ",
"  2 3 *.c.d.- - - - - - - e._.f.< g W W W W W W g.- - - - - - - - - h.-.=.:.<.:.{.{.{.<.*.3.2   ",
"  2 3 *.i.- - - - - - - j.+.6 _.Y t L L L L L 8 k.- - - - - - - - - l.=.=.{.{.{.{.{.{.2.*.3 2   ",
"  2 3 *.m.- - - - - - n.o.=.X 6 _.7 f.Y f.f.f.f.p.- - - - - - - - - q.:.{.{.{.{.{.+.{.<.*.3 2   ",
"  2 3 *.r.- - - - - - - - - - - - - - - - - - - - - - - - - - - - - - - - - - - - {.{.<.*.3 2   ",
"  2 3 *.r.- - - - - - - - - - - - - - - - - - - - - - - - - - - - - - - - - - - - {.{.<.*.3 2   ",
"  2 s.&.m.- - - - - - - - - - - - - - - - - - - - - - - - - - - - - - - - - - - - =.{.2.t.3 2   ",
"  2 3 *.m.- - - - - - - - - - - - - - - - - - - - - - - - - - - - - - - - - - - - {.<.2.*.s.2   ",
"  2 s.u.v.- - - - - - - - - - - - - - - - - - - - - - - - - - - - - - - - - - - - 2.2.t.*.+ 2   ",
"    s.3 w.- - - - - - - - - - - - - - - - - - - - - - - - - - - - - - - - - - - - t.u.3.3.s.    ",
"      2 x.- - - - - - - - - - - - - - - - - - - - - - - - - - - - - - - - - - - - *.3 s.2       ",
"        y.- - - - - - - - - - - - - - - - - - - - - - - - - - - - - - - - - - - - z.s.@         ",
"          . 3 A.*. ...:.:.{.=.+.6 '.@.V @.@.@.@.B.- - - - - - - - - C.:.=.2.t.*.A.3 s.          ",
"            . s.3 *...{.{.{.:.+.6 '.V V @.@.@.@.B.- - - - - - - - - D.{.<.2.*.3 s..             ",
"              2 s.A.&.2...<.:.+.O '.@.V V V V V E.- - - - - - - - - F...T &.A.s.@               ",
"                2 3 z.*.t...:.-.O @.V V V V V V E.- - - - - - - - - G.t.*.z.3 .                 ",
"                  s.s.3 z.2.:.U ( @.V V V @.@.V E.- - - - - - - - - H.z.3 s.s.                  ",
"                    @ s.A.&...=.U ( ( ( Q O ( ( I.- - - - - - - - - J.3.s.@                     ",
"                      2 # z.&. .T ' ' ' ' ' ' ' K.- - - - - - - - - L.# 2                       ",
"                        s.+ # $ > > % > % % > % M.- - - - - - - - - N.s.                        ",
"                          2 2 2 2 . . . 2 . . . . . . . . . . 2 2 2 2                           ",
"                                                                                                "};
