/* XPM */
static char * N9_xpm[] = {
"48 48 279 2",
"  	c #499B49",
". 	c #1C192B",
"+ 	c #511829",
"@ 	c #A01322",
"# 	c #C70E1A",
"$ 	c #E00812",
"% 	c #EF040B",
"& 	c #F90204",
"* 	c #FD0101",
"= 	c #FC0102",
"- 	c #F70307",
"; 	c #ED060F",
"> 	c #DB0914",
", 	c #BE0F1C",
"' 	c #8D1424",
") 	c #2C1424",
"! 	c #222136",
"~ 	c #2A283F",
"{ 	c #302F47",
"] 	c #973242",
"^ 	c #DC1E2A",
"/ 	c #FE0203",
"( 	c #FF0000",
"_ 	c #F50911",
": 	c #C51F2F",
"< 	c #5E2940",
"[ 	c #2B2B43",
"} 	c #3A3C5A",
"| 	c #80425E",
"1 	c #E52838",
"2 	c #FB0911",
"3 	c #BB2B42",
"4 	c #352B43",
"5 	c #181424",
"6 	c #3D3B4E",
"7 	c #B13D5B",
"8 	c #FC0C14",
"9 	c #E41521",
"0 	c #551C2F",
"a 	c #1A1628",
"b 	c #201D31",
"c 	c #23223A",
"d 	c #323047",
"e 	c #C23047",
"f 	c #EF0D18",
"g 	c #622037",
"h 	c #383955",
"i 	c #B9364F",
"j 	c #EB1422",
"k 	c #522941",
"l 	c #333553",
"m 	c #934566",
"n 	c #FE050A",
"o 	c #D81F30",
"p 	c #524868",
"q 	c #EF2737",
"r 	c #A52539",
"s 	c #464866",
"t 	c #B44B60",
"u 	c #F5414D",
"v 	c #CF8399",
"w 	c #B49CB5",
"x 	c #A7A4BF",
"y 	c #A9A3BE",
"z 	c #B799B2",
"A 	c #D57D92",
"B 	c #F9313A",
"C 	c #F4141F",
"D 	c #4B3451",
"E 	c #4D5072",
"F 	c #606487",
"G 	c #EE3445",
"H 	c #EA5D6D",
"I 	c #A3A7C2",
"J 	c #AEA0BA",
"K 	c #F34855",
"L 	c #BA3F55",
"M 	c #474969",
"N 	c #60658B",
"O 	c #987295",
"P 	c #F9333D",
"Q 	c #ABA2BC",
"R 	c #A5A9C3",
"S 	c #B79AB3",
"T 	c #FE151A",
"U 	c #F22333",
"V 	c #4B4969",
"W 	c #444665",
"X 	c #5D6182",
"Y 	c #757A9C",
"Z 	c #C76E89",
"` 	c #D97A8D",
" .	c #E76374",
"..	c #9D526F",
"+.	c #898EB1",
"@.	c #E06377",
"#.	c #BE94AC",
"$.	c #CE859B",
"%.	c #D55067",
"&.	c #525471",
"*.	c #5B628B",
"=.	c #757CA2",
"-.	c #898EAF",
";.	c #989DBB",
">.	c #ED5564",
",.	c #AAA2BD",
"'.	c #BC95AE",
").	c #F43443",
"!.	c #7A81A8",
"~.	c #8C91B3",
"{.	c #9FA3C0",
"].	c #F44652",
"^.	c #FE0A0E",
"/.	c #B59BB4",
"(.	c #907AA0",
"_.	c #5D6691",
":.	c #F73D48",
"<.	c #B69BB4",
"[.	c #B26D8E",
"}.	c #656C96",
"|.	c #BE97AE",
"1.	c #C65C79",
"2.	c #3C4164",
"3.	c #535A83",
"4.	c #6A719B",
"5.	c #EE4959",
"6.	c #BD95AD",
"7.	c #D64763",
"8.	c #4C547D",
"9.	c #7980A4",
"0.	c #E0536A",
"a.	c #D8798D",
"b.	c #E66475",
"c.	c #E0344D",
"d.	c #35395B",
"e.	c #3B436A",
"f.	c #4D5680",
"g.	c #686F99",
"h.	c #F83640",
"i.	c #B79CB5",
"j.	c #E9253A",
"k.	c #323759",
"l.	c #2F3352",
"m.	c #464E79",
"n.	c #4F5882",
"o.	c #96638A",
"p.	c #E95F6F",
"q.	c #A7A5BF",
"r.	c #F24A57",
"s.	c #EF1C2F",
"t.	c #EF2C3E",
"u.	c #F4434F",
"v.	c #CE849A",
"w.	c #B39CB6",
"x.	c #A8A4BE",
"y.	c #B89BB4",
"z.	c #D47E93",
"A.	c #F21627",
"B.	c #3F4872",
"C.	c #B54D6E",
"D.	c #F41323",
"E.	c #3E4771",
"F.	c #414A74",
"G.	c #53537C",
"H.	c #ED283C",
"I.	c #F11729",
"J.	c #393F64",
"K.	c #262741",
"L.	c #894E74",
"M.	c #FC0C16",
"N.	c #ED1B2F",
"O.	c #A54568",
"P.	c #E62137",
"Q.	c #9D476B",
"R.	c #F81623",
"S.	c #FF0405",
"T.	c #FD0D15",
"U.	c #D92842",
"V.	c #795178",
"W.	c #E82D43",
"X.	c #F5313E",
"Y.	c #AB6F8E",
"Z.	c #F71D2C",
"`.	c #CA2F4C",
" +	c #A45376",
".+	c #E8344A",
"++	c #F72532",
"@+	c #CA5D78",
"#+	c #82799E",
"$+	c #7C6C92",
"%+	c #B03759",
"&+	c #8D668D",
"*+	c #BA587A",
"=+	c #DB435D",
"-+	c #EC3247",
";+	c #F42536",
">+	c #FC121C",
",+	c #F42535",
"'+	c #EA3349",
")+	c #D04B69",
"!+	c #AC5F82",
"~+	c #736F99",
"{+	c #686F97",
"]+	c #9B567A",
"^+	c #8C3F65",
"/+	c #676E98",
"(+	c #C94361",
"_+	c #FC0710",
":+	c #504770",
"<+	c #1F1D32",
"[+	c #EF2538",
"}+	c #E12740",
"|+	c #363D61",
"1+	c #AA5C81",
"2+	c #B53657",
"3+	c #2E314F",
"4+	c #6D6D97",
"5+	c #EC2E43",
"6+	c #FD0309",
"7+	c #633C60",
"8+	c #D14866",
"9+	c #D82742",
"0+	c #E3233B",
"a+	c #923E63",
"b+	c #6A6F98",
"c+	c #C94E6D",
"d+	c #84385A",
"e+	c #2B2D4A",
"f+	c #E42138",
"g+	c #A93B5E",
"h+	c #5F547D",
"i+	c #94658B",
"j+	c #E33A53",
"k+	c #D92239",
"l+	c #272842",
"m+	c #FA0E1A",
"n+	c #DB3852",
"o+	c #BE5374",
"p+	c #9C6288",
"q+	c #886B92",
"r+	c #736D96",
"s+	c #716D97",
"t+	c #846991",
"u+	c #9A6389",
"v+	c #C05374",
"w+	c #FA0711",
"x+	c #67304D",
"y+	c #A82841",
"z+	c #CB2239",
"A+	c #D41C30",
"B+	c #322D4A",
"C+	c #CC1B2F",
"D+	c #2F223A",
"E+	c #F90915",
"F+	c #AD2A45",
"G+	c #891222",
"H+	c #DE0D1A",
"I+	c #D61F35",
"J+	c #6A324E",
"K+	c #7E192C",
"L+	c #C91322",
"M+	c #F4070F",
"N+	c #F6060E",
"O+	c #CB1A2A",
"P+	c #76273D",
"Q+	c #251628",
"R+	c #851222",
"S+	c #B3101F",
"T+	c #D20B17",
"U+	c #E9060E",
"V+	c #F20308",
"W+	c #FE0001",
"X+	c #FA0103",
"Y+	c #F50307",
"Z+	c #E8060F",
"`+	c #D60B16",
" @	c #B8101E",
".@	c #861525",
"+@	c #2E192B",
"                                                                                                ",
"                          . . . . . + @ # $ % & * = - ; > , ' ) . . .                           ",
"                        ! ~ { { ] ^ / ( ( ( ( ( ( ( ( ( ( ( ( _ : < ~ !                         ",
"                      . [ } | 1 ( ( ( ( ( ( ( ( ( ( ( ( ( ( ( ( ( 2 3 4 .                       ",
"                    5 ! 6 7 8 ( ( ( ( ( ( ( ( ( ( ( ( ( ( ( ( ( ( ( ( 9 0 a                     ",
"                  b c d e ( ( ( ( ( ( ( ( ( ( ( ( ( ( ( ( ( ( ( ( ( ( ( f g b                   ",
"                b [ h i ( ( ( ( ( ( ( ( ( ( ( ( ( ( ( ( ( ( ( ( ( ( ( ( ( j k b                 ",
"              5 b l m n ( ( ( ( ( ( ( ( ( ( ( ( ( ( ( ( ( ( ( ( ( ( ( ( ( ( o b 5               ",
"            b ! { p q ( ( ( ( ( ( ( ( ( ( ( ( ( ( ( ( ( ( ( ( ( ( ( ( ( ( ( ( r ! b             ",
"          b [ l s t ( ( ( ( ( ( ( ( ( ( ( u v w x y z A B ( ( ( ( ( ( ( ( ( ( C D [ b           ",
"        5 c h E F G ( ( ( ( ( ( ( ( ( ( H x I I I I I I J K ( ( ( ( ( ( ( ( ( ( L l c 5         ",
"      . ! d M N O ( ( ( ( ( ( ( ( ( ( P Q I I I R I I I I S T ( ( ( ( ( ( ( ( ( U V d ! .       ",
"    ! { 6 W X Y Z ( ( ( ( ( ( ( ( ( ( ` I I I I I I I I I I  .( ( ( ( ( ( ( ( ( ( ..M l [ c     ",
"  . ~ } E F Y +.@.( ( ( ( ( ( ( ( ( ( #.I I I I I I I R I R $.( ( ( ( ( ( ( ( ( ( %.F &.} ~ .   ",
"  . [ W *.=.-.;.>.( ( ( ( ( ( ( ( ( ( ,.R I I I I I I I I I '.( ( ( ( ( ( ( ( ( ( ).Y *.W [ .   ",
"  . [ M N !.~.{.].( ( ( ( ( ( ( ( ( ^.I I I I I I I I I I I /.( ( ( ( ( ( ( ( ( ( ( (.N s [ .   ",
"  . [ s _.!.~.{.:.( ( ( ( ( ( ( ( ( ^.I I I I I I R I I I I <.( ( ( ( ( ( ( ( ( ( ( [.}.M [ .   ",
"  . [ s *.=.~.;.u ( ( ( ( ( ( ( ( ( ( ,.I I I I I I I R I I |.( ( ( ( ( ( ( ( ( ( ( 1.*.W [ .   ",
"  . ~ 2.3.4.!.~.5.( ( ( ( ( ( ( ( ( ( 6.I I I I I I I I I I $.( ( ( ( ( ( ( ( ( ( ( 7.3.2.[ a   ",
"  a c } 8.*.4.9.0.( ( ( ( ( ( ( ( ( ( a.R I I I I I I I I I b.( ( ( ( ( ( ( ( ( ( ( c.E d.c a   ",
"  . c l e.f.*.g.1.( ( ( ( ( ( ( ( ( ( h.,.I I I I I I I I i.T ( ( ( ( ( ( ( ( ( ( ( j.e.k.! a   ",
"  5 ! l.e.m.n.*.o.( ( ( ( ( ( ( ( ( ( ( p.q.I I I I I I J r.( ( ( ( ( ( ( ( ( ( ( ( s.e.l.c a   ",
"  a ! l.e.m.m.f.*.t.( ( ( ( ( ( ( ( ( ( ( u.v.w.q.x.y.z.P ( ( ( ( ( ( ( ( ( ( ( ( ( A.e.l.c a   ",
"  a ! l.e.B.m.m.8.C.( ( ( ( ( ( ( ( ( ( ( ( ( ( ( ( ( ( ( ( ( ( ( ( ( ( ( ( ( ( ( ( D.E.l.! a   ",
"  a c l.e.B.B.F.m.G.H.( ( ( ( ( ( ( ( ( ( ( ( ( ( ( ( ( ( ( ( ( ( ( ( ( ( ( ( ( ( ( I.J.l.K.a   ",
"  a c l.e.B.B.B.F.m.L.M.( ( ( ( ( ( ( ( ( ( ( ( ( ( ( ( ( ( ( ( ( ( ( ( ( ( ( ( ( ( N.e.l.b a   ",
"  a ! l.E.B.m.B.F.F.m.O.n ( ( ( ( ( ( ( ( ( ( ( ( ( ( ( ( ( ( ( ( ( ( ( ( ( ( ( ( ( P.e.l.b a   ",
"  a c l.e.B.m.B.F.B.B.m.Q.R.( ( ( ( ( ( ( ( ( ( ( ( ( ( ( ( ( S.T.( ( ( ( ( ( ( ( ( U.E.l.K.a   ",
"  a c l.e.B.B.B.B.E.B.F.m.V.W.( ( ( ( ( ( ( ( ( ( ( ( ( ( ( X.Y.Z.( ( ( ( ( ( ( ( ( `.J.l.c a   ",
"  a c l.e.B.B.m.F.E.B.F.F.m.8. +.+( ( ( ( ( ( ( ( ( ( ( ++@+#+$+( ( ( ( ( ( ( ( ( ( %+E.l.c a   ",
"  a c l.E.B.B.B.E.F.F.B.B.F.m.f.*.&+*+=+-+;+>+>+,+'+)+!+~+4.{+]+( ( ( ( ( ( ( ( ( ( ^+E.l.c a   ",
"  a c l.E.m.B.m.F.F.B.F.E.E.F.f.*.}./+4./+}./+/+/+/+/+/+g./+}.(+( ( ( ( ( ( ( ( ( _+:+E.l.c a   ",
"  a <+k.e.F.F.F.B.F.F.B.B.B.F.f.*.}./+/+/+/+/+/+/+/+/+g./+/+/+[+( ( ( ( ( ( ( ( ( }+B.J.|+c a   ",
"  a c l.e.E.F.B.F.B.B.F.B.B.m.f.*.}./+4./+4./+4.g.g.g.g.4.4.1+( ( ( ( ( ( ( ( ( ( 2+E.J.l.<+a   ",
"  a <+3+k.J.e.B.F.B.B.F.B.B.F.f.*.}.4.g./+4./+/+g.g.g.g.4.4+5+( ( ( ( ( ( ( ( ( 6+7+J.|+l.b a   ",
"    <+c K.3+|+e.F.m.F.B.B.B.F.f.*.}.g.4.4./+4./+g.g.g.g.4.8+( ( ( ( ( ( ( ( ( ( 9+|+3+K.K.<+    ",
"      a <+c l.J.F.F.B.0+a+B.m.f.*.}./+4.g.g.g.g.g.g.g.b+c+( ( ( ( ( ( ( ( ( ( ( d+l.c <+a       ",
"        a <+e+d.J.e.B.( ( f+g+h+*.}.4./+g.g.g.g.g.g.i+j+( ( ( ( ( ( ( ( ( ( ( k+k.e+<+5         ",
"          . c l+l.d.e.( ( ( ( m+n+o+p+q+r+s+t+u+v+j+( ( ( ( ( ( ( ( ( ( ( ( w+x+l+c <+          ",
"            . <+c l.e.( ( ( ( ( ( ( ( ( ( ( ( ( ( ( ( ( ( ( ( ( ( ( ( ( ( ( y+c <+.             ",
"              a <+l+k.( ( ( ( ( ( ( ( ( ( ( ( ( ( ( ( ( ( ( ( ( ( ( ( ( ( z+l+<+5               ",
"                a c e+( ( ( ( ( ( ( ( ( ( ( ( ( ( ( ( ( ( ( ( ( ( ( ( ( A+B+c .                 ",
"                  <+<+( ( ( ( ( ( ( ( ( ( ( ( ( ( ( ( ( ( ( ( ( ( ( ( C+D+<+<+                  ",
"                    5 ( ( ( ( ( ( ( ( ( ( ( ( ( ( ( ( ( ( ( ( ( ( E+F+K.<+5                     ",
"                      G+H+( ( ( ( ( ( ( ( ( ( ( ( ( ( ( ( ( ( / I+J+e+! a                       ",
"                        <+K+L+M+( ( ( ( ( ( ( ( ( ( ( ( ( N+O+P+K.c b <+                        ",
"                          a a Q+R+S+T+U+V+& W+X+Y+Z+`+ @.@+@. a a a a                           ",
"                                                                                                "};
