/* XPM */
static char * N2_xpm[] = {
"48 48 231 2",
"  	c #499B49",
". 	c #1C192B",
"+ 	c #3D182A",
"@ 	c #891525",
"# 	c #AC1120",
"$ 	c #C70E1A",
"% 	c #DD0913",
"& 	c #EB050D",
"* 	c #F20409",
"= 	c #F80205",
"- 	c #FD0101",
"; 	c #FA0204",
"> 	c #E00A16",
", 	c #C5111F",
"' 	c #A01322",
") 	c #681728",
"! 	c #181424",
"~ 	c #4B9B49",
"{ 	c #928940",
"] 	c #BE1525",
"^ 	c #E3101C",
"/ 	c #FC0205",
"( 	c #FF0000",
"_ 	c #E51923",
": 	c #AA2639",
"< 	c #4D2F45",
"[ 	c #2B2B43",
"} 	c #2A283F",
"| 	c #222136",
"1 	c #8D8B41",
"2 	c #C96A30",
"3 	c #F43414",
"4 	c #F61520",
"5 	c #A53B56",
"6 	c #3A3C5A",
"7 	c #7B9144",
"8 	c #DA2C43",
"9 	c #533147",
"0 	c #201D31",
"a 	c #1A1628",
"b 	c #EA1C2C",
"c 	c #562E45",
"d 	c #23223A",
"e 	c #E12436",
"f 	c #3D3955",
"g 	c #6C1221",
"h 	c #B83C57",
"i 	c #383955",
"j 	c #6E1E32",
"k 	c #F81825",
"l 	c #5C4463",
"m 	c #302F47",
"n 	c #72314D",
"o 	c #F9333C",
"p 	c #E16E7F",
"q 	c #C98AA0",
"r 	c #B69AB3",
"s 	c #A9A3BE",
"t 	c #A5A6C0",
"u 	c #AEA0BA",
"v 	c #C092AA",
"w 	c #DB7589",
"x 	c #FA2D35",
"y 	c #B64A5F",
"z 	c #464866",
"A 	c #333553",
"B 	c #7D4A6A",
"C 	c #EB5A69",
"D 	c #C58EA5",
"E 	c #A7A8C2",
"F 	c #A3A7C2",
"G 	c #AAA2BD",
"H 	c #E76374",
"I 	c #E34256",
"J 	c #60658B",
"K 	c #525471",
"L 	c #323047",
"M 	c #474969",
"N 	c #875E82",
"O 	c #BD97AF",
"P 	c #A5A9C3",
"Q 	c #E66576",
"R 	c #FB1E27",
"S 	c #767CA2",
"T 	c #3D3B4E",
"U 	c #444665",
"V 	c #5D6182",
"W 	c #947292",
"X 	c #F53A47",
"Y 	c #C68DA4",
"Z 	c #AAA3BD",
"` 	c #FA2F38",
" .	c #9B87A9",
"..	c #757A9C",
"+.	c #5C5F80",
"@.	c #4D5072",
"#.	c #606487",
"$.	c #A085A6",
"%.	c #DC697E",
"&.	c #A5A0BC",
"*.	c #DA788B",
"=.	c #B08DA9",
"-.	c #8F93AD",
";.	c #5B628B",
">.	c #757CA2",
",.	c #898EAF",
"'.	c #989DBB",
").	c #BC96AE",
"!.	c #969BBA",
"~.	c #878CAF",
"{.	c #7A81A8",
"].	c #8C91B3",
"^.	c #9FA3C0",
"/.	c #B49CB5",
"(.	c #B89CB4",
"_.	c #5D6691",
":.	c #B29DB7",
"<.	c #ADA4BD",
"[.	c #656C96",
"}.	c #C095AC",
"|.	c #F63E4A",
"1.	c #898EB1",
"2.	c #3C4164",
"3.	c #535A83",
"4.	c #6A719B",
"5.	c #9DA2BE",
"6.	c #D77B8F",
"7.	c #DF6A7D",
"8.	c #4C547D",
"9.	c #7980A4",
"0.	c #A4A6C1",
"a.	c #F5404C",
"b.	c #B7859B",
"c.	c #35395B",
"d.	c #3B436A",
"e.	c #4D5680",
"f.	c #686F99",
"g.	c #CF8399",
"h.	c #EE4A5A",
"i.	c #323759",
"j.	c #2F3352",
"k.	c #464E79",
"l.	c #4F5882",
"m.	c #676E98",
"n.	c #B39DB6",
"o.	c #FB2830",
"p.	c #B47E9C",
"q.	c #697097",
"r.	c #F34855",
"s.	c #DA5C73",
"t.	c #3F4872",
"u.	c #ACA4BE",
"v.	c #EF5260",
"w.	c #ED4253",
"x.	c #7E7A9F",
"y.	c #686F97",
"z.	c #414A74",
"A.	c #3E4771",
"B.	c #787EA4",
"C.	c #AF9FB9",
"D.	c #F14B59",
"E.	c #F5313F",
"F.	c #8C769A",
"G.	c #393F64",
"H.	c #262741",
"I.	c #B89BB4",
"J.	c #F73C46",
"K.	c #F82834",
"L.	c #9A7697",
"M.	c #C194AB",
"N.	c #FB2A32",
"O.	c #F92632",
"P.	c #9C7193",
"Q.	c #C7859D",
"R.	c #FD171D",
"S.	c #F82B34",
"T.	c #9D7396",
"U.	c #CC6C87",
"V.	c #FF0406",
"W.	c #F6303D",
"X.	c #997698",
"Y.	c #6C6E96",
"Z.	c #D4526C",
"`.	c #F13343",
" +	c #8F7599",
".+	c #5D547E",
"++	c #DD364F",
"@+	c #E7374E",
"#+	c #7E6D96",
"$+	c #65476F",
"%+	c #E8263C",
"&+	c #DB405B",
"*+	c #716D97",
"=+	c #1F1D32",
"-+	c #78436A",
";+	c #F0182B",
">+	c #CD4B69",
",+	c #696F99",
"'+	c #363D61",
")+	c #8B4065",
"!+	c #F6101E",
"~+	c #FE0408",
"{+	c #BD5576",
"]+	c #2E314F",
"^+	c #A03D61",
"/+	c #FB0812",
"(+	c #FC111B",
"_+	c #AB5D81",
":+	c #B3385A",
"<+	c #FE0204",
"[+	c #F71F2E",
"}+	c #9A6288",
"|+	c #434A74",
"1+	c #C63250",
"2+	c #F02A3D",
"3+	c #8B688F",
"4+	c #2B2D4A",
"5+	c #46385A",
"6+	c #D6233B",
"7+	c #E8354B",
"8+	c #7D6B93",
"9+	c #8D2239",
"0+	c #C32138",
"a+	c #272842",
"b+	c #8C182B",
"c+	c #C21526",
"d+	c #8B1222",
"e+	c #C21121",
"f+	c #95883F",
"g+	c #C20E1B",
"h+	c #C66D31",
"                                                                                                ",
"                          . + @ # $ % & * = - ; * & > , ' ) . ! . . .                           ",
"                    ~ { ] ^ / ( ( ( ( ( ( ( ( ( ( ( ( ( ( ( _ : < [ } |                         ",
"                1 2 3 ( ( ( ( ( ( ( ( ( ( ( ( ( ( ( ( ( ( ( ( ( 4 5 6 [ .                       ",
"              7 ( ( ( ( ( ( ( ( ( ( ( ( ( ( ( ( ( ( ( ( ( ( ( ( ( ( 8 9 0 a                     ",
"              7 ( ( ( ( ( ( ( ( ( ( ( ( ( ( ( ( ( ( ( ( ( ( ( ( ( ( ( b c d 0                   ",
"              7 ( ( ( ( ( ( ( ( ( ( ( ( ( ( ( ( ( ( ( ( ( ( ( ( ( ( ( ( e f [ 0                 ",
"              g ( ( ( ( ( ( ( ( ( ( ( ( ( ( ( ( ( ( ( ( ( ( ( ( ( ( ( ( ( h i 0 !               ",
"            0 j ( ( ( ( ( ( ( ( ( ( ( ( ( ( ( ( ( ( ( ( ( ( ( ( ( ( ( ( ( k l m | 0             ",
"          0 [ n ( ( ( ( ( ( ( o p q r s t u v w x ( ( ( ( ( ( ( ( ( ( ( ( ( y z A [ 0           ",
"        ! d i B ( ( ( ( ( C D E F F F F F F F F G H ( ( ( ( ( ( ( ( ( ( ( ( I J K A d !         ",
"      . | L M N ( ( ( C O F F F F F F F F F F F P F Q ( ( ( ( ( ( ( ( ( ( ( R S J M L | .       ",
"    | m T U V W ( X Y F P F F F F F F P F F F F F F Z ` ( ( ( ( ( ( ( ( ( ( (  ...+.M A [ d     ",
"  . } 6 @.#...$.%.&.F F P F F F F F F F F F F F F F F *.( ( ( ( ( ( ( ( ( ( ( =.-...#.K 6 } .   ",
"  . [ U ;.>.,.'.F P F F F F F F F F F F P F F F F F F v ( ( ( ( ( ( ( ( ( ( ( ).!.~...;.U [ .   ",
"  . [ M J {.].^.P P P F F F F F F F F F F F F F F F F /.( ( ( ( ( ( ( ( ( ( ( (.^.!.{.J z [ .   ",
"  . [ z _.{.].^.P P P F F F F F F F P F F F F F F P F :.( ( ( ( ( ( ( ( ( ( ( <.^.].{.[.M [ .   ",
"  . [ z ;.>.].'.F P F F F F F F F F F F F F F F F F F }.( ( ( ( ( ( ( ( ( ( |.F '.1.>.;.U [ .   ",
"  . } 2.3.4.{.].!.5.F F P P F P F F F F F F F F F F F 6.( ( ( ( ( ( ( ( ( ( 7.!.].{.4.3.2.[ a   ",
"  a d 6 8.;.4.9.~.!.5.F P P F F P F F F P F F F F F 0.a.( ( ( ( ( ( ( ( ( ( b.~.9.4.;.@.c.d a   ",
"  . d A d.e.;.f.>.,.!.F P P F F F F P F F F F F F F g.( ( ( ( ( ( ( ( ( ( h.,.>.f.;.e.d.i.| a   ",
"  ! | j.d.k.l.;.m.9.-.!.5.5.F P P F F F F F F F F n.o.( ( ( ( ( ( ( ( ( ( p.9.m.;.l.k.d.j.d a   ",
"  a | j.d.k.k.e.;.q.>.~.!.5.P P P F F F F F F F G r.( ( ( ( ( ( ( ( ( ( s.>.q.;.l.8.t.d.j.d a   ",
"  a | j.d.t.k.k.8.;.f.>.~.!.F P F F F F F F F u.v.( ( ( ( ( ( ( ( ( ( w.x.y.;.8.k.z.t.A.j.| a   ",
"  a d j.d.t.t.z.k.8.;.m.B.].!.^.5.F P P F F C.D.( ( ( ( ( ( ( ( ( ( E.F.y.;.8.k.t.z.z.G.j.H.a   ",
"  a d j.d.t.t.t.z.k.e.;.q.>.,.!.5.P P P P I.J.( ( ( ( ( ( ( ( ( ( K.L.4.;.e.k.z.t.t.z.d.j.0 a   ",
"  a | j.A.t.k.t.z.z.k.8.;.q.>.~.!.F P P M.N.( ( ( ( ( ( ( ( ( ( O.P.f.3.8.k.z.z.z.k.z.d.j.0 a   ",
"  a d j.d.t.k.t.z.t.t.k.8.;.y.B.-.!.5.Q.R.( ( ( ( ( ( ( ( ( ( S.T.m._.l.k.z.A.z.t.t.t.A.j.H.a   ",
"  a d j.d.t.t.t.t.A.t.z.k.e.;.y.9.~.U.V.( ( ( ( ( ( ( ( ( ( W.X.f._.e.k.k.t.t.t.t.t.t.G.j.d a   ",
"  a d j.d.t.t.k.z.A.t.z.z.k.8.;.Y.Z.( ( ( ( ( ( ( ( ( ( ( `. +q.3.e.k.z.t.t.t.t.t.e.t.A.j.d a   ",
"  a d j.A.t.t.t.A.z.z.t.t.z.k..+++( ( ( ( ( ( ( ( ( ( ( @+#+y.;.l.k.t.t.t.t.t.t.t.t.t.A.j.d a   ",
"  a d j.A.k.t.k.z.z.t.z.A.A.$+%+( ( ( ( ( ( ( ( ( ( ( &+*+m.[.;.e.k.t.t.t.t.t.k.t.t.t.A.j.d a   ",
"  a =+i.d.z.z.z.t.z.z.t.t.-+;+( ( ( ( ( ( ( ( ( ( ( >+,+m.m.m.;.e.z.A.t.t.t.t.t.t.k.t.G.'+d a   ",
"  a d j.d.A.z.t.z.t.t.z.)+!+( ( ( ( ( ( ( ( ( ( ~+{+f.f.4.4.m.3.e.k.t.t.t.k.t.k.t.t.A.G.j.=+a   ",
"  a =+]+i.G.d.t.z.t.t.^+/+( ( ( ( ( ( ( ( ( ( (+_+f.f.f.4.m.[.;.e.z.t.t.t.t.t.t.t.G.G.'+j.0 a   ",
"    =+d H.]+'+d.z.k.:+<+( ( ( ( ( ( ( ( ( ( [+}+f.f.f.f.4.m.[.;.e.k.t.t.t.t.k.k.A.'+]+H.H.=+    ",
"      a =+d j.G.|+1+( ( ( ( ( ( ( ( ( ( ( 2+3+f.f.f.f.f.f.f.[.;.e.z.t.t.z.z.k.t.G.j.d =+a       ",
"        a =+4+5+6+( ( ( ( ( ( ( ( ( ( ( 7+8+f.f.f.f.f.f.f.4.m.;.e.z.t.t.t.t.G.G.i.4+=+!         ",
"          . d 9+( ( ( ( ( ( ( ( ( ( ( ( ( ( ( ( ( ( ( ( ( ( ( ( ( ( ( ( ( ( ( 0+a+d =+          ",
"            . b+( ( ( ( ( ( ( ( ( ( ( ( ( ( ( ( ( ( ( ( ( ( ( ( ( ( ( ( ( ( ( c+=+.             ",
"              d+( ( ( ( ( ( ( ( ( ( ( ( ( ( ( ( ( ( ( ( ( ( ( ( ( ( ( ( ( ( ( e+!               ",
"              f+( ( ( ( ( ( ( ( ( ( ( ( ( ( ( ( ( ( ( ( ( ( ( ( ( ( ( ( ( ( ( g+                ",
"              f+( ( ( ( ( ( ( ( ( ( ( ( ( ( ( ( ( ( ( ( ( ( ( ( ( ( ( ( ( ( ( h+                ",
"              f+( ( ( ( ( ( ( ( ( ( ( ( ( ( ( ( ( ( ( ( ( ( ( ( ( ( ( ( ( ( ( h+                ",
"              f+( ( ( ( ( ( ( ( ( ( ( ( ( ( ( ( ( ( ( ( ( ( ( ( ( ( ( ( ( ( ( h+                ",
"              f+( ( ( ( ( ( ( ( ( ( ( ( ( ( ( ( ( ( ( ( ( ( ( ( ( ( ( ( ( ( ( h+                ",
"                          a a a a . . . a . . . . . . . . . . a a a a                           ",
"                                                                                                "};
