/* XPM */
static char * N5_xpm[] = {
"48 48 239 2",
"  	c #499B49",
". 	c #1C192B",
"+ 	c #201D31",
"@ 	c #181424",
"# 	c #D5602B",
"$ 	c #FF0000",
"% 	c #B07B39",
"& 	c #D20813",
"* 	c #D31121",
"= 	c #AA1525",
"- 	c #2B2B43",
"; 	c #D42032",
"> 	c #AB2034",
", 	c #333553",
"' 	c #D52F47",
") 	c #AD2C42",
"! 	c #222136",
"~ 	c #302F47",
"{ 	c #474969",
"] 	c #D83C53",
"^ 	c #AF364F",
"/ 	c #464866",
"( 	c #5D5F79",
"_ 	c #DB4B61",
": 	c #B44B60",
"< 	c #23223A",
"[ 	c #383955",
"} 	c #4D5072",
"| 	c #606487",
"1 	c #757A9C",
"2 	c #DE586D",
"3 	c #CB889F",
"4 	c #A3A7C2",
"5 	c #989DBB",
"6 	c #878CAF",
"7 	c #60658B",
"8 	c #525471",
"9 	c #323047",
"0 	c #757CA2",
"a 	c #898EAF",
"b 	c #E16175",
"c 	c #A5A9C3",
"d 	c #969BBA",
"e 	c #898EB1",
"f 	c #3D3B4E",
"g 	c #444665",
"h 	c #5D6182",
"i 	c #E46879",
"j 	c #CC8A9F",
"k 	c #9FA3C0",
"l 	c #5C5F80",
"m 	c #2A283F",
"n 	c #3A3C5A",
"o 	c #8F93AD",
"p 	c #5B628B",
"q 	c #7A81A8",
"r 	c #8C91B3",
"s 	c #E4697A",
"t 	c #A8ACC7",
"u 	c #5D6691",
"v 	c #656C96",
"w 	c #DC7387",
"x 	c #D67C90",
"y 	c #E95F70",
"z 	c #F34753",
"A 	c #F9333D",
"B 	c #FE151A",
"C 	c #FB2830",
"D 	c #F63D48",
"E 	c #F14D5A",
"F 	c #EA5C6C",
"G 	c #D8788D",
"H 	c #C491A8",
"I 	c #ACA2BC",
"J 	c #3C4164",
"K 	c #535A83",
"L 	c #6A719B",
"M 	c #9DA2BE",
"N 	c #FE0A0E",
"O 	c #E86071",
"P 	c #C191A9",
"Q 	c #1A1628",
"R 	c #4C547D",
"S 	c #7980A4",
"T 	c #E26577",
"U 	c #F24C59",
"V 	c #BB99B1",
"W 	c #9598B1",
"X 	c #35395B",
"Y 	c #3B436A",
"Z 	c #4D5680",
"` 	c #686F99",
" .	c #E16074",
"..	c #FD181E",
"+.	c #D47E93",
"@.	c #979AB9",
"#.	c #323759",
"$.	c #2F3352",
"%.	c #464E79",
"&.	c #4F5882",
"*.	c #676E98",
"=.	c #DF5B6C",
"-.	c #DE5B71",
";.	c #7B80A3",
">.	c #697097",
",.	c #DB4C65",
"'.	c #CC4D69",
").	c #3F4872",
"!.	c #D9435F",
"~.	c #9B486C",
"{.	c #414A74",
"].	c #3E4771",
"^.	c #D73B56",
"/.	c #EF1B2E",
"(.	c #464871",
"_.	c #393F64",
":.	c #262741",
"<.	c #D6334E",
"[.	c #FC2028",
"}.	c #E75D6E",
"|.	c #D77D90",
"1.	c #C492A8",
"2.	c #B69DB6",
"3.	c #ADA4BD",
"4.	c #A7A8C2",
"5.	c #B69DB5",
"6.	c #CA8BA1",
"7.	c #E26D7E",
"8.	c #FC252C",
"9.	c #A53A5D",
"0.	c #D52E4A",
"a.	c #FD0912",
"b.	c #DA435C",
"c.	c #B16888",
"d.	c #8E8AAC",
"e.	c #ABA2BC",
"f.	c #E16D7F",
"g.	c #DE263F",
"h.	c #C82F4E",
"i.	c #C13757",
"j.	c #6F5077",
"k.	c #686F97",
"l.	c #787EA4",
"m.	c #D17B91",
"n.	c #FD040B",
"o.	c #514770",
"p.	c #E2556A",
"q.	c #8F3F64",
"r.	c #9D7596",
"s.	c #B04366",
"t.	c #F42434",
"u.	c #BF3352",
"v.	c #E7344B",
"w.	c #C6304F",
"x.	c #1F1D32",
"y.	c #E8354C",
"z.	c #C73454",
"A.	c #363D61",
"B.	c #F42334",
"C.	c #BE3353",
"D.	c #2E314F",
"E.	c #94648A",
"F.	c #AA3150",
"G.	c #A43C60",
"H.	c #CA3352",
"I.	c #69466F",
"J.	c #DE3E58",
"K.	c #873657",
"L.	c #AB3A5D",
"M.	c #FB0812",
"N.	c #C8314F",
"O.	c #6D446C",
"P.	c #C25273",
"Q.	c #FA0812",
"R.	c #3B3351",
"S.	c #2B2D4A",
"T.	c #FE0204",
"U.	c #DF243D",
"V.	c #A53C5F",
"W.	c #59557E",
"X.	c #7B6B94",
"Y.	c #D64662",
"Z.	c #D31F35",
"`.	c #272842",
" +	c #A92741",
".+	c #FA0D18",
"++	c #E3324A",
"@+	c #C64F6F",
"#+	c #A46084",
"$+	c #91688F",
"%+	c #7D6B93",
"&+	c #6D6E98",
"*+	c #786C95",
"=+	c #8C678E",
"-+	c #B05B7E",
";+	c #FB141F",
">+	c #88223A",
",+	c #A7192D",
"'+	c #DC0E1D",
")+	c #A71527",
"!+	c #F9040A",
"~+	c #651B2F",
"{+	c #A6101E",
"]+	c #FD0104",
"^+	c #931C31",
"/+	c #AD7D39",
"(+	c #FC0204",
"_+	c #9A1729",
":+	c #E80D1A",
"<+	c #7A1A2D",
"[+	c #549948",
"}+	c #A3823C",
"|+	c #DB5A27",
"1+	c #FD0101",
"2+	c #F9060F",
"3+	c #B91F36",
"4+	c #322136",
"5+	c #679646",
"6+	c #A91526",
"7+	c #D40E1A",
"8+	c #F5050B",
"9+	c #E5101D",
"0+	c #A91D33",
"a+	c #432139",
"b+	c #741324",
"c+	c #A3101F",
"d+	c #BF0F1C",
"e+	c #D50B16",
"f+	c #E7060F",
"g+	c #F00409",
"h+	c #F60307",
"i+	c #FB0103",
"j+	c #F70206",
"k+	c #F0040B",
"l+	c #E8060F",
"m+	c #DC0914",
"n+	c #BE0F1C",
"o+	c #971423",
"p+	c #5B1729",
"                                                                                                ",
"                          . . . . . . . . . . . . . + + . . . @ . . .                           ",
"                    # $ $ $ $ $ $ $ $ $ $ $ $ $ $ $ $ $ $ $ $ $ $ $ $ $ $ $ %                   ",
"                    # $ $ $ $ $ $ $ $ $ $ $ $ $ $ $ $ $ $ $ $ $ $ $ $ $ $ $ %                   ",
"                    & $ $ $ $ $ $ $ $ $ $ $ $ $ $ $ $ $ $ $ $ $ $ $ $ $ $ $ %                   ",
"                  + * $ $ $ $ $ $ $ $ $ $ $ $ $ $ $ $ $ $ $ $ $ $ $ $ $ $ $ =                   ",
"                + - ; $ $ $ $ $ $ $ $ $ $ $ $ $ $ $ $ $ $ $ $ $ $ $ $ $ $ $ > +                 ",
"              @ + , ' $ $ $ $ $ $ $ $ $ $ $ $ $ $ $ $ $ $ $ $ $ $ $ $ $ $ $ ) + @               ",
"            + ! ~ { ] $ $ $ $ $ $ $ $ $ $ $ $ $ $ $ $ $ $ $ $ $ $ $ $ $ $ $ ^ ~ ! +             ",
"          + - , / ( _ $ $ $ $ $ $ $ $ $ $ $ $ $ $ $ $ $ $ $ $ $ $ $ $ $ $ $ : / , - +           ",
"        @ < [ } | 1 2 $ $ $ $ $ $ $ $ 3 4 4 4 4 4 4 4 4 4 4 4 4 4 4 4 4 5 6 1 7 8 , < @         ",
"      . ! 9 { 7 0 a b $ $ $ $ $ $ $ $ 3 4 4 4 4 c 4 4 4 4 4 4 4 4 4 4 c 4 d e 0 7 { 9 ! .       ",
"    ! ~ f g h 1 e 5 i $ $ $ $ $ $ $ $ j 4 4 4 4 4 4 4 4 4 4 4 4 4 4 c c c k d e 1 l { , - <     ",
"  . m n } | 1 e 5 k i $ $ $ $ $ $ $ $ 3 4 4 4 4 4 4 4 c 4 c 4 4 4 4 4 c 4 4 k d o 1 | 8 n m .   ",
"  . - g p 0 a 5 4 c i $ $ $ $ $ $ $ $ 3 c 4 4 4 4 4 4 4 4 4 4 4 4 4 4 4 4 4 4 4 d 6 1 p g - .   ",
"  . - { 7 q r k c c s $ $ $ $ $ $ $ $ 3 4 4 4 4 4 4 4 4 4 4 4 4 4 4 4 4 4 c t c k d q 7 / - .   ",
"  . - / u q r k c c s $ $ $ $ $ $ $ $ 3 4 4 4 4 4 c 4 4 4 4 4 4 4 4 4 4 4 c c c k r q v { - .   ",
"  . - / p 0 r 5 4 c i $ $ $ $ $ $ $ $ w x y z A B C D E F G H I 4 4 4 4 4 4 4 4 5 e 0 p g - .   ",
"  . m J K L q r d M i $ $ $ $ $ $ $ $ $ $ $ $ $ $ $ $ $ $ $ $ N O P c 4 c 4 M d r q L K J - Q   ",
"  Q < n R p L S 6 d T $ $ $ $ $ $ $ $ $ $ $ $ $ $ $ $ $ $ $ $ $ $ $ U V c M W 6 S L p } X < Q   ",
"  . < , Y Z p ` 0 a  .$ $ $ $ $ $ $ $ $ $ $ $ $ $ $ $ $ $ $ $ $ $ $ $ ..+.@.a 0 ` p Z Y #.! Q   ",
"  @ ! $.Y %.&.p *.S =.$ $ $ $ $ $ $ $ $ $ $ $ $ $ $ $ $ $ $ $ $ $ $ $ $ $ -.;.*.p &.%.Y $.< Q   ",
"  Q ! $.Y %.%.Z p >.,.$ $ $ $ $ $ $ $ $ $ $ $ $ $ $ $ $ $ $ $ $ $ $ $ $ $ $ '.p &.R ).Y $.< Q   ",
"  Q ! $.Y ).%.%.R p !.$ $ $ $ $ $ $ $ $ $ $ $ $ $ $ $ $ $ $ $ $ $ $ $ $ $ $ $ ~.%.{.).].$.! Q   ",
"  Q < $.Y ).).{.%.R ^.$ $ $ $ $ $ $ $ $ $ $ $ $ $ $ $ $ $ $ $ $ $ $ $ $ $ $ $ /.(.{.{._.$.:.Q   ",
"  Q < $.Y ).).).{.%.<.$ $ $ $ [.}.|.1.2.3.4.3.5.6.7.8.$ $ $ $ $ $ $ $ $ $ $ $ $ 9.).{.Y $.+ Q   ",
"  Q ! $.].).%.).{.{.0.$ a.b.c.d.d 4 c c c c 4 c c 4 e.f.$ $ $ $ $ $ $ $ $ $ $ $ g.%.{.Y $.+ Q   ",
"  Q < $.Y ).%.).{.).h.i.j.p k.l.o d M M M M M M M M M M m.$ $ $ $ $ $ $ $ $ $ $ n.o.).].$.:.Q   ",
"  Q < $.Y ).).).).].).{.%.Z p k.S 6 r r r r r e r r r r r p.$ $ $ $ $ $ $ $ $ $ $ q.)._.$.< Q   ",
"  Q < $.Y ).).%.{.].).{.{.%.R p k.0 l.S l.l.l.l.0 l.l.l.S r.$ $ $ $ $ $ $ $ $ $ $ s.).].$.< Q   ",
"  Q < $.].).).).].{.{.).).{.%.Z p *.L L L L L L L L L L L L t.$ $ $ $ $ $ $ $ $ $ u.).].$.< Q   ",
"  Q < $.].%.).%.{.{.).{.].].{.Z p v *.L *.v *.*.*.*.*.*.` *.v.$ $ $ $ $ $ $ $ $ $ w.).].$.< Q   ",
"  Q x.#.Y {.{.{.).{.{.).).).{.Z p v *.*.*.*.*.*.*.*.*.` *.*.y.$ $ $ $ $ $ $ $ $ $ z.)._.A.< Q   ",
"  Q < $.Y ].{.).{.).).{.).).%.Z p v *.L *.L *.L ` ` ` ` L L B.$ $ $ $ $ $ $ $ $ $ C.]._.$.x.Q   ",
"  Q x.D.#._.Y ).{.).).{.).).{.Z p v L ` *.L *.*.` ` ` ` L E.$ $ $ $ $ $ $ $ $ $ $ F._.A.$.+ Q   ",
"    x.< :.D.A.Y G.H.I.).).).{.Z p v ` L L *.L *.` ` ` ` L J.$ $ $ $ $ $ $ $ $ $ $ K.D.:.:.x.    ",
"      Q x.< $._.L.$ M.N.O.).%.Z p v *.L ` ` ` ` ` ` ` ` P.$ $ $ $ $ $ $ $ $ $ $ Q.R.< x.Q       ",
"        Q x.S.X F.$ $ $ T.U.V.W.p v L *.` ` ` ` ` ` X.Y.$ $ $ $ $ $ $ $ $ $ $ $ Z.S.x.@         ",
"          . < `. +$ $ $ $ $ $ .+++@+#+$+%+&+*+=+-+Y.;+$ $ $ $ $ $ $ $ $ $ $ $ $ >+< x.          ",
"            . x.,+$ $ $ $ $ $ $ $ $ $ $ $ $ $ $ $ $ $ $ $ $ $ $ $ $ $ $ $ $ $ '+x..             ",
"              Q )+$ $ $ $ $ $ $ $ $ $ $ $ $ $ $ $ $ $ $ $ $ $ $ $ $ $ $ $ $ !+~+@               ",
"                {+$ $ $ $ $ $ $ $ $ $ $ $ $ $ $ $ $ $ $ $ $ $ $ $ $ $ $ $ ]+^+.                 ",
"                /+$ $ $ $ $ $ $ $ $ $ $ $ $ $ $ $ $ $ $ $ $ $ $ $ $ $ $ (+_+x.                  ",
"                /+$ $ $ $ $ $ $ $ $ $ $ $ $ $ $ $ $ $ $ $ $ $ $ $ $ $ :+<+@                     ",
"                [+}+|+1+$ $ $ $ $ $ $ $ $ $ $ $ $ $ $ $ $ $ $ $ $ 2+3+4+Q                       ",
"                      5+6+7+8+$ $ $ $ $ $ $ $ $ $ $ $ $ $ $ $ 9+0+a++ x.                        ",
"                          Q Q b+c+d+e+f+g+h+i+1+j+k+l+m+n+o+p+Q Q Q Q                           ",
"                                                                                                "};
