/* XPM */
static char * N8_xpm[] = {
"48 48 307 2",
"  	c #499B49",
". 	c #1C192B",
"+ 	c #761627",
"@ 	c #A91220",
"# 	c #C60E1B",
"$ 	c #DD0914",
"% 	c #EC050D",
"& 	c #F20409",
"* 	c #F70205",
"= 	c #FD0101",
"- 	c #FC0102",
"; 	c #F60306",
"> 	c #F1050D",
", 	c #EA0711",
"' 	c #D70A16",
") 	c #BF0F1C",
"! 	c #A21322",
"~ 	c #5C1322",
"{ 	c #222136",
"] 	c #69253B",
"^ 	c #C41E30",
"/ 	c #EF0D18",
"( 	c #FF0000",
"_ 	c #FF0001",
": 	c #E51320",
"< 	c #B31F32",
"[ 	c #48273E",
"} 	c #511829",
"| 	c #C71A2B",
"1 	c #FC0408",
"2 	c #F50E19",
"3 	c #AE2033",
"4 	c #26192B",
"5 	c #7A1120",
"6 	c #F2060D",
"7 	c #DF0B16",
"8 	c #4A1527",
"9 	c #731A2D",
"0 	c #F80409",
"a 	c #E60B18",
"b 	c #3C1C30",
"c 	c #341D30",
"d 	c #EC0D18",
"e 	c #C91A2B",
"f 	c #201D31",
"g 	c #181424",
"h 	c #AD1424",
"i 	c #FE0204",
"j 	c #6F1A2D",
"k 	c #EA101C",
"l 	c #C31F30",
"m 	c #2B2B43",
"n 	c #63324F",
"o 	c #E95D6E",
"p 	c #C68CA3",
"q 	c #B09FB9",
"r 	c #A6A5C0",
"s 	c #A8A4BF",
"t 	c #B59BB4",
"u 	c #CF849A",
"v 	c #F44551",
"w 	c #EA1D2C",
"x 	c #333553",
"y 	c #23223A",
"z 	c #383955",
"A 	c #9A4562",
"B 	c #D18196",
"C 	c #A3A7C2",
"D 	c #E95F70",
"E 	c #FC0C14",
"F 	c #555471",
"G 	c #323047",
"H 	c #474969",
"I 	c #AE5272",
"J 	c #EB5A6A",
"K 	c #A5A9C3",
"L 	c #ADA1BB",
"M 	c #FC2128",
"N 	c #726287",
"O 	c #302F47",
"P 	c #3D3B4E",
"Q 	c #444665",
"R 	c #5D6182",
"S 	c #B56481",
"T 	c #CF8399",
"U 	c #EA5C6C",
"V 	c #837798",
"W 	c #5C5F80",
"X 	c #2A283F",
"Y 	c #3A3C5A",
"Z 	c #4D5072",
"` 	c #606487",
" .	c #757A9C",
"..	c #B37B99",
"+.	c #E36B7C",
"@.	c #FE1015",
"#.	c #9093AD",
"$.	c #525471",
"%.	c #5B628B",
"&.	c #757CA2",
"*.	c #898EAF",
"=.	c #A596B3",
"-.	c #EA5C6B",
";.	c #F14D5B",
">.	c #969BBA",
",.	c #878CAF",
"'.	c #60658B",
").	c #7A81A8",
"!.	c #8C91B3",
"~.	c #9FA3C0",
"{.	c #F34A56",
"].	c #FC1F26",
"^.	c #DB778A",
"/.	c #464866",
"(.	c #5D6691",
"_.	c #D0869A",
":.	c #A7A5BF",
"<.	c #FE1217",
"[.	c #B39FB8",
"}.	c #656C96",
"|.	c #989DBB",
"1.	c #A5A6C1",
"2.	c #F14F5C",
"3.	c #E95E6E",
"4.	c #C68DA4",
"5.	c #AF9FB9",
"6.	c #A5A6C0",
"7.	c #B49CB5",
"8.	c #D8788D",
"9.	c #898EB1",
"0.	c #3C4164",
"a.	c #535A83",
"b.	c #6A719B",
"c.	c #AF97B2",
"d.	c #F73944",
"e.	c #E86071",
"f.	c #9FA1BD",
"g.	c #1A1628",
"h.	c #4C547D",
"i.	c #7980A4",
"j.	c #AE98B2",
"k.	c #F14E5B",
"l.	c #E16F81",
"m.	c #A0A0BC",
"n.	c #9598B1",
"o.	c #35395B",
"p.	c #3B436A",
"q.	c #4D5680",
"r.	c #686F99",
"s.	c #D57F93",
"t.	c #FA3039",
"u.	c #F14D5A",
"v.	c #C38FA7",
"w.	c #323759",
"x.	c #2F3352",
"y.	c #464E79",
"z.	c #4F5882",
"A.	c #676E98",
"B.	c #8F93AD",
"C.	c #9DA2BE",
"D.	c #A39FBA",
"E.	c #CC879D",
"F.	c #E86272",
"G.	c #C192AA",
"H.	c #697097",
"I.	c #9B99B7",
"J.	c #CE7E94",
"K.	c #FE161B",
"L.	c #E86070",
"M.	c #BF8CA4",
"N.	c #3F4872",
"O.	c #B56686",
"P.	c #F62E3C",
"Q.	c #EA485A",
"R.	c #977296",
"S.	c #686F97",
"T.	c #414A74",
"U.	c #3E4771",
"V.	c #53537C",
"W.	c #D33E5A",
"X.	c #FB141F",
"Y.	c #AC5072",
"Z.	c #393F64",
"`.	c #262741",
" +	c #434A74",
".+	c #D52E4A",
"++	c #FE0408",
"@+	c #A54064",
"#+	c #B53859",
"$+	c #FF0507",
"%+	c #E96171",
"&+	c #C88EA4",
"*+	c #B09EB8",
"=+	c #A8A7C1",
"-+	c #ABA5BF",
";+	c #CE859B",
">+	c #F24B58",
",+	c #FB0812",
"'+	c #77456C",
")+	c #67456D",
"!+	c #FA0B16",
"~+	c #FD1C22",
"{+	c #C289A1",
"]+	c #9EA1BD",
"^+	c #DA7084",
"/+	c #DF263E",
"(+	c #BD3353",
"_+	c #C4738E",
":+	c #E35469",
"<+	c #7C4269",
"[+	c #ED1D32",
"}+	c #F22E3F",
"|+	c #7A7EA3",
"1+	c #787EA4",
"2+	c #9B7597",
"3+	c #C23251",
"4+	c #5D466F",
"5+	c #FF0102",
"6+	c #CF4A67",
"7+	c #F22737",
"8+	c #E1233B",
"9+	c #8C3F65",
"0+	c #B85577",
"a+	c #E13A53",
"b+	c #F51221",
"c+	c #1F1D32",
"d+	c #9C3E62",
"e+	c #AF587B",
"f+	c #DB415C",
"g+	c #FC050D",
"h+	c #363D61",
"i+	c #A33C60",
"j+	c #B75577",
"k+	c #E13C55",
"l+	c #484771",
"m+	c #2E314F",
"n+	c #9A385A",
"o+	c #CE4967",
"p+	c #F22537",
"q+	c #843657",
"r+	c #F0293C",
"s+	c #696F99",
"t+	c #91658C",
"u+	c #F21526",
"v+	c #533150",
"w+	c #B5587A",
"x+	c #DD405A",
"y+	c #E01E33",
"z+	c #2B2D4A",
"A+	c #EB1424",
"B+	c #FC121C",
"C+	c #A85D81",
"D+	c #6A6F98",
"E+	c #CD4C6A",
"F+	c #C0253E",
"G+	c #C01A2D",
"H+	c #FF0204",
"I+	c #DE3F59",
"J+	c #AC5D80",
"K+	c #846991",
"L+	c #6F6E97",
"M+	c #736D96",
"N+	c #8C678E",
"O+	c #B7587A",
"P+	c #EC3045",
"Q+	c #81233B",
"R+	c #6A1B2E",
"S+	c #FD0102",
"T+	c #E90A16",
"U+	c #CD0F1E",
"V+	c #961729",
"W+	c #4C1527",
"X+	c #F2060F",
"Y+	c #D11221",
"Z+	c #771A2D",
"`+	c #F70308",
" @	c #E20A15",
".@	c #3C1C31",
"+@	c #711221",
"@@	c #ED060F",
"#@	c #D60D1A",
"$@	c #3B1323",
"%@	c #3F1527",
"&@	c #C31423",
"*@	c #FC0307",
"=@	c #F30915",
"-@	c #A5192A",
";@	c #5E1B2E",
">@	c #BD1525",
",@	c #EE0A15",
"'@	c #FE0101",
")@	c #E40F1D",
"!@	c #A9192D",
"~@	c #6F1424",
"{@	c #A81221",
"]@	c #C90D1A",
"^@	c #DE0913",
"/@	c #ED040B",
"(@	c #F70206",
"_@	c #FE0001",
":@	c #FB0103",
"<@	c #F40307",
"[@	c #EA060E",
"}@	c #DA0A15",
"|@	c #C30E1B",
"1@	c #9D1322",
"2@	c #571526",
"                                                                                                ",
"                          . . . + @ # $ % & * = - ; > , ' ) ! ~ . . .                           ",
"                        { ] ^ / ( ( ( ( ( ( ( ( ( ( ( ( ( ( ( _ : < [ {                         ",
"                      } | 1 ( ( ( ( ( ( ( ( ( ( ( ( ( ( ( ( ( ( ( ( 2 3 4                       ",
"                    5 6 ( ( ( ( ( ( ( ( ( ( ( ( ( ( ( ( ( ( ( ( ( ( ( ( 7 8                     ",
"                  9 0 ( ( ( ( ( ( ( ( ( ( ( ( ( ( ( ( ( ( ( ( ( ( ( ( ( ( a b                   ",
"                c d ( ( ( ( ( ( ( ( ( ( ( ( ( ( ( ( ( ( ( ( ( ( ( ( ( ( ( ( e f                 ",
"              g h ( ( ( ( ( ( ( ( ( ( ( ( ( ( ( ( ( ( ( ( ( ( ( ( ( ( ( ( ( i j g               ",
"            f { k ( ( ( ( ( ( ( ( ( ( ( ( ( ( ( ( ( ( ( ( ( ( ( ( ( ( ( ( ( ( l { f             ",
"          f m n ( ( ( ( ( ( ( ( ( ( ( ( o p q r s t u v ( ( ( ( ( ( ( ( ( ( ( w x m f           ",
"        g y z A ( ( ( ( ( ( ( ( ( ( ( B C C C C C C C r D ( ( ( ( ( ( ( ( ( ( E F x y g         ",
"      . { G H I ( ( ( ( ( ( ( ( ( ( J C C C C C K C C C L M ( ( ( ( ( ( ( ( ( ( N H G { .       ",
"    { O P Q R S ( ( ( ( ( ( ( ( ( ( T K C C C C C C C C C U ( ( ( ( ( ( ( ( ( ( V W H x m y     ",
"  . X Y Z `  ...( ( ( ( ( ( ( ( ( ( p C C C C C C C C K C +.( ( ( ( ( ( ( ( ( @.#. .` $.Y X .   ",
"  . m Q %.&.*.=.( ( ( ( ( ( ( ( ( ( T C K C C C C C C C C -.( ( ( ( ( ( ( ( ( ;.>.,. .%.Q m .   ",
"  . m H '.).!.~.{.( ( ( ( ( ( ( ( ( J C C C C C C C C C L ].( ( ( ( ( ( ( ( ( ^.~.>.).'./.m .   ",
"  . m /.(.).!.~._.( ( ( ( ( ( ( ( ( ( B C C C C C K C :.o ( ( ( ( ( ( ( ( ( <.[.~.!.).}.H m .   ",
"  . m /.%.&.!.|.1.2.( ( ( ( ( ( ( ( ( ( 3.4.5.6.:.7.u v ( ( ( ( ( ( ( ( ( ( 8.C |.9.&.%.Q m .   ",
"  . X 0.a.b.).!.>.c.d.( ( ( ( ( ( ( ( ( ( ( ( ( ( ( ( ( ( ( ( ( ( ( ( ( ( e.f.>.!.).b.a.0.m g.  ",
"  g.y Y h.%.b.i.,.>.j.k.( ( ( ( ( ( ( ( ( ( ( ( ( ( ( ( ( ( ( ( ( ( ( ( l.m.n.,.i.b.%.Z o.y g.  ",
"  . y x p.q.%.r.&.*.>.6.s.t.( ( ( ( ( ( ( ( ( ( ( ( ( ( ( ( ( ( ( ( u.v.C >.*.&.r.%.q.p.w.{ g.  ",
"  g { x.p.y.z.%.A.i.B.>.C.D.E.v ( ( ( ( ( ( ( ( ( ( ( ( ( ( ( ( F.G.C C.>.!.i.A.%.z.y.p.x.y g.  ",
"  g.{ x.p.y.y.q.%.H.&.,.I.J.k.( ( ( ( ( ( ( ( ( ( ( ( ( ( ( ( ( K.L.M.>.*.&.H.%.z.h.N.p.x.y g.  ",
"  g.{ x.p.N.y.y.h.%.r.O.P.( ( ( ( ( ( ( ( ( ( ( ( ( ( ( ( ( ( ( ( ( ( Q.R.S.%.h.y.T.N.U.x.{ g.  ",
"  g.y x.p.N.N.T.y.V.W.( ( ( ( ( ( ( ( ( ( ( ( ( ( ( ( ( ( ( ( ( ( ( ( ( X.Y.h.y.N.T.T.Z.x.`.g.  ",
"  g.y x.p.N.N.N. +.+( ( ( ( ( ( ( ( ( ( ( ( ( ( ( ( ( ( ( ( ( ( ( ( ( ( ( ++@+T.N.N.T.p.x.f g.  ",
"  g.{ x.U.N.y.N.#+( ( ( ( ( ( ( ( ( ( $+%+&+*+=+-+t ;+>+( ( ( ( ( ( ( ( ( ( ,+'+T.y.T.p.x.f g.  ",
"  g.y x.p.N.y.)+!+( ( ( ( ( ( ( ( ( ~+{+C.C.C.C.C.C.C.]+^+( ( ( ( ( ( ( ( ( ( /+N.N.N.U.x.`.g.  ",
"  g.y x.p.N.N.(+( ( ( ( ( ( ( ( ( ( _+!.!.!.!.9.!.!.!.!.!.:+( ( ( ( ( ( ( ( ( ( <+N.N.Z.x.y g.  ",
"  g.y x.p.N.N.[+( ( ( ( ( ( ( ( ( }+|+i.1+1+1+1+&.1+1+1+i.2+( ( ( ( ( ( ( ( ( ( 3+q.N.U.x.y g.  ",
"  g.y x.U.N.4+5+( ( ( ( ( ( ( ( ( 6+b.b.b.b.b.b.b.b.b.b.b.b.7+( ( ( ( ( ( ( ( ( 8+N.N.U.x.y g.  ",
"  g.y x.U.y.9+( ( ( ( ( ( ( ( ( ( 0+A.b.A.}.A.A.A.A.A.A.r.A.a+( ( ( ( ( ( ( ( ( b+N.N.U.x.y g.  ",
"  g.c+w.p.T.d+( ( ( ( ( ( ( ( ( ( e+A.A.A.A.A.A.A.A.A.r.A.A.f+( ( ( ( ( ( ( ( ( g+y.N.Z.h+y g.  ",
"  g.y x.p.U.i+( ( ( ( ( ( ( ( ( ( j+A.b.A.b.A.b.r.r.r.r.b.b.k+( ( ( ( ( ( ( ( ( ( l+U.Z.x.c+g.  ",
"  g.c+m+w.Z.n+( ( ( ( ( ( ( ( ( ( o+b.r.A.b.A.A.r.r.r.r.b.A.p+( ( ( ( ( ( ( ( ( g+Z.Z.h+x.f g.  ",
"    c+y `.m+q+( ( ( ( ( ( ( ( ( ( r+s+b.b.A.b.A.r.r.r.r.b.t+( ( ( ( ( ( ( ( ( ( u+h+m+`.`.c+    ",
"      g.c+y v+5+( ( ( ( ( ( ( ( ( ( w+b.r.r.r.r.r.r.r.r.r.x+( ( ( ( ( ( ( ( ( ( y+x.y c+g.      ",
"        g.c+z+A+( ( ( ( ( ( ( ( ( ( B+C+r.r.r.r.r.r.r.D+E+( ( ( ( ( ( ( ( ( ( ( F+z+c+g         ",
"          . y G+( ( ( ( ( ( ( ( ( ( ( H+I+J+K+L+M+N+O+P+( ( ( ( ( ( ( ( ( ( ( ( Q+y c+          ",
"            . R+S+( ( ( ( ( ( ( ( ( ( ( ( ( ( ( ( ( ( ( ( ( ( ( ( ( ( ( ( ( ( T+c+.             ",
"              g.U+( ( ( ( ( ( ( ( ( ( ( ( ( ( ( ( ( ( ( ( ( ( ( ( ( ( ( ( ( ( V+g               ",
"                W+X+( ( ( ( ( ( ( ( ( ( ( ( ( ( ( ( ( ( ( ( ( ( ( ( ( ( ( ( Y+.                 ",
"                  Z+`+( ( ( ( ( ( ( ( ( ( ( ( ( ( ( ( ( ( ( ( ( ( ( ( ( (  @.@                  ",
"                    +@@@( ( ( ( ( ( ( ( ( ( ( ( ( ( ( ( ( ( ( ( ( ( ( ( #@$@                    ",
"                      %@&@*@( ( ( ( ( ( ( ( ( ( ( ( ( ( ( ( ( ( ( ( =@-@g.                      ",
"                        c+;@>@,@( ( ( ( ( ( ( ( ( ( ( ( ( ( ( '@)@!@b c+                        ",
"                          g.g.g.~@{@]@^@/@(@- _@_@:@<@[@}@|@1@2@g.g.g.                          ",
"                                                                                                "};
