/* XPM */
static char * N0_xpm[] = {
"48 48 291 2",
"  	c #499B49",
". 	c #1C192B",
"+ 	c #3D182A",
"@ 	c #951423",
"# 	c #C30E1B",
"$ 	c #DD0913",
"% 	c #EF040B",
"& 	c #F80205",
"* 	c #FD0101",
"= 	c #FC0102",
"- 	c #F70206",
"; 	c #EB0710",
"> 	c #D90C19",
", 	c #BA101D",
"' 	c #851525",
") 	c #21192B",
"! 	c #181424",
"~ 	c #222136",
"{ 	c #2A283F",
"] 	c #302F47",
"^ 	c #6F2B42",
"/ 	c #CE2431",
"( 	c #F9080D",
"_ 	c #FF0000",
": 	c #F21018",
"< 	c #BD2233",
"[ 	c #542E45",
"} 	c #2B2B43",
"| 	c #4C3B59",
"1 	c #C92F45",
"2 	c #FD060B",
"3 	c #F8121C",
"4 	c #AF3953",
"5 	c #3A3C5A",
"6 	c #753749",
"7 	c #ED1D2F",
"8 	c #DA2C43",
"9 	c #4B3148",
"0 	c #201D31",
"a 	c #1A1628",
"b 	c #23223A",
"c 	c #7D2B40",
"d 	c #F6101B",
"e 	c #E71E2F",
"f 	c #522F45",
"g 	c #6C3650",
"h 	c #F41420",
"i 	c #E12436",
"j 	c #443854",
"k 	c #3C3553",
"l 	c #E72337",
"m 	c #C8364E",
"n 	c #383955",
"o 	c #BE344C",
"p 	c #FE0307",
"q 	c #903D59",
"r 	c #333553",
"s 	c #6C4561",
"t 	c #FB0F16",
"u 	c #FB2A32",
"v 	c #DA778A",
"w 	c #B899B1",
"x 	c #A9A3BE",
"y 	c #ADA1BB",
"z 	c #BE94AC",
"A 	c #E26A7C",
"B 	c #FE0E13",
"C 	c #E92A38",
"D 	c #484866",
"E 	c #4D5072",
"F 	c #CF425B",
"G 	c #F73B46",
"H 	c #B69AB3",
"I 	c #A3A7C2",
"J 	c #C68DA4",
"K 	c #FD1A20",
"L 	c #A95474",
"M 	c #525471",
"N 	c #323047",
"O 	c #474969",
"P 	c #716287",
"Q 	c #FA1A25",
"R 	c #FF0507",
"S 	c #A5A9C3",
"T 	c #D67C90",
"U 	c #E64055",
"V 	c #60658B",
"W 	c #3D3B4E",
"X 	c #444665",
"Y 	c #5D6182",
"Z 	c #BC607C",
"` 	c #E56576",
" .	c #A6A5C0",
"..	c #F73A45",
"+.	c #947292",
"@.	c #5C5F80",
"#.	c #606487",
"$.	c #757A9C",
"%.	c #E64E62",
"&.	c #C290A8",
"*.	c #DB788B",
"=.	c #CD6E82",
"-.	c #5B628B",
";.	c #757CA2",
">.	c #8F8CAC",
",.	c #FD161C",
"'.	c #FD1D23",
").	c #BF93AB",
"!.	c #EB4F60",
"~.	c #878CAF",
"{.	c #7A81A8",
"].	c #B27F9D",
"^.	c #EE5462",
"/.	c #A8A4BF",
"(.	c #FE0A0E",
"_.	c #FD1C23",
":.	c #9A99B8",
"<.	c #464866",
"[.	c #5D6691",
"}.	c #CD6C86",
"|.	c #E16D7F",
"1.	c #F5414D",
"2.	c #AE82A0",
"3.	c #656C96",
"4.	c #DE5A71",
"5.	c #D57C91",
"6.	c #EB5B6A",
"7.	c #C1728F",
"8.	c #3C4164",
"9.	c #535A83",
"0.	c #6A719B",
"a.	c #EA3D52",
"b.	c #CB879E",
"c.	c #CF5A76",
"d.	c #4C547D",
"e.	c #F52333",
"f.	c #C48FA6",
"g.	c #DC7387",
"h.	c #D94560",
"i.	c #35395B",
"j.	c #3B436A",
"k.	c #4D5680",
"l.	c #FD0810",
"m.	c #D77B8F",
"n.	c #E2334B",
"o.	c #323759",
"p.	c #2F3352",
"q.	c #5E4C76",
"r.	c #BA97B0",
"s.	c #D37F94",
"t.	c #E9263C",
"u.	c #464E79",
"v.	c #694B74",
"w.	c #B79AB3",
"x.	c #D18197",
"y.	c #ED2134",
"z.	c #3F4872",
"A.	c #6F446C",
"B.	c #B69BB4",
"C.	c #CF8399",
"D.	c #EF192B",
"E.	c #3E4771",
"F.	c #D08398",
"G.	c #F0182B",
"H.	c #414A74",
"I.	c #393F64",
"J.	c #262741",
"K.	c #66456D",
"L.	c #B99BB3",
"M.	c #ED1B2E",
"N.	c #5A466F",
"O.	c #D47E93",
"P.	c #E92136",
"Q.	c #414872",
"R.	c #FD050C",
"S.	c #B789A4",
"T.	c #9DA2BE",
"U.	c #D36F81",
"V.	c #E0243C",
"W.	c #F41323",
"X.	c #B77795",
"Y.	c #8C91B3",
"Z.	c #898EB1",
"`.	c #D66178",
" +	c #D42A45",
".+	c #E71F35",
"++	c #BA6382",
"@+	c #787EA4",
"#+	c #7980A4",
"$+	c #DA4C65",
"%+	c #C73B59",
"&+	c #D32A46",
"*+	c #C55070",
"=+	c #E5394F",
"-+	c #AC385B",
";+	c #BC3454",
">+	c #D6435F",
",+	c #676E98",
"'+	c #686F99",
")+	c #F32435",
"!+	c #8A4066",
"~+	c #1F1D32",
"{+	c #944065",
"]+	c #EA3147",
"^+	c #776B94",
"/+	c #FF0204",
"(+	c #FC060F",
"_+	c #534D77",
":+	c #363D61",
"<+	c #554972",
"[+	c #FD040B",
"}+	c #FD0C14",
"|+	c #706C96",
"1+	c #A56186",
"2+	c #E42138",
"3+	c #2E314F",
"4+	c #DF243D",
"5+	c #A86085",
"6+	c #CE4A68",
"7+	c #BA3454",
"8+	c #AF3353",
"9+	c #DD405A",
"0+	c #736F99",
"a+	c #F61F2F",
"b+	c #784269",
"c+	c #563D61",
"d+	c #FA0B16",
"e+	c #A26388",
"f+	c #C94F6E",
"g+	c #E32239",
"h+	c #2B2D4A",
"i+	c #CA2842",
"j+	c #F42333",
"k+	c #91668D",
"l+	c #AF5B7F",
"m+	c #FD0A12",
"n+	c #A03453",
"o+	c #272842",
"p+	c #63304E",
"q+	c #FA060E",
"r+	c #FA1724",
"s+	c #CA4E6C",
"t+	c #93658C",
"u+	c #756D96",
"v+	c #7C6B94",
"w+	c #9D6288",
"x+	c #D84460",
"y+	c #FE0408",
"z+	c #E8182B",
"A+	c #323352",
"B+	c #BB233B",
"C+	c #FE0103",
"D+	c #8B2C48",
"E+	c #352841",
"F+	c #E61628",
"G+	c #C5243C",
"H+	c #672A46",
"I+	c #F40B16",
"J+	c #E01729",
"K+	c #3B2D49",
"L+	c #7B1E34",
"M+	c #F60711",
"N+	c #E61120",
"O+	c #4D2138",
"P+	c #6F253D",
"Q+	c #ED1222",
"R+	c #D91D32",
"S+	c #442640",
"T+	c #442C49",
"U+	c #C8233B",
"V+	c #FD0205",
"W+	c #F70A15",
"X+	c #AD2840",
"Y+	c #6E253A",
"Z+	c #CD1929",
"`+	c #F9040A",
" @	c #F20913",
".@	c #BD1D2F",
"+@	c #4E263F",
"@@	c #3F182A",
"#@	c #961423",
"$@	c #C40E1B",
"%@	c #DE0711",
"&@	c #F0040A",
"*@	c #F90204",
"=@	c #F70205",
"-@	c #EC050D",
";@	c #DA0A15",
">@	c #BB0F1D",
",@	c #861525",
"'@	c #26192B",
"                                                                                                ",
"                          . . . . + @ # $ % & * = - ; > , ' ) ! . . .                           ",
"                        ~ { ] ^ / ( _ _ _ _ _ _ _ _ _ _ _ _ : < [ } { ~                         ",
"                      . } | 1 2 _ _ _ _ _ _ _ _ _ _ _ _ _ _ _ _ 3 4 5 } .                       ",
"                    ! ~ 6 7 _ _ _ _ _ _ _ _ _ _ _ _ _ _ _ _ _ _ _ _ 8 9 0 a                     ",
"                  0 b c d _ _ _ _ _ _ _ _ _ _ _ _ _ _ _ _ _ _ _ _ _ _ e f b 0                   ",
"                0 } g h _ _ _ _ _ _ _ _ _ _ _ _ _ _ _ _ _ _ _ _ _ _ _ _ i j } 0                 ",
"              ! 0 k l _ _ _ _ _ _ _ _ _ _ _ _ _ _ _ _ _ _ _ _ _ _ _ _ _ _ m n 0 !               ",
"            0 ~ ] o _ _ _ _ _ _ _ _ _ _ _ _ _ _ _ _ _ _ _ _ _ _ _ _ _ _ _ p q ] ~ 0             ",
"          0 } r s t _ _ _ _ _ _ _ _ _ _ u v w x y z A B _ _ _ _ _ _ _ _ _ _ C D r } 0           ",
"        ! b n E F _ _ _ _ _ _ _ _ _ _ G H I I I I I I J K _ _ _ _ _ _ _ _ _ _ L M r b !         ",
"      . ~ N O P Q _ _ _ _ _ _ _ _ _ R z I I I I S I I I T _ _ _ _ _ _ _ _ _ _ U V O N ~ .       ",
"    ~ ] W X Y Z _ _ _ _ _ _ _ _ _ _ ` S I I I I I I I I  ..._ _ _ _ _ _ _ _ _ _ +.@.O r } b     ",
"  . { 5 E #.$.%._ _ _ _ _ _ _ _ _ _ &.I I I I I I I I S I *._ _ _ _ _ _ _ _ _ _ =.$.#.M 5 { .   ",
"  . } X -.;.>.,._ _ _ _ _ _ _ _ _ '. .I S I I I I I I I I )._ _ _ _ _ _ _ _ _ _ !.~.$.-.X } .   ",
"  . } O V {.]._ _ _ _ _ _ _ _ _ _ ^.I I I I I I I I I I I /.(._ _ _ _ _ _ _ _ _ _.:.{.V <.} .   ",
"  . } <.[.{.}._ _ _ _ _ _ _ _ _ _ |.S I I I I I I S I I I I 1._ _ _ _ _ _ _ _ _ _ 2.{.3.O } .   ",
"  . } <.-.;.4._ _ _ _ _ _ _ _ _ _ 5.I I I I I I I I I S I I 6._ _ _ _ _ _ _ _ _ _ 7.;.-.X } .   ",
"  . { 8.9.0.a._ _ _ _ _ _ _ _ _ _ b.I I I I I I I I I I I I A _ _ _ _ _ _ _ _ _ _ c.0.9.8.} a   ",
"  a b 5 d.-.e._ _ _ _ _ _ _ _ _ _ f.I I S I I I I I I I I I g._ _ _ _ _ _ _ _ _ _ h.-.E i.b a   ",
"  . b r j.k.l._ _ _ _ _ _ _ _ _ _ z S I I I I I I I I I I S m._ _ _ _ _ _ _ _ _ _ n.k.j.o.~ a   ",
"  ! ~ p.j.q._ _ _ _ _ _ _ _ _ _ _ r.I I I I I I I I I I I I s._ _ _ _ _ _ _ _ _ _ t.u.j.p.b a   ",
"  a ~ p.j.v._ _ _ _ _ _ _ _ _ _ _ w.I I I I I I I I S I I I x._ _ _ _ _ _ _ _ _ _ y.z.j.p.b a   ",
"  a ~ p.j.A._ _ _ _ _ _ _ _ _ _ _ B.I I I I I S I S I I I I C._ _ _ _ _ _ _ _ _ _ D.z.E.p.~ a   ",
"  a b p.j.A._ _ _ _ _ _ _ _ _ _ _ H S S I I I I I I I I I S F._ _ _ _ _ _ _ _ _ _ G.H.I.p.J.a   ",
"  a b p.j.K._ _ _ _ _ _ _ _ _ _ _ L.S S S S S S S S I S S S x._ _ _ _ _ _ _ _ _ _ M.H.j.p.0 a   ",
"  a ~ p.E.N._ _ _ _ _ _ _ _ _ _ _ r.S S S S I S S I I I S S O._ _ _ _ _ _ _ _ _ _ P.H.j.p.0 a   ",
"  a b p.j.Q.R._ _ _ _ _ _ _ _ _ _ S.T.T.T.T.T.T.T.T.T.T.T.T.U._ _ _ _ _ _ _ _ _ _ V.z.E.p.J.a   ",
"  a b p.j.z.W._ _ _ _ _ _ _ _ _ _ X.Y.Y.Y.Y.Y.Z.Y.Y.Y.Y.Y.Y.`._ _ _ _ _ _ _ _ _ _  +z.I.p.b a   ",
"  a b p.j.z..+_ _ _ _ _ _ _ _ _ _ ++@+#+@+@+@+@+;.@+@+@+#+#+$+_ _ _ _ _ _ _ _ _ _ %+z.E.p.b a   ",
"  a b p.E.z.&+_ _ _ _ _ _ _ _ _ _ *+0.0.0.0.0.0.0.0.0.0.0.0.=+_ _ _ _ _ _ _ _ _ _ -+z.E.p.b a   ",
"  a b p.E.u.;+_ _ _ _ _ _ _ _ _ _ >+,+0.,+3.,+,+,+,+,+,+'+,+)+_ _ _ _ _ _ _ _ _ _ !+z.E.p.b a   ",
"  a ~+o.j.H.{+_ _ _ _ _ _ _ _ _ _ ]+,+,+,+,+,+,+,+,+,+'+,+^+/+_ _ _ _ _ _ _ _ _ (+_+z.I.:+b a   ",
"  a b p.j.E.<+[+_ _ _ _ _ _ _ _ _ }+|+0.,+0.,+0.'+'+'+'+0.1+_ _ _ _ _ _ _ _ _ _ 2+z.E.I.p.~+a   ",
"  a ~+3+o.I.j.4+_ _ _ _ _ _ _ _ _ _ 5+'+,+0.,+,+'+'+'+'+0.6+_ _ _ _ _ _ _ _ _ _ 7+I.I.:+p.0 a   ",
"    ~+b J.3+:+8+_ _ _ _ _ _ _ _ _ _ 9+0.0.,+0.,+'+'+'+'+0+a+_ _ _ _ _ _ _ _ _ _ b+:+3+J.J.~+    ",
"      a ~+b p.c+d+_ _ _ _ _ _ _ _ _ _ e+'+'+'+'+'+'+'+'+f+_ _ _ _ _ _ _ _ _ _ g+I.p.b ~+a       ",
"        a ~+h+i.i+_ _ _ _ _ _ _ _ _ _ j+k+'+'+'+'+'+'+l+m+_ _ _ _ _ _ _ _ _ _ n+o.h+~+!         ",
"          . b o+p+q+_ _ _ _ _ _ _ _ _ _ r+s+t+u+v+w+x+y+_ _ _ _ _ _ _ _ _ _ z+A+o+b ~+          ",
"            . ~+b B+_ _ _ _ _ _ _ _ _ _ _ _ _ _ _ _ _ _ _ _ _ _ _ _ _ _ _ C+D+b ~+.             ",
"              a ~+E+F+_ _ _ _ _ _ _ _ _ _ _ _ _ _ _ _ _ _ _ _ _ _ _ _ _ _ G+o+~+!               ",
"                a b H+I+_ _ _ _ _ _ _ _ _ _ _ _ _ _ _ _ _ _ _ _ _ _ _ _ J+K+b .                 ",
"                  ~+~+L+M+_ _ _ _ _ _ _ _ _ _ _ _ _ _ _ _ _ _ _ _ _ _ N+O+~+~+                  ",
"                    ! ~+P+Q+_ _ _ _ _ _ _ _ _ _ _ _ _ _ _ _ _ _ _ _ R+S+~+!                     ",
"                      a ~ T+U+V+_ _ _ _ _ _ _ _ _ _ _ _ _ _ _ _ W+X+h+~ a                       ",
"                        ~+0 ~ Y+Z+`+_ _ _ _ _ _ _ _ _ _ _ _  @.@+@b 0 ~+                        ",
"                          a a a a @@#@$@%@&@*@* = =@-@;@>@,@'@a a a a                           ",
"                                                                                                "};
