/* XPM */
static char * N1_xpm[] = {
"48 48 127 2",
"  	c #499B49",
". 	c #1C192B",
"+ 	c #201D31",
"@ 	c #181424",
"# 	c #222136",
"$ 	c #2A283F",
"% 	c #302F47",
"& 	c #6C2C42",
"* 	c #A03040",
"= 	c #C32836",
"- 	c #DE1D28",
"; 	c #F60C13",
"> 	c #FF0000",
", 	c #D6212D",
"' 	c #333249",
") 	c #323047",
"! 	c #2B2B43",
"~ 	c #4B9B49",
"{ 	c #7B9144",
"] 	c #9F1322",
"^ 	c #C31B2D",
"/ 	c #E01D2E",
"( 	c #F70E18",
"_ 	c #DB3D4C",
": 	c #67677F",
"< 	c #525471",
"[ 	c #474969",
"} 	c #3A3C5A",
"| 	c #928940",
"1 	c #E15969",
"2 	c #8388A6",
"3 	c #757A9C",
"4 	c #60658B",
"5 	c #4A4F74",
"6 	c #1A1628",
"7 	c #88182A",
"8 	c #E46376",
"9 	c #9DA2BE",
"0 	c #898EB1",
"a 	c #757CA2",
"b 	c #606487",
"c 	c #444665",
"d 	c #23223A",
"e 	c #8A253A",
"f 	c #E56778",
"g 	c #A3A7C2",
"h 	c #989DBB",
"i 	c #5D6182",
"j 	c #383955",
"k 	c #8C2E49",
"l 	c #E56677",
"m 	c #898EAF",
"n 	c #4D5072",
"o 	c #91405C",
"p 	c #A5A9C3",
"q 	c #969BBA",
"r 	c #878CAF",
"s 	c #333553",
"t 	c #464866",
"u 	c #99536B",
"v 	c #9FA3C0",
"w 	c #5D5F79",
"x 	c #A46C8A",
"y 	c #F73C46",
"z 	c #E86172",
"A 	c #D77A8F",
"B 	c #C48EA5",
"C 	c #AF9FB9",
"D 	c #AE7E9C",
"E 	c #F43D4A",
"F 	c #E66576",
"G 	c #D67E92",
"H 	c #C290A8",
"I 	c #ACA1BB",
"J 	c #3D3B4E",
"K 	c #5C5F80",
"L 	c #8F93AD",
"M 	c #5B628B",
"N 	c #7A81A8",
"O 	c #8C91B3",
"P 	c #A8ACC7",
"Q 	c #5D6691",
"R 	c #656C96",
"S 	c #3C4164",
"T 	c #535A83",
"U 	c #6A719B",
"V 	c #4C547D",
"W 	c #7980A4",
"X 	c #9598B1",
"Y 	c #35395B",
"Z 	c #3B436A",
"` 	c #4D5680",
" .	c #686F99",
"..	c #323759",
"+.	c #2F3352",
"@.	c #464E79",
"#.	c #4F5882",
"$.	c #676E98",
"%.	c #697097",
"&.	c #3F4872",
"*.	c #686F97",
"=.	c #414A74",
"-.	c #3E4771",
";.	c #787EA4",
">.	c #393F64",
",.	c #262741",
"'.	c #E25C6C",
").	c #E0566B",
"!.	c #DD4A62",
"~.	c #DB425B",
"{.	c #DA405B",
"].	c #1F1D32",
"^.	c #DB415C",
"/.	c #363D61",
"(.	c #2E314F",
"_.	c #2B2D4A",
":.	c #272842",
"<.	c #FC050D",
"[.	c #D11627",
"}.	c #D00E1C",
"|.	c #FC0309",
"1.	c #D00913",
"2.	c #FC0206",
"3.	c #D3622C",
"4.	c #FC0103",
"5.	c #FC0102",
"6.	c #FC1806",
"                                                                                                ",
"                          . . . . . . . . . . . . . + + . . . @ . . .                           ",
"                        # $ % & * = - ; > > > > > > > > > > , ' ) ! $ #                         ",
"                  ~ { ] ^ / ( > > > > > > > > > > > > > > > _ : < [ } ! .                       ",
"                  | > > > > > > > > > > > > > > > > > > > > 1 2 3 4 5 ' + 6                     ",
"                  7 > > > > > > > > > > > > > > > > > > > > 8 9 0 a b c ) d +                   ",
"                + e > > > > > > > > > > > > > > > > > > > > f g h 0 3 i [ j ! +                 ",
"              @ + k > > > > > > > > > > > > > > > > > > > > l g g h m 3 4 n j + @               ",
"            + # % o > > > > > > > > > > > > > > > > > > > > l p p g q r a 4 c % # +             ",
"          + ! s t u > > > > > > > > > > > > > > > > > > > > l p p p v q 0 3 w t s ! +           ",
"        @ d j n b x > > > > > y z A B C > > > > > > > > > > l g g g g g h r 3 4 < s d @         ",
"      . # ) [ 4 a D E F G H I g g g g g > > > > > > > > > > l g g g g p g q 0 a 4 [ ) # .       ",
"    # % J c i 3 0 h g g p g g g g g g p > > > > > > > > > > l g g g p p p v q 0 3 K [ s ! d     ",
"  . $ } n b 3 0 h v g g p g g g g g g g > > > > > > > > > > l g g g g p g g v q L 3 b < } $ .   ",
"  . ! c M a m h g p g g g g g g g g g g > > > > > > > > > > l g g g g g g g g g q r 3 M c ! .   ",
"  . ! [ 4 N O v p p p g g g g g g g g g > > > > > > > > > > l g g g g g g p P p v q N 4 t ! .   ",
"  . ! t Q N O v p p p g g g g g g g p g > > > > > > > > > > l g g g g g g p p p v O N R [ ! .   ",
"  . ! t M a O h g p g g g g g g g g g g > > > > > > > > > > f g g g g g g g g g h 0 a M c ! .   ",
"  . $ S T U N O q 9 g g p p g p g g g g > > > > > > > > > > l g g g p g p g 9 q O N U T S ! 6   ",
"  6 d } V M U W r q 9 g p p g g p g g g > > > > > > > > > > l g g g p p p 9 X r W U M n Y d 6   ",
"  . d s Z ` M  .a m q g p p g g g g p g > > > > > > > > > > l g g g p g g q m a  .M ` Z ..# 6   ",
"  @ # +.Z @.#.M $.W L q 9 9 g p p g g g > > > > > > > > > > l p p g g 9 q O W $.M #.@.Z +.d 6   ",
"  6 # +.Z @.@.` M %.a r q 9 p p p g g g > > > > > > > > > > l p p g 9 q m a %.M #.V &.Z +.d 6   ",
"  6 # +.Z &.@.@.V M  .a r q g p g g g g > > > > > > > > > > l g p g q m a *.M V @.=.&.-.+.# 6   ",
"  6 d +.Z &.&.=.@.V M $.;.O q v 9 g p p > > > > > > > > > > l g v q 0 a *.M V @.&.=.=.>.+.,.6   ",
"  6 d +.Z &.&.&.=.@.` M %.a m q 9 p p p > > > > > > > > > > l 9 q 0 W U M ` @.=.&.&.=.Z +.+ 6   ",
"  6 # +.-.&.@.&.=.=.@.V M %.a r q g p p > > > > > > > > > > l 9 r a  .T V @.=.=.=.@.=.Z +.+ 6   ",
"  6 d +.Z &.@.&.=.&.&.@.V M *.;.L q 9 9 > > > > > > > > > > '.L ;.$.Q #.@.=.-.=.&.&.&.-.+.,.6   ",
"  6 d +.Z &.&.&.&.-.&.=.@.` M *.W r O O > > > > > > > > > > ).W  .Q ` @.@.&.&.&.&.&.&.>.+.d 6   ",
"  6 d +.Z &.&.@.=.-.&.=.=.@.V M *.a ;.W > > > > > > > > > > !.%.T ` @.=.&.&.&.&.&.` &.-.+.d 6   ",
"  6 d +.-.&.&.&.-.=.=.&.&.=.@.` M $.U U > > > > > > > > > > ~.M #.@.&.&.&.&.&.&.&.&.&.-.+.d 6   ",
"  6 d +.-.@.&.@.=.=.&.=.-.-.=.` M R $.U > > > > > > > > > > {.M ` @.&.&.&.&.&.@.&.&.&.-.+.d 6   ",
"  6 ]...Z =.=.=.&.=.=.&.&.&.=.` M R $.$.> > > > > > > > > > ^.M ` =.-.&.&.&.&.&.&.@.&.>./.d 6   ",
"  6 d +.Z -.=.&.=.&.&.=.&.&.@.` M R $.U > > > > > > > > > > ^.T ` @.&.&.&.@.&.@.&.&.-.>.+.].6   ",
"  6 ].(...>.Z &.=.&.&.=.&.&.=.` M R U  .> > > > > > > > > > {.M ` =.&.&.&.&.&.&.&.>.>./.+.+ 6   ",
"    ].d ,.(./.Z =.@.=.&.&.&.=.` M R  .U > > > > > > > > > > {.M ` @.&.&.&.&.@.@.-./.(.,.,.].    ",
"      6 ].d +.>.=.=.&.=.&.&.@.` M R $.U > > > > > > > > > > {.M ` =.&.&.=.=.@.&.>.+.d ].6       ",
"        6 ]._.Y >.Z &.&.&.&.=.` M R U $.> > > > > > > > > > ^.M ` =.&.&.&.&.>.>..._.].@         ",
"          . d :.+.Y <.> > > > > > > > > > > > > > > > > > > > > > > > > > > > > [.d ].          ",
"            . ].d +.<.> > > > > > > > > > > > > > > > > > > > > > > > > > > > > }..             ",
"              6 ].:.|.> > > > > > > > > > > > > > > > > > > > > > > > > > > > > 1.              ",
"                6 d 2.> > > > > > > > > > > > > > > > > > > > > > > > > > > > > 3.              ",
"                  ].4.> > > > > > > > > > > > > > > > > > > > > > > > > > > > > 3.              ",
"                    5.> > > > > > > > > > > > > > > > > > > > > > > > > > > > > 3.              ",
"                    6.> > > > > > > > > > > > > > > > > > > > > > > > > > > > > 3.              ",
"                    6.> > > > > > > > > > > > > > > > > > > > > > > > > > > > > 3.              ",
"                          6 6 6 6 . . . 6 . . . . . . . . . . 6 6 6 6                           ",
"                                                                                                "};
