/* XPM */
static char * N3_xpm[] = {
"48 48 275 2",
"  	c #499B49",
". 	c #1C192B",
"+ 	c #631728",
"@ 	c #981323",
"# 	c #BA101D",
"$ 	c #CE0C18",
"% 	c #DE0913",
"& 	c #ED050C",
"* 	c #F40307",
"= 	c #F90204",
"- 	c #FD0101",
"; 	c #FE0001",
"> 	c #FB0103",
", 	c #F60306",
"' 	c #EE060E",
") 	c #E20A15",
"! 	c #D10C17",
"~ 	c #B7101E",
"{ 	c #901424",
"] 	c #401323",
"^ 	c #7F8F43",
"/ 	c #B47937",
"( 	c #D90F1C",
"_ 	c #F7050C",
": 	c #FF0000",
"< 	c #FD0204",
"[ 	c #DD1724",
"} 	c #A32236",
"| 	c #37283E",
"1 	c #222136",
"2 	c #729345",
"3 	c #F1111D",
"4 	c #A02236",
"5 	c #D00F1C",
"6 	c #301628",
"7 	c #621B2E",
"8 	c #D61020",
"9 	c #251D31",
"0 	c #201D31",
"a 	c #65283F",
"b 	c #B11F32",
"c 	c #181424",
"d 	c #68324E",
"e 	c #F80811",
"f 	c #461C30",
"g 	c #302F47",
"h 	c #714563",
"i 	c #AA2437",
"j 	c #2B2B43",
"k 	c #333553",
"l 	c #464866",
"m 	c #7E5A73",
"n 	c #FA2730",
"o 	c #EB5D6C",
"p 	c #D97A8D",
"q 	c #CC899F",
"r 	c #BD95AD",
"s 	c #B19EB7",
"t 	c #ACA2BC",
"u 	c #A5A6C0",
"v 	c #A6A5C0",
"w 	c #ADA1BB",
"x 	c #BC96AE",
"y 	c #D08298",
"z 	c #EC5868",
"A 	c #D8293C",
"B 	c #23223A",
"C 	c #383955",
"D 	c #4D5072",
"E 	c #606487",
"F 	c #8D7494",
"G 	c #EF3F4F",
"H 	c #D47289",
"I 	c #B998B1",
"J 	c #A3A7C2",
"K 	c #A5A9C3",
"L 	c #BF93AB",
"M 	c #F73944",
"N 	c #EE283A",
"O 	c #525471",
"P 	c #323047",
"Q 	c #474969",
"R 	c #60658B",
"S 	c #757CA2",
"T 	c #898EAF",
"U 	c #989DBB",
"V 	c #B59BB4",
"W 	c #FC252C",
"X 	c #F8222F",
"Y 	c #3D3B4E",
"Z 	c #444665",
"` 	c #5D6182",
" .	c #757A9C",
"..	c #898EB1",
"+.	c #DF6F82",
"@.	c #F92631",
"#.	c #5C5F80",
"$.	c #2A283F",
"%.	c #3A3C5A",
"&.	c #9FA3C0",
"*.	c #CD869C",
"=.	c #F43D4A",
"-.	c #8F93AD",
";.	c #5B628B",
">.	c #CE859B",
",.	c #E95F6F",
"'.	c #969BBA",
").	c #878CAF",
"!.	c #7A81A8",
"~.	c #8C91B3",
"{.	c #E06E80",
"].	c #D57F93",
"^.	c #5D6691",
"/.	c #B49CB5",
"(.	c #FE161B",
"_.	c #B1A1BA",
":.	c #656C96",
"<.	c #BE94AC",
"[.	c #F73D48",
"}.	c #DB7488",
"|.	c #3C4164",
"1.	c #535A83",
"2.	c #6A719B",
"3.	c #9DA2BE",
"4.	c #A4A6C1",
"5.	c #A9A3BE",
"6.	c #B19EB8",
"7.	c #D37F94",
"8.	c #ED5665",
"9.	c #EF5260",
"0.	c #A1A0BB",
"a.	c #1A1628",
"b.	c #4C547D",
"c.	c #7980A4",
"d.	c #D67B90",
"e.	c #EC5A69",
"f.	c #A59EB9",
"g.	c #9598B1",
"h.	c #35395B",
"i.	c #3B436A",
"j.	c #4D5680",
"k.	c #686F99",
"l.	c #F83640",
"m.	c #D18297",
"n.	c #323759",
"o.	c #2F3352",
"p.	c #464E79",
"q.	c #4F5882",
"r.	c #676E98",
"s.	c #D77D90",
"t.	c #E96070",
"u.	c #CA899F",
"v.	c #697097",
"w.	c #FB2930",
"x.	c #E3687A",
"y.	c #B990AA",
"z.	c #3F4872",
"A.	c #E64E62",
"B.	c #917498",
"C.	c #686F97",
"D.	c #414A74",
"E.	c #3E4771",
"F.	c #787EA4",
"G.	c #D5788E",
"H.	c #F91825",
"I.	c #A45376",
"J.	c #393F64",
"K.	c #262741",
"L.	c #D2728A",
"M.	c #FD0710",
"N.	c #9A4268",
"O.	c #CD6781",
"P.	c #F80E1B",
"Q.	c #6B466F",
"R.	c #A0A1BC",
"S.	c #A69DB8",
"T.	c #AF97B2",
"U.	c #BF8CA4",
"V.	c #D3798F",
"W.	c #EC5362",
"X.	c #FF0507",
"Y.	c #D62B46",
"Z.	c #A885A4",
"`.	c #E84D60",
" +	c #FD0309",
".+	c #6B446C",
"++	c #7B7DA3",
"@+	c #DB4F66",
"#+	c #B73556",
"$+	c #756F98",
"%+	c #F52434",
"&+	c #D82843",
"*+	c #CB4C6A",
"=+	c #EE1A2D",
"-+	c #1F1D32",
";+	c #B4587B",
">+	c #F61120",
",+	c #363D61",
"'+	c #B45B7E",
")+	c #FA0915",
"!+	c #2E314F",
"~+	c #CA4D6C",
"{+	c #736F99",
"]+	c #F32536",
"^+	c #E91D32",
"/+	c #E72037",
"(+	c #AD3A5C",
"_+	c #514770",
":+	c #6A6F98",
"<+	c #D64662",
"[+	c #D3243D",
"}+	c #2B2D4A",
"|+	c #FE0205",
"1+	c #CE2D4A",
"2+	c #9B3D61",
"3+	c #504770",
"4+	c #8E678E",
"5+	c #E23C55",
"6+	c #A92B47",
"7+	c #272842",
"8+	c #FE0103",
"9+	c #DF2842",
"0+	c #C63B5A",
"a+	c #AD5072",
"b+	c #95648A",
"c+	c #866991",
"d+	c #796E97",
"e+	c #6C6E98",
"f+	c #746D96",
"g+	c #836A92",
"h+	c #9F6187",
"i+	c #BD5576",
"j+	c #E23B53",
"k+	c #FE060C",
"l+	c #FB040B",
"m+	c #512740",
"n+	c #FE0102",
"o+	c #C71425",
"p+	c #F30711",
"q+	c #501C30",
"r+	c #FC0307",
"s+	c #881D33",
"t+	c #FE0D03",
"u+	c #F90307",
"v+	c #91182A",
"w+	c #E80D1A",
"x+	c #731A2D",
"y+	c #F20D1A",
"z+	c #AE2139",
"A+	c #2E2136",
"B+	c #789244",
"C+	c #B07B39",
"D+	c #D75E2A",
"E+	c #F43213",
"F+	c #F8050C",
"G+	c #D61625",
"H+	c #9A1F36",
"I+	c #352239",
"J+	c #6C9446",
"K+	c #921121",
"L+	c #B50E1C",
"M+	c #CB0B17",
"N+	c #DB0813",
"O+	c #E9060E",
"P+	c #F30308",
"Q+	c #F70205",
"R+	c #FB0102",
"S+	c #FD0102",
"T+	c #FA0103",
"U+	c #EA060E",
"V+	c #DC0914",
"W+	c #C90D1A",
"X+	c #AC1120",
"Y+	c #7E1626",
"Z+	c #2A192B",
"                                                                                                ",
"                          . + @ # $ % & * = - ; > , ' ) ! ~ { ] . . .                           ",
"                    ^ / ( _ : : : : : : : : : : : : : : : : : < [ } | 1                         ",
"                  2 : : : : : : : : : : : : : : : : : : : : : : : : 3 4 .                       ",
"                  2 : : : : : : : : : : : : : : : : : : : : : : : : : : 5 6                     ",
"                  7 : : : : : : : : : : : : : : : : : : : : : : : : : : : 8 9                   ",
"                0 a : : : : : : : : : : : : : : : : : : : : : : : : : : : : b 0                 ",
"              c 0 d : : : : : : : : : : : : : : : : : : : : : : : : : : : : e f c               ",
"            0 1 g h : : : : : : : : : : : : : : : : : : : : : : : : : : : : : i 1 0             ",
"          0 j k l m : : : n o p q r s t u v w x y z : : : : : : : : : : : : : A k j 0           ",
"        c B C D E F G H I J J K J J J J J J J J J J L M : : : : : : : : : : : N O k B c         ",
"      . 1 P Q R S T U J K J J J J J J J J J J J K J J V W : : : : : : : : : : X R Q P 1 .       ",
"    1 g Y Z `  ...U J J K J J J J J J K J J J J J J J J +.: : : : : : : : : : @. .#.Q k j B     ",
"  . $.%.D E  ...U &.J J K J J J J J J J J J J J J J J K *.: : : : : : : : : : =.-. .E O %.$..   ",
"  . j Z ;.S T U J K J J J J J J J J J J K J J J J J J J >.: : : : : : : : : : ,.'.). .;.Z j .   ",
"  . j Q R !.~.&.K K K J J J J J J J J J J J J J J J J J {.: : : : : : : : : : ].&.'.!.R l j .   ",
"  . j l ^.!.~.&.K K K J J J J J J J K J J J J J J K J /.W : : : : : : : : : (._.&.~.!.:.Q j .   ",
"  . j l ;.S ~.U J K J J J J J J J J J J J J J J J J <.[.: : : : : : : : : : }.J U ..S ;.Z j .   ",
"  . $.|.1.2.!.~.'.3.J J K K J K J J J J 4.5.6.L 7.8.: : : : : : : : : : : 9.0.'.~.!.2.1.|.j a.  ",
"  a.B %.b.;.2.c.).'.3.J K K J d.: : : : : : : : : : : : : : : : : : : : e.f.g.).c.2.;.D h.B a.  ",
"  . B k i.j.;.k.S T '.J K K J d.: : : : : : : : : : : : : : : : : : l.m.J '.T S k.;.j.i.n.1 a.  ",
"  c 1 o.i.p.q.;.r.c.-.'.3.3.J s.: : : : : : : : : : : : : : : : t.u.v 3.'.~.c.r.;.q.p.i.o.B a.  ",
"  a.1 o.i.p.p.j.;.v.S ).'.3.K s.: : : : : : : : : : : : : : : : w.x.y.'.T S v.;.q.b.z.i.o.B a.  ",
"  a.1 o.i.z.p.p.b.;.k.S ).'.J s.: : : : : : : : : : : : : : : : : : : A.B.C.;.b.p.D.z.E.o.1 a.  ",
"  a.B o.i.z.z.D.p.b.;.r.F.~.'.G.: : : : : : : : : : : : : : : : : : : : H.I.b.p.z.D.D.J.o.K.a.  ",
"  a.B o.i.z.z.z.D.p.j.;.v.S T L.: : : : : : : : : : : : : : : : : : : : : M.N.D.z.z.D.i.o.0 a.  ",
"  a.1 o.E.z.p.z.D.D.p.b.;.v.S O.: : : : : : : : : : : : : : : : : : : : : : P.Q.D.p.D.i.o.0 a.  ",
"  a.B o.i.z.p.z.D.z.z.p.b.;.C.F.-.'.3.3.R.S.T.U.V.W.X.: : : : : : : : : : : : Y.z.z.z.E.o.K.a.  ",
"  a.B o.i.z.z.z.z.E.z.D.p.j.;.C.c.).~.~.~.~.~...~.~.Z.`.: : : : : : : : : : :  +.+z.z.J.o.B a.  ",
"  a.B o.i.z.z.p.D.E.z.D.D.p.b.;.C.S F.c.F.F.F.F.S F.F.++@+: : : : : : : : : : : #+j.z.E.o.B a.  ",
"  a.B o.E.z.z.z.E.D.D.z.z.D.p.j.;.r.2.2.2.2.2.2.2.2.2.2.$+%+: : : : : : : : : : &+z.z.E.o.B a.  ",
"  a.B o.E.p.z.p.D.D.z.D.E.E.D.j.;.:.r.2.r.:.r.r.r.r.r.r.k.*+: : : : : : : : : : =+z.z.E.o.B a.  ",
"  a.-+n.i.D.D.D.z.D.D.z.z.z.D.j.;.:.r.r.r.r.r.r.r.r.r.k.r.;+: : : : : : : : : : >+p.z.J.,+B a.  ",
"  a.B o.i.E.D.z.D.z.z.D.z.z.p.j.;.:.r.2.r.2.r.2.k.k.k.k.2.'+: : : : : : : : : : )+z.E.J.o.-+a.  ",
"  a.-+!+n.J.i.z.D.z.z.D.z.z.D.j.;.:.2.k.r.2.r.r.k.k.k.k.2.~+: : : : : : : : : : >+J.J.,+o.0 a.  ",
"    -+B K.!+,+i.D.p.D.z.z.z.D.j.;.:.k.2.2.r.2.r.k.k.k.k.{+]+: : : : : : : : : : ^+,+!+K.K.-+    ",
"      a.-+B o.J./+(+_+D.z.z.p.j.;.:.r.2.k.k.k.k.k.k.k.:+<+: : : : : : : : : : : [+o.B -+a.      ",
"        a.-+}+h.|+: P.1+2+3+D.j.;.:.2.r.k.k.k.k.k.k.4+5+: : : : : : : : : : : : 6+}+-+c         ",
"          . B 7+8+: : : : )+9+0+a+b+c+d+e+f+g+h+i+j+k+: : : : : : : : : : : : l+m+B -+          ",
"            . -+n+: : : : : : : : : : : : : : : : : : : : : : : : : : : : : : o+-+.             ",
"              a.; : : : : : : : : : : : : : : : : : : : : : : : : : : : : : p+q+c               ",
"                ; : : : : : : : : : : : : : : : : : : : : : : : : : : : : r+s+.                 ",
"                t+: : : : : : : : : : : : : : : : : : : : : : : : : : : u+v+-+                  ",
"                t+: : : : : : : : : : : : : : : : : : : : : : : : : : w+x+c                     ",
"                t+: : : : : : : : : : : : : : : : : : : : : : : : y+z+A+a.                      ",
"                B+C+D+E+: : : : : : : : : : : : : : : : : : F+G+H+I+0 -+                        ",
"                        J+K+L+M+N+O+P+Q+R+: S+T+P+U+V+W+X+Y+Z+a.a.a.a.                          ",
"                                                                                                "};
