/* XPM */
static char * N6_xpm[] = {
"48 48 306 2",
"  	c #499B49",
". 	c #1C192B",
"+ 	c #561829",
"@ 	c #9C1322",
"# 	c #C60E1A",
"$ 	c #DD0914",
"% 	c #EE050C",
"& 	c #F70206",
"* 	c #FC0102",
"= 	c #FD0102",
"- 	c #F60308",
"; 	c #EE060E",
"> 	c #E00812",
", 	c #C40E1B",
"' 	c #A21322",
") 	c #5D1322",
"! 	c #222136",
"~ 	c #2A283F",
"{ 	c #302F47",
"] 	c #362F47",
"^ 	c #A42F3F",
"/ 	c #DF1D28",
"( 	c #FE0203",
"_ 	c #FF0000",
": 	c #FE0102",
"< 	c #E31421",
"[ 	c #B11F32",
"} 	c #52273D",
"| 	c #2B2B43",
"1 	c #3A3C5A",
"2 	c #A13C55",
"3 	c #EF1E2B",
"4 	c #F90810",
"5 	c #C41B2D",
"6 	c #5D1729",
"7 	c #181424",
"8 	c #5C394C",
"9 	c #D92C43",
"0 	c #D50D1A",
"a 	c #1A1628",
"b 	c #201D31",
"c 	c #23223A",
"d 	c #742C41",
"e 	c #EF1826",
"f 	c #D61A28",
"g 	c #76344F",
"h 	c #F5121E",
"i 	c #D72A3E",
"j 	c #383955",
"k 	c #61324F",
"l 	c #F31726",
"m 	c #DA3B54",
"n 	c #4D5072",
"o 	c #392F47",
"p 	c #E32334",
"q 	c #DD4A62",
"r 	c #60658B",
"s 	c #444665",
"t 	c #333553",
"u 	c #BA354C",
"v 	c #FB2A32",
"w 	c #E16C7E",
"x 	c #CB889F",
"y 	c #B69AB3",
"z 	c #ADA1BB",
"A 	c #A5A6C0",
"B 	c #ACA2BC",
"C 	c #B49CB5",
"D 	c #C58DA5",
"E 	c #DA7689",
"F 	c #EF5361",
"G 	c #E0566C",
"H 	c #757A9C",
"I 	c #5D5F79",
"J 	c #464866",
"K 	c #744C6C",
"L 	c #FB111A",
"M 	c #FE151A",
"N 	c #D77A8E",
"O 	c #AAA2BD",
"P 	c #A3A7C2",
"Q 	c #B39CB6",
"R 	c #D8798E",
"S 	c #F83640",
"T 	c #E35F72",
"U 	c #878CAF",
"V 	c #525471",
"W 	c #323047",
"X 	c #474969",
"Y 	c #D1415C",
"Z 	c #F9333D",
"` 	c #BE94AC",
" .	c #A5A9C3",
"..	c #A7A4BF",
"+.	c #D28297",
"@.	c #DC7387",
"#.	c #969BBA",
"$.	c #898EB1",
"%.	c #757CA2",
"&.	c #3D3B4E",
"*.	c #795D7C",
"=.	c #FC1018",
"-.	c #FD181E",
";.	c #BD95AD",
">.	c #9FA3C0",
",.	c #5C5F80",
"'.	c #606487",
").	c #C45B76",
"!.	c #D37F94",
"~.	c #8F93AD",
"{.	c #5B628B",
"].	c #F03E4E",
"^.	c #F83842",
"/.	c #A7A5BF",
"(.	c #927A9F",
"_.	c #D57C91",
":.	c #A8ACC7",
"<.	c #7A81A8",
"[.	c #5D6691",
"}.	c #BC6787",
"|.	c #8C91B3",
"1.	c #656C96",
"2.	c #D74F69",
"3.	c #F63C47",
"4.	c #B39DB6",
"5.	c #D08398",
"6.	c #E66576",
"7.	c #F34753",
"8.	c #F9323B",
"9.	c #FA2E37",
"0.	c #F44450",
"a.	c #EE5564",
"b.	c #DD7286",
"c.	c #C58EA5",
"d.	c #ACA5BE",
"e.	c #989DBB",
"f.	c #3C4164",
"g.	c #535A83",
"h.	c #E9354A",
"i.	c #EA5F6F",
"j.	c #BB96AF",
"k.	c #E76273",
"l.	c #FE0A0E",
"m.	c #FD1A20",
"n.	c #DF6F82",
"o.	c #B29DB7",
"p.	c #9DA2BE",
"q.	c #6A719B",
"r.	c #4C547D",
"s.	c #FA121E",
"t.	c #E06E81",
"u.	c #DC7588",
"v.	c #D9788C",
"w.	c #A6A8C2",
"x.	c #9598B1",
"y.	c #7980A4",
"z.	c #35395B",
"A.	c #594167",
"B.	c #FE1217",
"C.	c #EB5C6B",
"D.	c #ACA1BB",
"E.	c #898EAF",
"F.	c #686F99",
"G.	c #4D5680",
"H.	c #3B436A",
"I.	c #323759",
"J.	c #2F3352",
"K.	c #7A3D62",
"L.	c #F24653",
"M.	c #A196B4",
"N.	c #676E98",
"O.	c #4F5882",
"P.	c #464E79",
"Q.	c #8A3B5E",
"R.	c #E84B5E",
"S.	c #777CA1",
"T.	c #697097",
"U.	c #3F4872",
"V.	c #913A5C",
"W.	c #BF5473",
"X.	c #414A74",
"Y.	c #3E4771",
"Z.	c #96395B",
"`.	c #665179",
" +	c #393F64",
".+	c #262741",
"++	c #93395C",
"@+	c #C98CA2",
"#+	c #B1A1B9",
"$+	c #A8A7C1",
"%+	c #ADA4BD",
"&+	c #BD97AF",
"*+	c #FC1F26",
"=+	c #BB395A",
"-+	c #8D3E64",
";+	c #B998B1",
">+	c #FA2F38",
",+	c #EB1D31",
"'+	c #803D60",
")+	c #ED4D5D",
"!+	c #9EA1BD",
"~+	c #C6869D",
"{+	c #68476F",
"]+	c #664065",
"^+	c #BA7492",
"/+	c #8D90B2",
"(+	c #F53442",
"_+	c #9B3C61",
":+	c #424369",
"<+	c #FE0307",
"[+	c #FF0204",
"}+	c #82799E",
"|+	c #787EA4",
"1+	c #D7526B",
"2+	c #B43657",
"3+	c #EF182B",
"4+	c #F41F2F",
"5+	c #BF5677",
"6+	c #BF3352",
"7+	c #DC2A44",
"8+	c #ED283C",
"9+	c #B5597C",
"0+	c #C33656",
"a+	c #1F1D32",
"b+	c #BF3454",
"c+	c #EC283C",
"d+	c #B5587A",
"e+	c #BC3454",
"f+	c #363D61",
"g+	c #933D62",
"h+	c #B03C5F",
"i+	c #2E314F",
"j+	c #493E63",
"k+	c #F90915",
"l+	c #FF0203",
"m+	c #756992",
"n+	c #D54864",
"o+	c #963E62",
"p+	c #D52239",
"q+	c #AD597D",
"r+	c #696F99",
"s+	c #F32738",
"t+	c #FF0102",
"u+	c #634B75",
"v+	c #952B46",
"w+	c #E8334A",
"x+	c #686E98",
"y+	c #B05B7E",
"z+	c #E92136",
"A+	c #2F2D4A",
"B+	c #ED1323",
"C+	c #CE4D6B",
"D+	c #95658B",
"E+	c #F81C2B",
"F+	c #B82E4A",
"G+	c #2B2D4A",
"H+	c #A01F35",
"I+	c #E7374E",
"J+	c #AE5C7F",
"K+	c #836A92",
"L+	c #6E6E98",
"M+	c #786C95",
"N+	c #9A6389",
"O+	c #CD4C6A",
"P+	c #FC111B",
"Q+	c #FA0812",
"R+	c #5B3B5E",
"S+	c #272842",
"T+	c #E30C19",
"U+	c #BF2C48",
"V+	c #6A1B2E",
"W+	c #F90409",
"X+	c #EC1829",
"Y+	c #443658",
"Z+	c #9A1B30",
"`+	c #F80A16",
" @	c #742F4C",
".@	c #AA1526",
"+@	c #FE0001",
"@@	c #F80A15",
"#@	c #832842",
"$@	c #9A1729",
"%@	c #FA0308",
"&@	c #ED1729",
"*@	c #743352",
"=@	c #6A1E32",
"-@	c #E01424",
";@	c #FC060C",
">@	c #C5253E",
",@	c #493452",
"'@	c #911B2E",
")@	c #DD121F",
"!@	c #F6060E",
"~@	c #C61B2C",
"{@	c #68283F",
"]@	c #5C1426",
"^@	c #A61221",
"/@	c #CE0C18",
"(@	c #E40711",
"_@	c #F30307",
":@	c #FA0103",
"<@	c #EA060E",
"[@	c #D80A15",
"}@	c #BB0F1D",
"|@	c #891525",
"1@	c #2A192B",
"                                                                                                ",
"                          . . . . . + @ # $ % & * = - ; > , ' ) . . .                           ",
"                        ! ~ { ] ^ / ( _ _ _ _ _ _ _ _ _ _ _ _ : < [ } !                         ",
"                      . | 1 2 3 _ _ _ _ _ _ _ _ _ _ _ _ _ _ _ _ _ _ 4 5 6                       ",
"                    7 ! 8 9 _ _ _ _ _ _ _ _ _ _ _ _ _ _ _ _ _ _ _ _ _ _ 0 a                     ",
"                  b c d e _ _ _ _ _ _ _ _ _ _ _ _ _ _ _ _ _ _ _ _ _ _ _ f c b                   ",
"                b | g h _ _ _ _ _ _ _ _ _ _ _ _ _ _ _ _ _ _ _ _ _ _ _ _ i j | b                 ",
"              7 b k l _ _ _ _ _ _ _ _ _ _ _ _ _ _ _ _ _ _ _ _ _ _ _ _ _ m n j b 7               ",
"            b ! o p _ _ _ _ _ _ _ _ _ _ _ _ _ _ _ _ _ _ _ _ _ _ _ _ _ _ q r s { ! b             ",
"          b | t u _ _ _ _ _ _ _ _ _ _ _ _ v w x y z A B C D E F _ _ _ _ G H I J t | b           ",
"        7 c j K L _ _ _ _ _ _ _ _ _ _ M N O P P P P P P P P P P Q R S _ T U H r V t c 7         ",
"      . ! W X Y _ _ _ _ _ _ _ _ _ _ Z ` P P P P  .P P P P P P P P P ..+.@.#.$.%.r X W ! .       ",
"    ! { &.s *.=._ _ _ _ _ _ _ _ _ -.;. .P P P P P P P P P P P P P P  . . .>.#.$.H ,.X t | c     ",
"  . ~ 1 n '.)._ _ _ _ _ _ _ _ _ _ !.P P P P P P P P P  .P  .P P P P P  .P P >.#.~.H '.V 1 ~ .   ",
"  . | s {.%.]._ _ _ _ _ _ _ _ _ ^./.P P  .P P P P P P P P P P P P P P P P P P P #.U H {.s | .   ",
"  . | X r (._ _ _ _ _ _ _ _ _ _ _.P P P P P P P P P P P P P P P P P P P P  .:. .>.#.<.r J | .   ",
"  . | J [.}._ _ _ _ _ _ _ _ _ _ y P  .P P P P P P  .P P P P P P P P P P P  . . .>.|.<.1.X | .   ",
"  . | J {.2._ _ _ _ _ _ _ _ _ 3.P P P 4.5.6.7.8.M 9.0.a.b.c.d.P P P P P P P P P e.$.%.{.s | .   ",
"  . ~ f.g.h._ _ _ _ _ _ _ _ _ i.P j.k.l._ _ _ _ _ _ _ _ _ _ m.n.o.P  .P  .P p.#.|.<.q.g.f.| a   ",
"  a c 1 r.s._ _ _ _ _ _ _ _ _ t.u.l._ _ _ _ _ _ _ _ _ _ _ _ _ _ M v.w. . .p.x.U y.q.{.n z.c a   ",
"  . c t A._ _ _ _ _ _ _ _ _ _ B._ _ _ _ _ _ _ _ _ _ _ _ _ _ _ _ _ _ C.D.P #.E.%.F.{.G.H.I.! a   ",
"  7 ! J.K._ _ _ _ _ _ _ _ _ _ _ _ _ _ _ _ _ _ _ _ _ _ _ _ _ _ _ _ _ _ L.M.|.y.N.{.O.P.H.J.c a   ",
"  a ! J.Q._ _ _ _ _ _ _ _ _ _ _ _ _ _ _ _ _ _ _ _ _ _ _ _ _ _ _ _ _ _ _ R.S.T.{.O.r.U.H.J.c a   ",
"  a ! J.V._ _ _ _ _ _ _ _ _ _ _ _ _ _ _ _ _ _ _ _ _ _ _ _ _ _ _ _ _ _ _ _ W.{.r.P.X.U.Y.J.! a   ",
"  a c J.Z._ _ _ _ _ _ _ _ _ _ _ _ _ _ _ _ _ _ _ _ _ _ _ _ _ _ _ _ _ _ _ _ s.`.P.U.X.X. +J..+a   ",
"  a c J.++_ _ _ _ _ _ _ _ _ _ _ _ _ _ a.@+#+$+%+&+u.*+_ _ _ _ _ _ _ _ _ _ _ =+X.U.U.X.H.J.b a   ",
"  a ! J.-+_ _ _ _ _ _ _ _ _ _ _ _ _ u. . . .P  . .P ;+>+_ _ _ _ _ _ _ _ _ _ ,+X.X.P.X.H.J.b a   ",
"  a c J.'+_ _ _ _ _ _ _ _ _ _ _ _ )+!+p.p.p.p.p.p.p.p.~+_ _ _ _ _ _ _ _ _ _ _ {+U.U.U.Y.J..+a   ",
"  a c J.]+_ _ _ _ _ _ _ _ _ _ _ _ ^+|.|.|.|.|.$.|.|.|./+(+_ _ _ _ _ _ _ _ _ _ _+U.U.U. +J.c a   ",
"  a c J.:+<+_ _ _ _ _ _ _ _ _ _ [+}+|+y.|+|+|+|+%.|+|+|+1+_ _ _ _ _ _ _ _ _ _ 2+U.G.U.Y.J.c a   ",
"  a c J.Y.3+_ _ _ _ _ _ _ _ _ _ 4+N.q.q.q.q.q.q.q.q.q.q.5+_ _ _ _ _ _ _ _ _ _ 6+U.U.U.Y.J.c a   ",
"  a c J.Y.7+_ _ _ _ _ _ _ _ _ _ 8+1.N.q.N.1.N.N.N.N.N.N.9+_ _ _ _ _ _ _ _ _ _ 0+U.U.U.Y.J.c a   ",
"  a a+I.H.b+_ _ _ _ _ _ _ _ _ _ c+1.N.N.N.N.N.N.N.N.N.F.d+_ _ _ _ _ _ _ _ _ _ e+U.P.U. +f+c a   ",
"  a c J.H.g+_ _ _ _ _ _ _ _ _ _ 4+1.N.q.N.q.N.q.F.F.F.F.5+_ _ _ _ _ _ _ _ _ _ h+U.U.Y. +J.a+a   ",
"  a a+i+I.j+k+_ _ _ _ _ _ _ _ _ l+m+q.F.N.q.N.N.F.F.F.F.n+_ _ _ _ _ _ _ _ _ _ o+U. + +f+J.b a   ",
"    a+c .+i+p+_ _ _ _ _ _ _ _ _ _ q+F.q.q.N.q.N.F.F.F.r+s+_ _ _ _ _ _ _ _ _ t+u+Y.f+i+.+.+a+    ",
"      a a+c v+_ _ _ _ _ _ _ _ _ _ w+x+q.F.F.F.F.F.F.F.y+_ _ _ _ _ _ _ _ _ _ z+U. +J.c a+a       ",
"        a a+A+B+_ _ _ _ _ _ _ _ _ _ C+N.F.F.F.F.F.F.D+E+_ _ _ _ _ _ _ _ _ _ F+ +I.G+a+7         ",
"          . c H+_ _ _ _ _ _ _ _ _ _ _ I+J+K+L+M+N+O+P+_ _ _ _ _ _ _ _ _ _ Q+R+J.S+c a+          ",
"            . a+T+_ _ _ _ _ _ _ _ _ _ _ _ _ _ _ _ _ _ _ _ _ _ _ _ _ _ _ _ U+J.c a+.             ",
"              a V+W+_ _ _ _ _ _ _ _ _ _ _ _ _ _ _ _ _ _ _ _ _ _ _ _ _ _ X+Y+S+a+7               ",
"                a Z+: _ _ _ _ _ _ _ _ _ _ _ _ _ _ _ _ _ _ _ _ _ _ _ _ `+ @G+c .                 ",
"                  a+.@+@_ _ _ _ _ _ _ _ _ _ _ _ _ _ _ _ _ _ _ _ _ _ @@#@c a+a+                  ",
"                    7 $@%@_ _ _ _ _ _ _ _ _ _ _ _ _ _ _ _ _ _ _ _ &@*@.+a+7                     ",
"                      a =@-@_ _ _ _ _ _ _ _ _ _ _ _ _ _ _ _ _ ;@>@,@G+! a                       ",
"                        a+b '@)@: _ _ _ _ _ _ _ _ _ _ _ _ !@~@{@.+c b a+                        ",
"                          a a a ]@^@/@(@_@:@+@* & <@[@}@|@1@. a a a a                           ",
"                                                                                                "};
