/* XPM */
static char * N7_xpm[] = {
"48 48 176 2",
"  	c #499B49",
". 	c #1C192B",
"+ 	c #201D31",
"@ 	c #181424",
"# 	c #FE0D03",
"$ 	c #FF0000",
"% 	c #FC1806",
"& 	c #FE0001",
"* 	c #FC0102",
"= 	c #222136",
"- 	c #FE0102",
"; 	c #F2060D",
"> 	c #2B2B43",
", 	c #333553",
"' 	c #FE0305",
") 	c #B9263D",
"! 	c #23223A",
"~ 	c #383955",
"{ 	c #4D5072",
"] 	c #606487",
"^ 	c #757A9C",
"/ 	c #898EAF",
"( 	c #989DBB",
"_ 	c #A3A7C2",
": 	c #A5A9C3",
"< 	c #B59BB4",
"[ 	c #FF0507",
"} 	c #FA121D",
"| 	c #69516E",
"1 	c #323047",
"2 	c #474969",
"3 	c #60658B",
"4 	c #757CA2",
"5 	c #E06E81",
"6 	c #D1546F",
"7 	c #302F47",
"8 	c #3D3B4E",
"9 	c #444665",
"0 	c #5D6182",
"a 	c #898EB1",
"b 	c #ADA1BB",
"c 	c #FC1F26",
"d 	c #FE1015",
"e 	c #9E86A7",
"f 	c #5C5F80",
"g 	c #2A283F",
"h 	c #3A3C5A",
"i 	c #9FA3C0",
"j 	c #D87C8F",
"k 	c #E46476",
"l 	c #969BBA",
"m 	c #8F93AD",
"n 	c #525471",
"o 	c #5B628B",
"p 	c #A6A5C0",
"q 	c #F9333D",
"r 	c #BA97B0",
"s 	c #878CAF",
"t 	c #7A81A8",
"u 	c #8C91B3",
"v 	c #CD859B",
"w 	c #ED5967",
"x 	c #A8ACC7",
"y 	c #464866",
"z 	c #5D6691",
"A 	c #F34754",
"B 	c #C590A7",
"C 	c #656C96",
"D 	c #C38FA7",
"E 	c #3C4164",
"F 	c #535A83",
"G 	c #6A719B",
"H 	c #9DA2BE",
"I 	c #EB5A69",
"J 	c #CE889D",
"K 	c #1A1628",
"L 	c #4C547D",
"M 	c #7980A4",
"N 	c #B899B1",
"O 	c #F83640",
"P 	c #A8A7C1",
"Q 	c #9598B1",
"R 	c #35395B",
"S 	c #3B436A",
"T 	c #4D5680",
"U 	c #686F99",
"V 	c #E3697B",
"W 	c #D67C91",
"X 	c #323759",
"Y 	c #2F3352",
"Z 	c #464E79",
"` 	c #4F5882",
" .	c #676E98",
"..	c #AF9FB9",
"+.	c #FD181E",
"@.	c #FC232A",
"#.	c #A79DB8",
"$.	c #697097",
"%.	c #DA768A",
"&.	c #DC6E81",
"*.	c #3F4872",
"=.	c #A8A4BE",
"-.	c #FA2D36",
";.	c #FE0E13",
">.	c #A992AF",
",.	c #686F97",
"'.	c #414A74",
").	c #3E4771",
"!.	c #787EA4",
"~.	c #D18297",
"{.	c #E35D71",
"].	c #393F64",
"^.	c #262741",
"/.	c #A6A8C2",
"(.	c #F5424D",
"_.	c #AB7F9F",
":.	c #C88EA4",
"<.	c #E9475A",
"[.	c #ED5160",
"}.	c #B06A8B",
"|.	c #AE82A0",
"1.	c #F13343",
"2.	c #696F99",
"3.	c #DE4B63",
"4.	c #B95877",
"5.	c #896A92",
"6.	c #FE060D",
"7.	c #F61F2D",
"8.	c #666189",
"9.	c #D04C69",
"0.	c #C54E6D",
"a.	c #1F1D32",
"b.	c #786B94",
"c.	c #FA1520",
"d.	c #FC111B",
"e.	c #7D6A92",
"f.	c #363D61",
"g.	c #C15273",
"h.	c #D24A67",
"i.	c #2E314F",
"j.	c #6A6B95",
"k.	c #F42535",
"l.	c #FE0408",
"m.	c #8B668E",
"n.	c #B1587A",
"o.	c #DE415B",
"p.	c #EB3045",
"q.	c #9C6288",
"r.	c #2B2D4A",
"s.	c #9C5579",
"t.	c #E8354B",
"u.	c #272842",
"v.	c #DE364E",
"w.	c #AD5C80",
"x.	c #804F77",
"y.	c #FF0203",
"z.	c #F1293C",
"A.	c #6A6F98",
"B.	c #D03653",
"C.	c #BB5879",
"D.	c #644770",
"E.	c #FB0B16",
"F.	c #F81D2B",
"G.	c #756F98",
"H.	c #BF3454",
"I.	c #C85070",
"J.	c #443658",
"K.	c #F60F1D",
"L.	c #FC0D18",
"M.	c #7A6185",
"N.	c #AB223A",
"O.	c #D02D43",
"P.	c #241D32",
"Q.	c #EC0710",
"R.	c #FF0001",
"S.	c #74273E",
"                                                                                                ",
"                          . . . . . . . . . . . . . + + . . . @ . . .                           ",
"                # $ $ $ $ $ $ $ $ $ $ $ $ $ $ $ $ $ $ $ $ $ $ $ $ $ $ $ $ $ $ $ %               ",
"                # $ $ $ $ $ $ $ $ $ $ $ $ $ $ $ $ $ $ $ $ $ $ $ $ $ $ $ $ $ $ $ %               ",
"                # $ $ $ $ $ $ $ $ $ $ $ $ $ $ $ $ $ $ $ $ $ $ $ $ $ $ $ $ $ $ $ %               ",
"                # $ $ $ $ $ $ $ $ $ $ $ $ $ $ $ $ $ $ $ $ $ $ $ $ $ $ $ $ $ $ $ %               ",
"                & $ $ $ $ $ $ $ $ $ $ $ $ $ $ $ $ $ $ $ $ $ $ $ $ $ $ $ $ $ $ $ %               ",
"              @ & $ $ $ $ $ $ $ $ $ $ $ $ $ $ $ $ $ $ $ $ $ $ $ $ $ $ $ $ $ $ $ *               ",
"            + = - $ $ $ $ $ $ $ $ $ $ $ $ $ $ $ $ $ $ $ $ $ $ $ $ $ $ $ $ $ $ $ ; +             ",
"          + > , ' $ $ $ $ $ $ $ $ $ $ $ $ $ $ $ $ $ $ $ $ $ $ $ $ $ $ $ $ $ $ $ ) > +           ",
"        @ ! ~ { ] ^ / ( _ _ _ : _ _ _ _ _ _ _ _ _ _ _ _ < [ $ $ $ $ $ $ $ $ $ } | , ! @         ",
"      . = 1 2 3 4 / ( _ : _ _ _ _ _ _ _ _ _ _ _ : _ _ _ 5 $ $ $ $ $ $ $ $ $ $ 6 3 2 1 = .       ",
"    = 7 8 9 0 ^ a ( _ _ : _ _ _ _ _ _ : _ _ _ _ _ _ _ b c $ $ $ $ $ $ $ $ $ d e ^ f 2 , > !     ",
"  . g h { ] ^ a ( i _ _ : _ _ _ _ _ _ _ _ _ _ _ _ _ _ j $ $ $ $ $ $ $ $ $ $ k l m ^ ] n h g .   ",
"  . > 9 o 4 / ( _ : _ _ _ _ _ _ _ _ _ _ : _ _ _ _ _ p q $ $ $ $ $ $ $ $ $ $ r _ l s ^ o 9 > .   ",
"  . > 2 3 t u i : : : _ _ _ _ _ _ _ _ _ _ _ _ _ _ _ v $ $ $ $ $ $ $ $ $ $ w x : i l t 3 y > .   ",
"  . > y z t u i : : : _ _ _ _ _ _ _ : _ _ _ _ _ _ : A $ $ $ $ $ $ $ $ $ $ B : : i u t C 2 > .   ",
"  . > y o 4 u ( _ : _ _ _ _ _ _ _ _ _ _ _ _ _ _ _ D $ $ $ $ $ $ $ $ $ $ A _ _ _ ( a 4 o 9 > .   ",
"  . g E F G t u l H _ _ : : _ : _ _ _ _ _ _ _ _ _ I $ $ $ $ $ $ $ $ $ $ J _ H l u t G F E > K   ",
"  K ! h L o G M s l H _ : : _ _ : _ _ _ : _ _ _ N $ $ $ $ $ $ $ $ $ $ O P H Q s M G o { R ! K   ",
"  . ! , S T o U 4 / l _ : : _ _ _ _ : _ _ _ _ _ V $ $ $ $ $ $ $ $ $ $ W _ l / 4 U o T S X = K   ",
"  @ = Y S Z ` o  .M m l H H _ : : _ _ _ _ _ _ ..+.$ $ $ $ $ $ $ $ $ @.#.l u M  .o ` Z S Y ! K   ",
"  K = Y S Z Z T o $.4 s l H : : : _ _ _ _ _ _ %.$ $ $ $ $ $ $ $ $ $ &.l / 4 $.o ` L *.S Y ! K   ",
"  K = Y S *.Z Z L o U 4 s l _ : _ _ _ _ _ _ =.-.$ $ $ $ $ $ $ $ $ ;.>./ 4 ,.o L Z '.*.).Y = K   ",
"  K ! Y S *.*.'.Z L o  .!.u l i H _ : : _ _ ~.$ $ $ $ $ $ $ $ $ $ {.a 4 ,.o L Z *.'.'.].Y ^.K   ",
"  K ! Y S *.*.*.'.Z T o $.4 / l H : : : : /.(.$ $ $ $ $ $ $ $ $ $ _.M G o T Z '.*.*.'.S Y + K   ",
"  K = Y ).*.Z *.'.'.Z L o $.4 s l _ : : : :.$ $ $ $ $ $ $ $ $ $ <.4 U F L Z '.'.'.Z '.S Y + K   ",
"  K ! Y S *.Z *.'.*.*.Z L o ,.!.m l H H H [.$ $ $ $ $ $ $ $ $ $ }. .z ` Z '.).'.*.*.*.).Y ^.K   ",
"  K ! Y S *.*.*.*.).*.'.Z T o ,.M s u u |.$ $ $ $ $ $ $ $ $ $ 1.2.z T Z Z *.*.*.*.*.*.].Y ! K   ",
"  K ! Y S *.*.Z '.).*.'.'.Z L o ,.4 !.M 3.$ $ $ $ $ $ $ $ $ $ 4.F T Z '.*.*.*.*.*.T *.).Y ! K   ",
"  K ! Y ).*.*.*.).'.'.*.*.'.Z T o  .G 5.6.$ $ $ $ $ $ $ $ $ 7.8.` Z *.*.*.*.*.*.*.*.*.).Y ! K   ",
"  K ! Y ).Z *.Z '.'.*.'.).).'.T o C  .9.$ $ $ $ $ $ $ $ $ $ 0.o T Z *.*.*.*.*.Z *.*.*.).Y ! K   ",
"  K a.X S '.'.'.*.'.'.*.*.*.'.T o C b.c.$ $ $ $ $ $ $ $ $ d.e.o T '.).*.*.*.*.*.*.Z *.].f.! K   ",
"  K ! Y S ).'.*.'.*.*.'.*.*.Z T o C g.$ $ $ $ $ $ $ $ $ $ h. .F T Z *.*.*.Z *.Z *.*.).].Y a.K   ",
"  K a.i.X ].S *.'.*.*.'.*.*.'.T o j.k.$ $ $ $ $ $ $ $ $ l.m.C o T '.*.*.*.*.*.*.*.].].f.Y + K   ",
"    a.! ^.i.f.S '.Z '.*.*.*.'.T o n.$ $ $ $ $ $ $ $ $ $ o. .C o T Z *.*.*.*.Z Z ).f.i.^.^.a.    ",
"      K a.! Y ].'.'.*.'.*.*.Z T o p.$ $ $ $ $ $ $ $ $ $ q.U C o T '.*.*.'.'.Z *.].Y ! a.K       ",
"        K a.r.R ].S *.*.*.*.'.T s.$ $ $ $ $ $ $ $ $ $ t.U G  .o T '.*.*.*.*.].].X r.a.@         ",
"          . ! u.Y R S '.'.*.Z T v.$ $ $ $ $ $ $ $ $ $ w.G U  .o T '.*.'.Z ].f.Y u.! a.          ",
"            . a.! Y S *.*.*.'.x.y.$ $ $ $ $ $ $ $ $ z.A.U G  .o T Z '.*.).].Y ! a..             ",
"              K a.u.X ].S ).'.B.$ $ $ $ $ $ $ $ $ $ C.G G G  .o ` Z ).S E X u.a.@               ",
"                K ! r.Y f.S D.E.$ $ $ $ $ $ $ $ $ F.G.G G G U z ` '.].f.Y r.! .                 ",
"                  a.a.! r.].H.$ $ $ $ $ $ $ $ $ $ I.G G G G ,.3 ` '.f.r.! a.a.                  ",
"                    @ a.u.J.K.$ $ $ $ $ $ $ $ $ L.M.z 3 3 C o L Z S X ^.a.@                     ",
"                      K = N.$ $ $ $ $ $ $ $ $ $ O.2 2 2 2 2 y 9 R , r.= K                       ",
"                        P.Q.$ $ $ $ $ $ $ $ $ R.S.> > 7 > > > > ^.! + a.                        ",
"                          K K K K . . . K . . . . . . . . . . K K K K                           ",
"                                                                                                "};
